desc:LMS - Punk Idol v2 (Density-Aware JCM800)
//tags: amp guitar marshall density-aware
//author: LMS + Claude
//version: 1.1
//license: GPL-3.0
import lms_core.jsfx-inc
options:gmem=DrumBagger

slider1:0<-24,24,0.1>-Input Level (dB)
slider2:50<0,100,0.1>-Gain (%)
slider3:1<0,2,1{Clean,Crunch,Lead}>-Channel
slider4:50<0,100,1>-Bass (%)
slider5:50<0,100,1>-Mid (%)
slider6:50<0,100,1>-Treble (%)
slider7:50<0,100,1>-Master (%)
slider8:50<0,100,1>-Input Stage (%)
slider9:50<0,100,1>-PSU Sag (%)
slider10:0<-24,24,0.1>-Output Level (dB)
slider11:0<0,1,1{Off,On}>-FX Bypass
// --- SPRING REVERB ---
slider12:0<0,100,1>-Spring Reverb (%)
// slider13 removed (dwell)
// --- TREMOLO ---
slider14:0<0,100,1>-Tremolo Depth (%)
slider15:50<0,100,1>-Tremolo Speed (%)
// --- TAPE ECHO ---
slider16:0<0,100,1>-Tape Echo Mix (%)
slider17:50<0,100,1>-Echo Time (%)
slider18:40<0,100,1>-Echo Feedback (%)

@init

// === CORE MATH ===
function tanh_approx(x) local(e2x) ( x > 10 ? 1 : x < -10 ? -1 : ( e2x = exp(2*x); (e2x-1)/(e2x+1); ); );

function bq_init() ( this.b0=1; this.b1=0; this.b2=0; this.a1=0; this.a2=0; this.x1=0; this.x2=0; this.y1=0; this.y2=0; );
function bq_set_lp(freq, q) local(w0, cs, sn, alpha, a0_inv) ( w0=2*$pi*freq/srate; cs=cos(w0); sn=sin(w0); alpha=sn/(2*q); a0_inv=1/(1+alpha); this.b0=(1-cs)/2*a0_inv; this.b1=(1-cs)*a0_inv; this.b2=(1-cs)/2*a0_inv; this.a1=-2*cs*a0_inv; this.a2=(1-alpha)*a0_inv; );
function bq_set_hp(freq, q) local(w0, cs, sn, alpha, a0_inv) ( w0=2*$pi*freq/srate; cs=cos(w0); sn=sin(w0); alpha=sn/(2*q); a0_inv=1/(1+alpha); this.b0=(1+cs)/2*a0_inv; this.b1=-(1+cs)*a0_inv; this.b2=(1+cs)/2*a0_inv; this.a1=-2*cs*a0_inv; this.a2=(1-alpha)*a0_inv; );
function bq_set_peak(freq, gain_db, q) local(a, w0, alpha, a0_inv) ( a=10^(gain_db/20); w0=2*$pi*freq/srate; alpha=sin(w0)/(2*q); a0_inv=1/(1+alpha/a); this.b0=(1+alpha*a)*a0_inv; this.b1=(-2*cos(w0))*a0_inv; this.b2=(1-alpha*a)*a0_inv; this.a1=this.b1; this.a2=(1-alpha/a)*a0_inv; );
function bq_set_loshelf(freq, gain_db, q) local(a, w0, cs, sn, alpha, ap1, am1, beta, a0_inv) ( a=10^(gain_db/40); w0=2*$pi*freq/srate; cs=cos(w0); sn=sin(w0); alpha=sn/(2*q); ap1=a+1; am1=a-1; beta=2*sqrt(a)*alpha; a0_inv=1/(ap1+am1*cs+beta); this.b0=a*(ap1-am1*cs+beta)*a0_inv; this.b1=2*a*(am1-ap1*cs)*a0_inv; this.b2=a*(ap1-am1*cs-beta)*a0_inv; this.a1=-2*(am1+ap1*cs)*a0_inv; this.a2=(ap1+am1*cs-beta)*a0_inv; );
function bq_set_hishelf(freq, gain_db, q) local(a, w0, cs, sn, alpha, ap1, am1, beta, a0_inv) ( a=10^(gain_db/40); w0=2*$pi*freq/srate; cs=cos(w0); sn=sin(w0); alpha=sn/(2*q); ap1=a+1; am1=a-1; beta=2*sqrt(a)*alpha; a0_inv=1/(ap1-am1*cs+beta); this.b0=a*(ap1+am1*cs+beta)*a0_inv; this.b1=-2*a*(am1+ap1*cs)*a0_inv; this.b2=a*(ap1+am1*cs-beta)*a0_inv; this.a1=2*(am1-ap1*cs)*a0_inv; this.a2=(ap1-am1*cs-beta)*a0_inv; );
function bq_proc(x) local(o) ( o=this.b0*x + this.b1*this.x1 + this.b2*this.x2 - this.a1*this.y1 - this.a2*this.y2; this.x2=this.x1; this.x1=x; this.y2=this.y1; this.y1=o; o; );
function dc_init() ( this.xp=0; this.yp=0; this.r=1-(20/srate); );
function dc_proc(x) ( this.yp=x-this.xp+this.r*this.yp; this.xp=x; this.yp; );

// === INPUT STAGE (grid physics — proven from Miller test) ===
function input_stage_init() (
  this.cap_charge = 0.0;
  this.cap_charge_rate = exp(-1/(srate * 0.0005));
  this.cap_drain_rate = exp(-1/(srate * 0.030));
  this.input_lp.bq_init();
  this.input_lp.bq_set_lp(4500, 0.6);
  this.cathode_shelf.bq_init();
  this.cathode_shelf.bq_set_hishelf(800, -2.5, 0.5);
  this.peak_env = 0;
  this.peak_att = exp(-1/(srate * 0.0002));
  this.peak_rel = exp(-1/(srate * 0.050));
);

function input_stage_proc(x, intensity) local(loaded, dry, bias_shift, biased, grid_thresh, conducted) (
  loaded = this.input_lp.bq_proc(x);
  loaded = x + intensity * (loaded - x);
  loaded > 0.1 ? (
    this.cap_charge = this.cap_charge_rate * this.cap_charge + (1-this.cap_charge_rate) * loaded * 0.15 * intensity;
  ) : (
    this.cap_charge = this.cap_drain_rate * this.cap_charge;
  );
  bias_shift = this.cap_charge;
  biased = loaded - bias_shift;
  grid_thresh = 1.0 - intensity * 0.85;
  biased > grid_thresh ? (
    conducted = grid_thresh + tanh_approx((biased - grid_thresh) * (1.0 + intensity * 3.0)) * (0.05 + intensity * 0.15);
  ) : (
    conducted = biased;
  );
  dry = conducted;
  conducted = this.cathode_shelf.bq_proc(conducted);
  conducted = dry + intensity * (conducted - dry);
  abs(x) > this.peak_env ? (
    this.peak_env = this.peak_att * this.peak_env + (1-this.peak_att) * abs(x);
  ) : (
    this.peak_env = this.peak_rel * this.peak_env + (1-this.peak_rel) * abs(x);
  );
  conducted;
);

// === PSU SAG (shared across all stages) ===
function psu_init() (
  this.voltage = 1.0;
  this.att = exp(-1/(srate * 0.001));
  this.rel = exp(-1/(srate * 0.080));
  this.droop_amount = 0.0;
);
function psu_proc(signal_level, sag_depth) local(draw) (
  draw = signal_level * signal_level;
  draw > this.droop_amount ? (
    this.droop_amount = this.att * this.droop_amount + (1-this.att) * draw;
  ) : (
    this.droop_amount = this.rel * this.droop_amount + (1-this.rel) * draw;
  );
  this.voltage = 1.0 - this.droop_amount * 0.25 * sag_depth;
  this.voltage = max(0.6, min(1.0, this.voltage));
  this.voltage;
);

// === 4-BAND HARMONIC DENSITY TRACKER ===
function hd_init() (
  this.f_lo.bq_init(); this.f_lo.bq_set_lp(250,0.7);
  this.f_mid_lo.bq_init(); this.f_mid_lo.bq_set_lp(2000,0.7);
  this.f_mid_hi.bq_init(); this.f_mid_hi.bq_set_hp(250,0.7);
  this.f_hi.bq_init(); this.f_hi.bq_set_hp(2000,0.7);
  this.f_air.bq_init(); this.f_air.bq_set_hp(5000,0.7);
  this.env_lo=0; this.env_mid=0; this.env_hi=0; this.env_air=0; this.env_total=0;
  this.att=exp(-1/(srate*0.002)); this.rel=exp(-1/(srate*0.080));
  this.density=1.0; this.mid_density=0.0; this.hi_density=0.0; this.air_density=0.0;
  this.smooth=exp(-1/(srate*0.030));
);
function hd_proc(x) local(lo, mid, hi, air, abs_lo, abs_mid, abs_hi, abs_air, abs_total, raw, raw_mid, raw_hi, raw_air) (
  lo=this.f_lo.bq_proc(x);
  mid=this.f_mid_hi.bq_proc(this.f_mid_lo.bq_proc(x));
  hi=this.f_hi.bq_proc(x);
  air=this.f_air.bq_proc(x);
  abs_lo=abs(lo); abs_mid=abs(mid); abs_hi=abs(hi); abs_air=abs(air); abs_total=abs(x);
  abs_lo > this.env_lo ? ( this.env_lo=this.att*this.env_lo+(1-this.att)*abs_lo; ) : ( this.env_lo=this.rel*this.env_lo+(1-this.rel)*abs_lo; );
  abs_mid > this.env_mid ? ( this.env_mid=this.att*this.env_mid+(1-this.att)*abs_mid; ) : ( this.env_mid=this.rel*this.env_mid+(1-this.rel)*abs_mid; );
  abs_hi > this.env_hi ? ( this.env_hi=this.att*this.env_hi+(1-this.att)*abs_hi; ) : ( this.env_hi=this.rel*this.env_hi+(1-this.rel)*abs_hi; );
  abs_air > this.env_air ? ( this.env_air=this.att*this.env_air+(1-this.att)*abs_air; ) : ( this.env_air=this.rel*this.env_air+(1-this.rel)*abs_air; );
  abs_total > this.env_total ? ( this.env_total=this.att*this.env_total+(1-this.att)*abs_total; ) : ( this.env_total=this.rel*this.env_total+(1-this.rel)*abs_total; );
  this.env_lo > 0.0001 ? ( raw=this.env_total/this.env_lo; raw=min(2.5,max(1.0,raw)); ) : ( raw=1.0; );
  this.env_total > 0.0001 ? (
    raw_mid=this.env_mid/this.env_total; raw_mid=min(1.0,max(0.0,raw_mid));
    raw_hi=this.env_hi/this.env_total; raw_hi=min(1.0,max(0.0,raw_hi));
    raw_air=this.env_air/this.env_total; raw_air=min(1.0,max(0.0,raw_air));
  ) : ( raw_mid=0.0; raw_hi=0.0; raw_air=0.0; );
  this.density=this.smooth*this.density+(1-this.smooth)*raw;
  this.mid_density=this.smooth*this.mid_density+(1-this.smooth)*raw_mid;
  this.hi_density=this.smooth*this.hi_density+(1-this.smooth)*raw_hi;
  this.air_density=this.smooth*this.air_density+(1-this.smooth)*raw_air;
);

// =========================================================================
// === DENSITY-AWARE TRIODE STAGE (v2b) ===
// LESSON LEARNED: density must drive filters and drive levels, NOT the
// clipping curve shape. Time-varying waveshaper = intermod artifacts on
// decaying notes. The Miller test proved this: fixed tanh curves +
// density-driven filters = great sound.
//
// So: each triode has FIXED asymmetric tanh clipping (like Miller test),
// and density drives:
//   - Miller LP cutoff (more harmonics = darker interstage = "browner")
//   - Miller LP Q (more hi content = slight resonance = "presence")
//   - Air shelf (more air density = cut fizz)
//   - Drive boost (more mid density = push into clipping harder)
//   - Grid conduction threshold uses PEAK ENVELOPE, not density
// =========================================================================
function triode_init(hp_freq, lp_freq) (
  // Coupling cap HP (removes DC between stages)
  this.hp.bq_init();
  this.hp.bq_set_hp(hp_freq, 0.7);
  // Grid leak bias shift
  this.cap_charge = 0.0;
  this.cap_charge_rate = exp(-1/(srate * 0.0005));
  this.cap_drain_rate = exp(-1/(srate * 0.030));
  // Interstage Miller LP (density-driven cutoff, NOT clipping)
  this.miller.bq_init();
  this.miller.bq_set_lp(lp_freq, 0.6);
  this.miller_base_freq = lp_freq;
  this.last_miller_freq = lp_freq;
  this.last_miller_q = 0.6;
  // Air shelf (density-driven fizz control)
  this.air_shelf.bq_init();
  this.air_shelf.bq_set_hishelf(5000, 0.0, 0.7);
  this.last_air_cut = 0.0;
  // Own density tracker (each stage sees its own harmonic picture)
  this.hd.hd_init();
  // DC block
  this.dc.dc_init();
  // Peak envelope for grid conduction (smooth, no density jitter)
  this.peak_env = 0;
  this.peak_att = exp(-1/(srate * 0.0002));
  this.peak_rel = exp(-1/(srate * 0.050));
);

// pos_hard/neg_hard: FIXED clipping hardness (never changes per-sample)
// pos_ceil/neg_ceil: FIXED output ceiling (only PSU bplus scales this)
// gc_thresh: grid conduction onset (uses peak envelope, not density)
// gc_amount: how much grid conduction squashes
function triode_proc(x, drive, bplus, pos_hard, neg_hard, pos_ceil, neg_ceil, gc_thresh, gc_amount)
  local(b, gain, bias_shift, p_ceil, n_ceil, gc_out, lp_freq, lp_q, air_cut, drive_boost, ax)
(
  // 1. Coupling cap HP
  b = this.hp.bq_proc(x);

  // 2. Grid leak bias shift (coupling cap charges on peaks)
  b > 0.1 ? (
    this.cap_charge = this.cap_charge_rate * this.cap_charge + (1-this.cap_charge_rate) * b * 0.12;
  ) : (
    this.cap_charge = this.cap_drain_rate * this.cap_charge;
  );
  bias_shift = this.cap_charge;
  b = b - bias_shift;

  // 3. Apply drive — density boosts drive (mid density = push harder into clip)
  //    This is safe because it changes the INPUT level, not the curve shape.
  //    More mids = tube is working harder = more saturation. Natural.
  drive_boost = 1.0 + this.hd.mid_density * 0.4;
  gain = (1.0 + drive * 4.0) * drive_boost;
  b = b * gain;

  // 4. Run density tracker on pre-clip signal
  this.hd.hd_proc(b);

  // 5. FIXED CLIPPING CURVES — same shape every sample
  //    Only bplus (PSU sag) scales the ceiling. The hardness is constant.
  //    This is exactly how the Miller test does it, and it sounds great.
  p_ceil = pos_ceil * bplus;
  n_ceil = neg_ceil * bplus;

  b >= 0 ? (
    b = tanh_approx(b * pos_hard) * p_ceil;
  ) : (
    b = tanh_approx(b * neg_hard) * n_ceil;
  );

  // 6. Grid conduction — uses PEAK ENVELOPE (smooth, level-based)
  //    NOT density. Peak envelope is a simple, stable signal.
  //    When signal peaks are loud, grid conducts and squashes tops.
  ax = abs(b);
  ax > this.peak_env ? (
    this.peak_env = this.peak_att * this.peak_env + (1-this.peak_att) * ax;
  ) : (
    this.peak_env = this.peak_rel * this.peak_env + (1-this.peak_rel) * ax;
  );
  b > gc_thresh && this.peak_env > gc_thresh * 0.8 ? (
    gc_out = gc_thresh + tanh_approx((b - gc_thresh) * 3.0) * gc_amount;
    b = gc_out;
  );

  // 7. Miller LP — density drives cutoff and Q (AFTER clipping, on output)
  //    This is the proven approach from the Miller test.
  lp_freq = this.miller_base_freq - (this.hd.density - 1.0) * 500;
  lp_freq = max(this.miller_base_freq - 1500, min(this.miller_base_freq + 500, lp_freq));
  lp_q = 0.6 + this.hd.hi_density * 0.35;
  lp_q = max(0.6, min(0.95, lp_q));
  abs(lp_freq - this.last_miller_freq) > 30 || abs(lp_q - this.last_miller_q) > 0.02 ? (
    this.miller.bq_set_lp(lp_freq, lp_q);
    this.last_miller_freq = lp_freq;
    this.last_miller_q = lp_q;
  );
  b = this.miller.bq_proc(b);

  // 8. Air shelf — density-driven (safe: it's a filter, not a waveshaper)
  air_cut = -this.hd.air_density * 3.0;
  air_cut = max(-3.0, min(0.0, air_cut));
  abs(air_cut - this.last_air_cut) > 0.1 ? (
    this.air_shelf.bq_set_hishelf(5000, air_cut, 0.7);
    this.last_air_cut = air_cut;
  );
  b = this.air_shelf.bq_proc(b);

  // 9. DC block
  b = this.dc.dc_proc(b);

  b;
);

// === TONE STACK (JCM800 passive Baxandall) ===
function tonestack_init() (
  this.f_bass.bq_init(); this.f_mid.bq_init(); this.f_treb.bq_init();
);
function tonestack_set(bass, mid, treble) local(bass_db, mid_db, treb_db, bass_freq, mid_freq, treb_freq, mid_q, bass_mid_xcouple, treb_mid_xcouple) (
  bass_freq = 60 + bass * 140;
  bass_db = (bass - 0.5) * 18;
  mid_freq = 370;
  mid_q = 1.0 + mid * 1.5;
  mid_db = (0.5 - mid) * 14;
  treb_freq = 900 + treble * 600;
  treb_db = (treble - 0.5) * 16;
  bass_mid_xcouple = (bass - 0.5) * 3.0;
  treb_mid_xcouple = (treble - 0.5) * 2.5;
  mid_db -= bass_mid_xcouple + treb_mid_xcouple;
  this.f_bass.bq_set_loshelf(bass_freq, bass_db, 0.6);
  this.f_mid.bq_set_peak(mid_freq, mid_db, mid_q);
  this.f_treb.bq_set_hishelf(treb_freq, treb_db, 0.75);
);
function tonestack_proc(x) local(b) (
  b = this.f_bass.bq_proc(x);
  b = this.f_mid.bq_proc(b);
  b = this.f_treb.bq_proc(b);
  b;
);

// === CATHODE FOLLOWER (12AX7 — buffers plate output before tone stack) ===
// Real JCM800 has a CF between preamp and tone stack.
// Unity-gain, low output Z. Without it, tone stack loads the plate and
// loses treble. Adds gentle programme-dependent compression.
function cathode_follower_init() (
  this.hp.bq_init();
  this.hp.bq_set_hp(15, 0.7);
  this.dc.dc_init();
  this.bias_env = 0;
  this.bias_att = exp(-1/(srate * 0.002));
  this.bias_rel = exp(-1/(srate * 0.060));
  this.cf_lp.bq_init();
  this.cf_lp.bq_set_lp(15000, 0.5);
);
function cathode_follower_proc(x, bplus) local(b, ax, bias_shift) (
  b = this.hp.bq_proc(x);
  ax = abs(b);
  ax > this.bias_env ? (
    this.bias_env = this.bias_att * this.bias_env + (1-this.bias_att) * ax;
  ) : (
    this.bias_env = this.bias_rel * this.bias_env + (1-this.bias_rel) * ax;
  );
  bias_shift = this.bias_env * 0.20;  // up to 20% gain reduction (less than Mesa)
  b > 0.7 * bplus ? (
    b = 0.7 * bplus + tanh_approx((b - 0.7 * bplus) * 2.0) * 0.25 * bplus;
  );
  b < -0.85 * bplus ? (
    b = -0.85 * bplus;
  );
  b = b * (1.0 - bias_shift);
  b = this.cf_lp.bq_proc(b);
  b = this.dc.dc_proc(b);
  b * 0.95;
);

// === POWER AMP (EL34 push-pull, FIXED clipping, density drives NFB/presence) ===
// Now includes output transformer saturation (density-driven low-freq core loading)
function poweramp_init() (
  this.hd.hd_init();
  this.dc.dc_init();
  this.pres_f.bq_init();
  this.nfb_lp.bq_init();
  this.nfb_lp.bq_set_lp(6000, 0.5);
  this.last_nfb_freq = 6000;
  this.drive = 0;
  this.xfmr_lp = 0;  // output transformer core saturation state
);
function poweramp_set(drive, presence) local(pres_freq, pres_db) (
  this.drive = drive;
  // Presence in NFB loop: more presence = less HF NFB = more bite
  pres_freq = 2000 + presence * 6000;
  pres_db = presence * 8;
  this.pres_f.bq_set_hishelf(pres_freq, pres_db, 0.9);
);
function poweramp_proc(x, bplus) local(b, push, pull, out, nfb_freq, xfmr_sat, lo_content, hi_content, lo_saturated, lo_final) (
  b = x * (1.0 + this.drive * 2.5);

  // Density tracker on power amp input (drives NFB, not clipping)
  this.hd.hd_proc(b);

  // Push tube — FIXED hardness 1.4, only bplus scales ceiling
  push = b > 0 ? b : 0;
  push = tanh_approx(push * 1.4) * bplus;

  // Pull tube — FIXED hardness 1.35 (real EL34 push/pull mismatch)
  pull = b < 0 ? -b : 0;
  pull = tanh_approx(pull * 1.35) * bplus;

  out = push - pull;

  // Output transformer saturation — density-driven, guitar-tuned
  // Marshall OT is smaller than SVT = saturates earlier on low content
  // Extraction at ~120Hz (guitar power chords, not bass fundamentals)
  xfmr_sat = this.hd.env_lo;
  xfmr_sat = min(1.0, xfmr_sat * 3.0);  // more sensitive than SVT (smaller core)
  xfmr_sat > 0.05 ? (
    this.xfmr_lp = this.xfmr_lp * 0.984 + out * 0.016;  // ~120Hz one-pole LP
    lo_content = this.xfmr_lp;
    hi_content = out - lo_content;
    lo_saturated = tanh_approx(lo_content * (1.0 + xfmr_sat * 1.0))
                   / (1.0 + xfmr_sat * 0.2);
    lo_final = lo_content + xfmr_sat * (lo_saturated - lo_content);
    out = lo_final + hi_content;
  );

  // Density drives NFB loop bandwidth (more harmonics = tighter NFB = darker)
  nfb_freq = 6000 - (this.hd.density - 1.0) * 800;
  nfb_freq = max(3500, min(7000, nfb_freq));
  abs(nfb_freq - this.last_nfb_freq) > 50 ? (
    this.nfb_lp.bq_set_lp(nfb_freq, 0.5);
    this.last_nfb_freq = nfb_freq;
  );
  out = this.nfb_lp.bq_proc(out);

  // Presence (in NFB loop — applied after NFB LP)
  out = this.pres_f.bq_proc(out);
  out = this.dc.dc_proc(out);
  out * 0.85;
);

// === SOFT GATE ===
function sgate_init() (
  this.env = 0;
  this.att = exp(-1/(srate * 0.0005));
  this.rel = exp(-1/(srate * 0.150));
);
function sgate_proc(x) local(ax, gate_gain) (
  ax = abs(x);
  ax > this.env ? (
    this.env = this.att * this.env + (1-this.att) * ax;
  ) : (
    this.env = this.rel * this.env + (1-this.rel) * ax;
  );
  this.env > 0.001 ? ( gate_gain = 1.0; )
  : this.env < 0.0002 ? ( gate_gain = 0.0; )
  : (
    gate_gain = (this.env - 0.0002) / 0.0008;
    gate_gain = gate_gain * gate_gain * (3.0 - 2.0 * gate_gain);
  );
  x * gate_gain;
);

// === SPRING REVERB (allpass diffusion network) ===
function spring_init() (
  // Buffer layout: contiguous, no overlaps
  // PD(337)@0 | AP1(1087)@400 | AP2(1483)@1500 | AP3(1801)@3000 | AP4(2213)@4900 | FB(3571)@7200
  this.buf_base = 100000;
  this.pd_off = 0;       this.pd_len = 337;    this.pd_pos = 0;
  this.ap1_off = 400;    this.ap1_len = 1087;  this.ap1_pos = 0;
  this.ap2_off = 1500;   this.ap2_len = 1483;  this.ap2_pos = 0;
  this.ap3_off = 3000;   this.ap3_len = 1801;  this.ap3_pos = 0;
  this.ap4_off = 4900;   this.ap4_len = 2213;  this.ap4_pos = 0;
  this.fb_off = 7200;    this.fb_len = 3571;   this.fb_pos = 0;
  this.fb_val = 0;
  this.fb_lp.bq_init();
  this.fb_lp.bq_set_lp(2500, 0.5);
  this.in_lp.bq_init();
  this.in_lp.bq_set_lp(4000, 0.6);
  memset(this.buf_base, 0, 11000);
);
function spring_proc(x, mix) local(input, ap_out, delayed, fb, wet, coeff) (
  input = this.in_lp.bq_proc(x);
  coeff = 0.28;
  // Pre-delay (spring transit time)
  delayed = (this.buf_base + this.pd_off)[this.pd_pos];
  (this.buf_base + this.pd_off)[this.pd_pos] = input + this.fb_val * coeff;
  this.pd_pos += 1; this.pd_pos >= this.pd_len ? this.pd_pos = 0;
  // 4 allpass stages (spring diffusion)
  ap_out = delayed;
  fb = (this.buf_base + this.ap1_off)[this.ap1_pos];
  (this.buf_base + this.ap1_off)[this.ap1_pos] = ap_out + fb * 0.5;
  ap_out = fb - ap_out * 0.5;
  this.ap1_pos += 1; this.ap1_pos >= this.ap1_len ? this.ap1_pos = 0;
  fb = (this.buf_base + this.ap2_off)[this.ap2_pos];
  (this.buf_base + this.ap2_off)[this.ap2_pos] = ap_out + fb * 0.5;
  ap_out = fb - ap_out * 0.5;
  this.ap2_pos += 1; this.ap2_pos >= this.ap2_len ? this.ap2_pos = 0;
  fb = (this.buf_base + this.ap3_off)[this.ap3_pos];
  (this.buf_base + this.ap3_off)[this.ap3_pos] = ap_out + fb * 0.45;
  ap_out = fb - ap_out * 0.45;
  this.ap3_pos += 1; this.ap3_pos >= this.ap3_len ? this.ap3_pos = 0;
  fb = (this.buf_base + this.ap4_off)[this.ap4_pos];
  (this.buf_base + this.ap4_off)[this.ap4_pos] = ap_out + fb * 0.4;
  ap_out = fb - ap_out * 0.4;
  this.ap4_pos += 1; this.ap4_pos >= this.ap4_len ? this.ap4_pos = 0;
  // Feedback path (through LP — springs eat highs)
  this.fb_val = this.fb_lp.bq_proc(ap_out);
  // Feedback delay (longer sustain)
  wet = (this.buf_base + this.fb_off)[this.fb_pos];
  (this.buf_base + this.fb_off)[this.fb_pos] = ap_out;
  this.fb_pos += 1; this.fb_pos >= this.fb_len ? this.fb_pos = 0;
  wet = (ap_out + wet * 0.3) * 0.7;
  x + wet * mix;
);

// === TREMOLO (bias tremolo) ===
function trem_init() ( this.phase = 0; );
function trem_proc(x, depth, speed) local(rate, lfo) (
  rate = 1.0 + speed * 9.0;
  this.phase += rate / srate;
  this.phase >= 1.0 ? this.phase -= 1.0;
  lfo = sin(this.phase * 2.0 * $pi);
  x * (1.0 - depth * 0.8 * (0.5 + lfo * 0.5));
);

// === TAPE ECHO (warm analog delay with LP rolloff and wow) ===
// Each repeat gets darker (tape head loses HF).
// Slight pitch wobble from motor flutter.
function tape_echo_init() (
  this.buf_base = 200000;  // separate memory from reverb
  this.buf_len = (srate * 1.0)|0;  // max 1 second delay
  this.buf_len = min(this.buf_len, 48000);
  this.write_pos = 0;
  this.fb_lp.bq_init();
  this.fb_lp.bq_set_lp(3000, 0.5);  // tape head HF rolloff
  this.fb_val = 0;
  this.wow_phase = 0;
  memset(this.buf_base, 0, 50000);
);
function tape_echo_proc(x, mix, time, feedback) local(delay_samps, read_pos, wow, delayed, wet, frac, idx, s0, s1) (
  // Time: 0-100% → 50ms to 600ms
  delay_samps = (0.050 + time * 0.550) * srate;
  delay_samps = min(delay_samps, this.buf_len - 2);
  // Wow/flutter: subtle pitch wobble (tape motor irregularity)
  this.wow_phase += 0.7 / srate;  // ~0.7Hz flutter
  this.wow_phase >= 1.0 ? this.wow_phase -= 1.0;
  wow = sin(this.wow_phase * 2.0 * $pi) * 0.002 * srate;  // ±2ms wobble
  // Read position with wow
  read_pos = this.write_pos - delay_samps + wow;
  read_pos < 0 ? read_pos += this.buf_len;
  // Linear interpolation for fractional delay
  idx = floor(read_pos);
  frac = read_pos - idx;
  idx < 0 ? idx += this.buf_len;
  s0 = (this.buf_base)[idx % this.buf_len];
  s1 = (this.buf_base)[(idx + 1) % this.buf_len];
  delayed = s0 + frac * (s1 - s0);
  // Feed back through LP (each repeat gets darker)
  this.fb_val = this.fb_lp.bq_proc(delayed);
  // Write input + feedback to buffer
  (this.buf_base)[this.write_pos] = x + this.fb_val * feedback * 0.85;
  this.write_pos += 1;
  this.write_pos >= this.buf_len ? this.write_pos = 0;
  // Output: dry + wet
  x + delayed * mix;
);

// === INIT ===
inp.input_stage_init();
input_hp.bq_init();
input_hp.bq_set_hp(100, 0.7);

// Bright cap on gain pot — 120pF across 1M pot
// At low gain: treble bypasses the pot = preserves pick attack
// At high gain: pot resistance is low = cap shorted = no effect
bright_cap.bq_init();
bright_cap.bq_set_hishelf(3000, 0.0, 0.7);

// V1B: softer stage (unbypassed cathode). HP at 35Hz, Miller LP at 8kHz
// pos_hard=1.2, neg_hard=1.5 (neg clips harder = atan shape from JCM800)
// pos_ceil=0.85, neg_ceil=1.0 (asymmetric output)
// gc_thresh=0.3, gc_amount=0.15
v1b.triode_init(35, 8000);

// V1A: harder stage (bypassed cathode). HP at 35Hz, Miller LP at 7500Hz
// pos_hard=1.8, neg_hard=1.4 (pos clips harder = 1-exp shape from JCM800)
// pos_ceil=0.75, neg_ceil=0.95 (more ceiling compression)
// gc_thresh=0.25, gc_amount=0.18
v1a.triode_init(35, 7500);

// Cathode follower — buffers preamp output before tone stack
cf.cathode_follower_init();

// Phase inverter — 12AX7 long-tail pair drives EL34 grids
// Soft, round — pre-compresses signal before power tubes at high master
// This is the JCM800 equivalent of the SVT's 12AU7 driver
pi.triode_init(15, 10000);

psu.psu_init();
ts.tonestack_init();
ts.tonestack_set(0.5, 0.5, 0.5);
pa.poweramp_init();
pa.poweramp_set(0.5, 0.5);
gate.sgate_init();
spring.spring_init();
trem.trem_init();
echo.tape_echo_init();
spring_mix = 0;
trem_depth = 0; trem_speed = 0.5;
echo_mix = 0; echo_time = 0.5; echo_feedback = 0.4;

// Marshall 4x12 G12T-75
cab1.bq_init(); cab1.bq_set_hp(80, 0.55);
cab2.bq_init(); cab2.bq_set_peak(100, 3.0, 1.8);
cab3.bq_init(); cab3.bq_set_peak(1200, -4.0, 0.9);
cab4.bq_init(); cab4.bq_set_peak(3500, 5.0, 1.4);
cab5.bq_init(); cab5.bq_set_lp(6500, 0.65);
// Closed-back air resonance — Marshall 4x12 resonates around 110Hz
cab_res.bq_init(); cab_res.bq_set_peak(110, 1.5, 3.0);

gain = 0.5; in_level = 1; out_level = 1; master = 0.5;
channel = 1; input_intensity = 0.5; sag_depth = 0.5;
fx_bypass = 0;

  // ============================================================
  // BROADCAST SYSTEM — Instance Registry
  // ============================================================
  BC_BASE = 100000;
  BC_MY_TYPE = 12;
  BC_SLOT_SIZE = 512;
  BC_MAX_INST = 32;
  BC_PARAM_COUNT = 18;
  BC_MY_REGION = BC_BASE + BC_MY_TYPE * 16384;
  BC_STALE_TIMEOUT = 2;

  bc_my_id == 0 ? bc_my_id = floor(rand() * 1073741824) + 1;
  bc_my_slot = -1;
  bc_follow_slot = -1;
  bc_steal_pending = 0;
  bc_steal_target = 0;
  bc_panel_expanded = 0;
  bc_page = 0;
  bc_steal_mode = 0;
  bc_instance_count = 0;
  notice_show = 0;

  BC_STALE_HB = 710000;
  BC_STALE_CT = 710032;
  i = 0;
  loop(BC_MAX_INST,
    BC_STALE_HB[i] = -1;
    BC_STALE_CT[i] = 0;
    i += 1;
  );

  bc_i = 0;
  loop(BC_MAX_INST,
    bc_my_slot < 0 ? (
      sb = BC_MY_REGION + bc_i * BC_SLOT_SIZE;
      sid = gmem[sb + 1];
      (sid == 0 || sid == bc_my_id) ? (
        bc_my_slot = bc_i;
      );
    );
    bc_i += 1;
  );

  bc_my_slot >= 0 ? (
    sb = BC_MY_REGION + bc_my_slot * BC_SLOT_SIZE;
    gmem[sb + 0] = 0;
    gmem[sb + 1] = bc_my_id;
    gmem[sb + 2] = BC_MY_TYPE;
    gmem[sb + 3] = 0;
    gmem[sb + 4] = BC_PARAM_COUNT;
  );

@slider
in_level = 10 ^ (slider1 / 20);
gain = slider2 / 100;
channel = slider3;
ts.tonestack_set(slider4/100, slider5/100, slider6/100);
master = slider7 / 100;
pa.poweramp_set(master, 0.5);
input_intensity = slider8 / 100;
sag_depth = slider9 / 100;
out_level = 10 ^ (slider10 / 20);
fx_bypass = slider11;
spring_mix = slider12 / 100;
trem_depth = slider14 / 100;
trem_speed = slider15 / 100;
echo_mix = slider16 / 100;
echo_time = slider17 / 100;
echo_feedback = slider18 / 100;

// ============================================================
// @BLOCK — Broadcast, heartbeat, stale-check, follow, steal
// ============================================================
@block
// ---- Recalculate from sliders (GFX changes don't trigger @slider) ----
in_level = 10 ^ (slider1 / 20);
gain = slider2 / 100;
channel = slider3;
ts.tonestack_set(slider4/100, slider5/100, slider6/100);
master = slider7 / 100;
pa.poweramp_set(master, 0.5);
input_intensity = slider8 / 100;
sag_depth = slider9 / 100;
out_level = 10 ^ (slider10 / 20);
fx_bypass = slider11;
spring_mix = slider12 / 100;
trem_depth = slider14 / 100;
trem_speed = slider15 / 100;
echo_mix = slider16 / 100;
echo_time = slider17 / 100;
echo_feedback = slider18 / 100;

bc_my_slot >= 0 ? (
  sb = BC_MY_REGION + bc_my_slot * BC_SLOT_SIZE;
  gmem[sb + 1] != bc_my_id ? (
    bc_my_id = floor(rand() * 1073741824) + 1;
    bc_my_slot = -1;
    bc_i = 0;
    loop(BC_MAX_INST,
      bc_my_slot < 0 ? (
        tsb = BC_MY_REGION + bc_i * BC_SLOT_SIZE;
        (gmem[tsb + 1] == 0) ? bc_my_slot = bc_i;
      );
      bc_i += 1;
    );
    bc_my_slot >= 0 ? (
      sb = BC_MY_REGION + bc_my_slot * BC_SLOT_SIZE;
      gmem[sb + 0] = 0;
      gmem[sb + 1] = bc_my_id;
      gmem[sb + 2] = BC_MY_TYPE;
      gmem[sb + 3] = bc_following;
      gmem[sb + 4] = BC_PARAM_COUNT;
    );
  );
);

bc_my_slot >= 0 && bc_following > 0 ? (
  bc_found_leader = 0;
  bc_scan = 0;
  loop(BC_MAX_INST,
    bc_scan != bc_my_slot ? (
      lsb = BC_MY_REGION + bc_scan * BC_SLOT_SIZE;
      gmem[lsb + 1] == bc_following ? (
        bc_found_leader = 1;
        bc_follow_slot = bc_scan;
        lbase = lsb + 8;
        slider1 = gmem[lbase + 0];
        slider2 = gmem[lbase + 1];
        slider3 = gmem[lbase + 2];
        slider4 = gmem[lbase + 3];
        slider5 = gmem[lbase + 4];
        slider6 = gmem[lbase + 5];
        slider7 = gmem[lbase + 6];
        slider8 = gmem[lbase + 7];
        slider9 = gmem[lbase + 8];
        slider10 = gmem[lbase + 9];
        slider11 = gmem[lbase + 10];
        slider12 = gmem[lbase + 11];
        slider14 = gmem[lbase + 13];
        slider15 = gmem[lbase + 14];
        slider16 = gmem[lbase + 15];
        slider17 = gmem[lbase + 16];
        slider18 = gmem[lbase + 17];
        bc_scan = BC_MAX_INST;
      );
    );
    bc_scan += 1;
  );
  !bc_found_leader ? (
    bc_following = 0;
    bc_follow_slot = -1;
  );
);

bc_my_slot >= 0 && bc_steal_pending ? (
  bc_scan = 0;
  loop(BC_MAX_INST,
    lsb = BC_MY_REGION + bc_scan * BC_SLOT_SIZE;
    gmem[lsb + 1] == bc_steal_target ? (
      lbase = lsb + 8;
      slider1 = gmem[lbase + 0];
      slider2 = gmem[lbase + 1];
      slider3 = gmem[lbase + 2];
      slider4 = gmem[lbase + 3];
      slider5 = gmem[lbase + 4];
      slider6 = gmem[lbase + 5];
      slider7 = gmem[lbase + 6];
      slider8 = gmem[lbase + 7];
      slider9 = gmem[lbase + 8];
      slider10 = gmem[lbase + 9];
      slider11 = gmem[lbase + 10];
      slider12 = gmem[lbase + 11];
      slider14 = gmem[lbase + 13];
      slider15 = gmem[lbase + 14];
      slider16 = gmem[lbase + 15];
      slider17 = gmem[lbase + 16];
      slider18 = gmem[lbase + 17];
      bc_scan = BC_MAX_INST;
    );
    bc_scan += 1;
  );
  bc_steal_pending = 0;
  bc_steal_target = 0;
  bc_steal_mode = 0;
);

bc_my_slot >= 0 ? (
  sb = BC_MY_REGION + bc_my_slot * BC_SLOT_SIZE;
  gmem[sb + 0] += 1;
  gmem[sb + 3] = bc_following;
  pbase = sb + 8;
  gmem[pbase + 0] = slider1;
  gmem[pbase + 1] = slider2;
  gmem[pbase + 2] = slider3;
  gmem[pbase + 3] = slider4;
  gmem[pbase + 4] = slider5;
  gmem[pbase + 5] = slider6;
  gmem[pbase + 6] = slider7;
  gmem[pbase + 7] = slider8;
  gmem[pbase + 8] = slider9;
  gmem[pbase + 9] = slider10;
  gmem[pbase + 10] = slider11;
  gmem[pbase + 11] = slider12;
  gmem[pbase + 13] = slider14;
  gmem[pbase + 14] = slider15;
  gmem[pbase + 15] = slider16;
  gmem[pbase + 16] = slider17;
  gmem[pbase + 17] = slider18;
);

bc_instance_count = 0;
bc_scan = 0;
loop(BC_MAX_INST,
  tsb = BC_MY_REGION + bc_scan * BC_SLOT_SIZE;
  tsid = gmem[tsb + 1];
  tsid > 0 ? (
    bc_scan == bc_my_slot ? (
      bc_instance_count += 1;
    ) : (
      tshb = gmem[tsb + 0];
      tshb == BC_STALE_HB[bc_scan] ? (
        BC_STALE_CT[bc_scan] += samplesblock / srate;
        BC_STALE_CT[bc_scan] > BC_STALE_TIMEOUT ? (
          gmem[tsb + 1] = 0;
          BC_STALE_CT[bc_scan] = 0;
        );
      ) : (
        BC_STALE_HB[bc_scan] = tshb;
        BC_STALE_CT[bc_scan] = 0;
        bc_instance_count += 1;
      );
    );
  );
  bc_scan += 1;
);

@sample
mono = (spl0 + spl1) * 0.5 * in_level;

// 1. Input stage (grid physics)
input_intensity > 0.0 ? (
  mono = inp.input_stage_proc(mono, input_intensity);
);

// 2. Input coupling cap
mono = input_hp.bq_proc(mono);

// 3. PSU sag (shared rail)
bplus = psu.psu_proc(abs(mono) * (1.0 + gain * 2.0), sag_depth);

// 3b. Bright cap — gain-dependent treble boost (120pF across 1M pot)
// At low gain: +3dB at 3kHz. At high gain: swamped by pot.
bright_db = (1.0 - gain) * 3.0;
bright_cap.bq_set_hishelf(3000, bright_db, 0.7);
mono = bright_cap.bq_proc(mono);

// 4. V1B (first triode — softer, atan-shaped)
//    Drive depends on channel
channel == 0 ? ( v1b_drive = gain * 0.30; )   // Clean
: channel == 1 ? ( v1b_drive = gain * 0.80; )  // Crunch
: ( v1b_drive = gain * 0.75; );                 // Lead (V1A will add more)

v1b_out = v1b.triode_proc(mono, v1b_drive, bplus, 1.2, 1.5, 0.85, 1.0, 0.30, 0.15);

// 5. V1A (second triode — harder, 1-exp-shaped, Lead only)
channel == 2 ? (
  v1a_drive = gain * 0.50;
  amp_out = v1a.triode_proc(v1b_out, v1a_drive, bplus, 1.8, 1.4, 0.75, 0.95, 0.25, 0.18);
) : (
  amp_out = v1b_out;
);

// 5b. Cathode follower — buffers preamp before tone stack
// Prevents tone stack from loading plate, adds gentle compression
amp_out = cf.cathode_follower_proc(amp_out, bplus);

// 6. Tone stack
amp_out = ts.tonestack_proc(amp_out);
amp_out *= 8.0;

// 6b. Phase inverter — 12AX7 LTP drives EL34 grids
// At high master: clips before power tubes = "fizz" character
// At low master: transparent buffer
pi_drive = master * 0.35;
amp_out = pi.triode_proc(amp_out, pi_drive, bplus, 0.8, 0.75, 0.90, 0.95, 0.50, 0.06);

// 7. Power amp (with output transformer saturation)
amp_out *= master;
amp_out = pa.poweramp_proc(amp_out, bplus);

// 8. Soft gate
amp_out = gate.sgate_proc(amp_out);

// 9. Cabinet
amp_out = cab1.bq_proc(amp_out);
amp_out = cab2.bq_proc(amp_out);
amp_out = cab3.bq_proc(amp_out);
amp_out = cab4.bq_proc(amp_out);
amp_out = cab5.bq_proc(amp_out);
amp_out = cab_res.bq_proc(amp_out);  // closed-back air resonance

fx_bypass == 0 ? (
  // Tremolo
  trem_depth > 0 ? (
    amp_out = trem.trem_proc(amp_out, trem_depth, trem_speed);
  );
  // Spring reverb
  spring_mix > 0 ? (
    amp_out = spring.spring_proc(amp_out, spring_mix);
  );
  // Tape echo
  echo_mix > 0 ? (
    amp_out = echo.tape_echo_proc(amp_out, echo_mix, 0.5, echo_feedback);
  );
);

amp_out *= out_level;
spl0 = amp_out;
spl1 = amp_out;


@gfx 600 480
// ============================================================================
//  COLOR CONSTANTS
// ============================================================================
COL_BG_R = 0.05; COL_BG_G = 0.05; COL_BG_B = 0.07;
COL_PANEL_R = 0.08; COL_PANEL_G = 0.08; COL_PANEL_B = 0.11;
COL_PANEL_HI_R = 0.12; COL_PANEL_HI_G = 0.12; COL_PANEL_HI_B = 0.16;
COL_BORDER_R = 0.20; COL_BORDER_G = 0.20; COL_BORDER_B = 0.25;
COL_TITLE_R = 0.95; COL_TITLE_G = 0.78; COL_TITLE_B = 0.35;
COL_SEC_R = 0.55; COL_SEC_G = 0.50; COL_SEC_B = 0.40;
COL_TEXT_R = 0.78; COL_TEXT_G = 0.78; COL_TEXT_B = 0.82;
COL_DIM_R = 0.38; COL_DIM_G = 0.38; COL_DIM_B = 0.42;
COL_ACCENT_R = 0.95; COL_ACCENT_G = 0.45; COL_ACCENT_B = 0.15;
COL_GREEN_R = 0.25; COL_GREEN_G = 0.80; COL_GREEN_B = 0.50;
COL_CYAN_R = 0.20; COL_CYAN_G = 0.60; COL_CYAN_B = 0.85;
COL_BAR_BG_R = 0.12; COL_BAR_BG_G = 0.12; COL_BAR_BG_B = 0.16;

// ============================================================================
//  BACKGROUND
// ============================================================================
gfx_r = COL_BG_R; gfx_g = COL_BG_G; gfx_b = COL_BG_B;
gfx_rect(0, 0, gfx_w, gfx_h);
gfx_r = 0.03; gfx_g = 0.03; gfx_b = 0.05;
gfx_rect(0, 0, gfx_w, 44);
gfx_r = COL_TITLE_R * 0.6; gfx_g = COL_TITLE_G * 0.6; gfx_b = COL_TITLE_B * 0.6;
gfx_rect(0, 44, gfx_w, 2);

// ============================================================================
//  HELPER: draw_bar
// ============================================================================
function draw_bar(bx, by, bw, bh, val, vmin, vmax, label, show_val) (
  gfx_r = COL_BAR_BG_R; gfx_g = COL_BAR_BG_G; gfx_b = COL_BAR_BG_B;
  gfx_rect(bx, by, bw, bh);
  norm = (val - vmin) / (vmax - vmin);
  norm = max(0, min(1, norm));
  fill_w = norm * bw;
  fill_w > 0 ? (
    gfx_r = COL_CYAN_R * 0.6; gfx_g = COL_CYAN_G * 0.6; gfx_b = COL_CYAN_B * 0.6;
    gfx_rect(bx, by, fill_w, bh);
    gfx_r = COL_CYAN_R * 0.8; gfx_g = COL_CYAN_G * 0.8; gfx_b = COL_CYAN_B * 0.8;
    gfx_rect(bx, by, fill_w, floor(bh / 2));
    gfx_r = COL_CYAN_R; gfx_g = COL_CYAN_G; gfx_b = COL_CYAN_B;
    gfx_rect(bx, by, fill_w, 1);
  );
  gfx_r = COL_BORDER_R; gfx_g = COL_BORDER_G; gfx_b = COL_BORDER_B;
  gfx_rect(bx, by, bw, 1); gfx_rect(bx, by + bh - 1, bw, 1);
  gfx_rect(bx, by, 1, bh); gfx_rect(bx + bw - 1, by, 1, bh);
  gfx_r = COL_TEXT_R; gfx_g = COL_TEXT_G; gfx_b = COL_TEXT_B;
  gfx_setfont(1, "Arial", 12);
  gfx_x = bx + 5; gfx_y = by + floor((bh - 12) / 2);
  gfx_drawstr(label);
  show_val ? (
    gfx_setfont(1, "Arial", 11);
    gfx_x = bx + bw - 40; gfx_y = by + floor((bh - 11) / 2);
    gfx_drawnumber(val, val == floor(val) ? 0 : 1);
  );
  mouse_cap & 1 ? (
    mouse_x >= bx && mouse_x <= bx + bw &&
    mouse_y >= by && mouse_y <= by + bh ? (
      new_norm = (mouse_x - bx) / bw;
      new_norm = max(0, min(1, new_norm));
      val = vmin + new_norm * (vmax - vmin);
    );
  );
  val;
);

// ============================================================================
//  HELPER: draw_panel
// ============================================================================
function draw_panel(px, py, pw, ph, title) (
  gfx_r = COL_PANEL_R; gfx_g = COL_PANEL_G; gfx_b = COL_PANEL_B;
  gfx_rect(px, py, pw, ph);
  gfx_r = COL_PANEL_HI_R; gfx_g = COL_PANEL_HI_G; gfx_b = COL_PANEL_HI_B;
  gfx_rect(px, py, pw, 22);
  gfx_r = COL_BORDER_R; gfx_g = COL_BORDER_G; gfx_b = COL_BORDER_B;
  gfx_rect(px, py + 22, pw, 1);
  gfx_r = COL_BORDER_R * 0.7; gfx_g = COL_BORDER_G * 0.7; gfx_b = COL_BORDER_B * 0.7;
  gfx_rect(px, py, pw, 1); gfx_rect(px, py, 1, ph);
  gfx_rect(px + pw - 1, py, 1, ph); gfx_rect(px, py + ph - 1, pw, 1);
  gfx_r = COL_SEC_R; gfx_g = COL_SEC_G; gfx_b = COL_SEC_B;
  gfx_setfont(1, "Arial", 12);
  gfx_x = px + 8; gfx_y = py + 4;
  gfx_drawstr(title);
);

// ============================================================================
//  HELPER: draw_toggle
// ============================================================================
function draw_toggle(tx, ty, is_on, label) (
  gfx_r = COL_BORDER_R; gfx_g = COL_BORDER_G; gfx_b = COL_BORDER_B;
  gfx_circle(tx + 8, ty + 8, 7, 0);
  is_on ? (
    gfx_r = COL_GREEN_R; gfx_g = COL_GREEN_G; gfx_b = COL_GREEN_B;
    gfx_circle(tx + 8, ty + 8, 5, 1);
  ) : (
    gfx_r = 0.15; gfx_g = 0.15; gfx_b = 0.18;
    gfx_circle(tx + 8, ty + 8, 5, 1);
  );
  gfx_r = is_on ? COL_TEXT_R : COL_DIM_R;
  gfx_g = is_on ? COL_TEXT_G : COL_DIM_G;
  gfx_b = is_on ? COL_TEXT_B : COL_DIM_B;
  gfx_setfont(1, "Arial", 11);
  gfx_x = tx + 20; gfx_y = ty + 1;
  gfx_drawstr(label);
  (mouse_cap & 1) && !(last_cap & 1) &&
    mouse_x >= tx && mouse_x <= tx + 80 &&
    mouse_y >= ty && mouse_y <= ty + 16 ? (
      is_on = 1 - is_on;
  );
  is_on;
);

// ============================================================================
//  HELPER: draw_mode_sel — clickable mode selector
// ============================================================================
function draw_mode_sel(mx, my, mw, mh, val, vmax, label, v0, v1, v2, v3, v4) (
  gfx_r = COL_BAR_BG_R; gfx_g = COL_BAR_BG_G; gfx_b = COL_BAR_BG_B;
  gfx_rect(mx, my, mw, mh);
  gfx_r = COL_BORDER_R; gfx_g = COL_BORDER_G; gfx_b = COL_BORDER_B;
  gfx_rect(mx, my, mw, 1); gfx_rect(mx, my + mh - 1, mw, 1);
  gfx_rect(mx, my, 1, mh); gfx_rect(mx + mw - 1, my, 1, mh);
  gfx_r = COL_TEXT_R; gfx_g = COL_TEXT_G; gfx_b = COL_TEXT_B;
  gfx_setfont(1, "Arial", 12);
  gfx_x = mx + 5; gfx_y = my + floor((mh - 12) / 2);
  gfx_drawstr(label);
  gfx_r = COL_ACCENT_R; gfx_g = COL_ACCENT_G; gfx_b = COL_ACCENT_B;
  gfx_x = mx + mw - 82; gfx_y = my + floor((mh - 12) / 2);
  val == 0 ? gfx_drawstr(v0);
  val == 1 ? gfx_drawstr(v1);
  val == 2 ? gfx_drawstr(v2);
  val == 3 ? gfx_drawstr(v3);
  val == 4 ? gfx_drawstr(v4);
  (mouse_cap & 1) && !(last_cap & 1) &&
    mouse_x >= mx && mouse_x <= mx + mw &&
    mouse_y >= my && mouse_y <= my + mh ? (
      val = (val + 1) % (vmax + 1);
  );
  (mouse_cap & 2) && !(last_cap & 2) &&
    mouse_x >= mx && mouse_x <= mx + mw &&
    mouse_y >= my && mouse_y <= my + mh ? (
      val = val - 1; val < 0 ? val = vmax;
  );
  val;
);

// ============================================================================
//  LAYOUT
// ============================================================================
margin = 8;
gap = 6;
bar_h = 18;
bar_sp = 21;
col_w = 190;
body_y = 50;

// ============================================================================
//  TITLE
// ============================================================================
gfx_r = COL_TITLE_R; gfx_g = COL_TITLE_G; gfx_b = COL_TITLE_B;
gfx_setfont(1, "Arial", 22);
gfx_x = 12; gfx_y = 10;
gfx_drawstr("PUNK IDOL v2");
gfx_r = COL_DIM_R; gfx_g = COL_DIM_G; gfx_b = COL_DIM_B;
gfx_setfont(1, "Arial", 12);
gfx_x = 200; gfx_y = 18;
gfx_drawstr("Density-Aware JCM800");

// ============================================================================
//  COL 1: PREAMP
// ============================================================================
c1x = margin;
draw_panel(c1x, body_y, col_w, 26 + 5 * bar_sp, "PREAMP");
cy = body_y + 26;
_old = slider1; slider1 = draw_bar(c1x + 4, cy, col_w - 8, bar_h, slider1, -24, 24, "Input dB", 1);
slider1 != _old ? slider_automate(2^0);
cy += bar_sp;
_old = slider2; slider2 = draw_bar(c1x + 4, cy, col_w - 8, bar_h, slider2, 0, 100, "Gain", 1);
slider2 != _old ? slider_automate(2^1);
cy += bar_sp;
_old = slider3; slider3 = draw_mode_sel(c1x + 4, cy, col_w - 8, bar_h, slider3, 2, "Channel", "Clean", "Crunch", "Lead", "", "");
slider3 != _old ? slider_automate(2^2);
cy += bar_sp;
_old = slider8; slider8 = draw_bar(c1x + 4, cy, col_w - 8, bar_h, slider8, 0, 100, "Input Stg", 1);
slider8 != _old ? slider_automate(2^7);
cy += bar_sp;
_old = slider9; slider9 = draw_bar(c1x + 4, cy, col_w - 8, bar_h, slider9, 0, 100, "PSU Sag", 1);
slider9 != _old ? slider_automate(2^8);

// ============================================================================
//  COL 2: TONE / POWER
// ============================================================================
c2x = margin + col_w + gap;
draw_panel(c2x, body_y, col_w, 26 + 5 * bar_sp, "TONE / POWER");
cy = body_y + 26;
_old = slider4; slider4 = draw_bar(c2x + 4, cy, col_w - 8, bar_h, slider4, 0, 100, "Bass", 1);
slider4 != _old ? slider_automate(2^3);
cy += bar_sp;
_old = slider5; slider5 = draw_bar(c2x + 4, cy, col_w - 8, bar_h, slider5, 0, 100, "Mid", 1);
slider5 != _old ? slider_automate(2^4);
cy += bar_sp;
_old = slider6; slider6 = draw_bar(c2x + 4, cy, col_w - 8, bar_h, slider6, 0, 100, "Treble", 1);
slider6 != _old ? slider_automate(2^5);
cy += bar_sp;
_old = slider7; slider7 = draw_bar(c2x + 4, cy, col_w - 8, bar_h, slider7, 0, 100, "Master", 1);
slider7 != _old ? slider_automate(2^6);
cy += bar_sp;
_old = slider10; slider10 = draw_bar(c2x + 4, cy, col_w - 8, bar_h, slider10, -24, 24, "Output dB", 1);
slider10 != _old ? slider_automate(2^9);

// ============================================================================
//  COL 3: EFFECTS
// ============================================================================
c3x = margin + (col_w + gap) * 2;
draw_panel(c3x, body_y, col_w, 26 + 7 * bar_sp, "EFFECTS");
cy = body_y + 26;
_old = slider11; slider11 = draw_toggle(c3x + 4, cy + 2, slider11, "FX Bypass");
slider11 != _old ? slider_automate(2^10);
cy += bar_sp;
_old = slider12; slider12 = draw_bar(c3x + 4, cy, col_w - 8, bar_h, slider12, 0, 100, "Reverb", 1);
slider12 != _old ? slider_automate(2^11);
cy += bar_sp;
_old = slider14; slider14 = draw_bar(c3x + 4, cy, col_w - 8, bar_h, slider14, 0, 100, "Trem Depth", 1);
slider14 != _old ? slider_automate(2^13);
cy += bar_sp;
_old = slider15; slider15 = draw_bar(c3x + 4, cy, col_w - 8, bar_h, slider15, 0, 100, "Trem Speed", 1);
slider15 != _old ? slider_automate(2^14);
cy += bar_sp;
_old = slider16; slider16 = draw_bar(c3x + 4, cy, col_w - 8, bar_h, slider16, 0, 100, "Echo Mix", 1);
slider16 != _old ? slider_automate(2^15);
cy += bar_sp;
_old = slider17; slider17 = draw_bar(c3x + 4, cy, col_w - 8, bar_h, slider17, 0, 100, "Echo Time", 1);
slider17 != _old ? slider_automate(2^16);
cy += bar_sp;
_old = slider18; slider18 = draw_bar(c3x + 4, cy, col_w - 8, bar_h, slider18, 0, 100, "Echo FB", 1);
slider18 != _old ? slider_automate(2^17);

// ============================================================================
//  INSTANCE MANAGER PANEL
// ============================================================================
  bc_rows_per_page = 5;
  bc_panel_h = bc_panel_expanded ? (30 + bc_rows_per_page * 14 + 18) : 30;
  bc_panel_y = gfx_h - bc_panel_h;

  gfx_r = 0.04; gfx_g = 0.04; gfx_b = 0.06;
  gfx_rect(0, bc_panel_y, gfx_w, bc_panel_h);
  gfx_r = 0.15; gfx_g = 0.15; gfx_b = 0.20;
  gfx_rect(0, bc_panel_y, gfx_w, 1);

  gfx_setfont(1, "Arial", 11);
  gfx_r = 0.95; gfx_g = 0.45; gfx_b = 0.15;
  gfx_x = 8; gfx_y = bc_panel_y + 8;
  bc_my_slot >= 0 ? (
    gfx_drawstr("I");
    gfx_drawnumber(bc_my_slot + 1, 0);
    gfx_drawstr("/");
    gfx_drawnumber(bc_instance_count, 0);
  ) : (
    gfx_drawstr("--");
  );

  bc_following > 0 ? (
    gfx_r = 0.2; gfx_g = 0.8; gfx_b = 0.3;
    gfx_drawstr("  Following: I");
    bc_fs = 0;
    loop(BC_MAX_INST,
      fsb = BC_MY_REGION + bc_fs * BC_SLOT_SIZE;
      gmem[fsb + 1] == bc_following ? (
        gfx_drawnumber(bc_fs + 1, 0);
        bc_fs = BC_MAX_INST;
      );
      bc_fs += 1;
    );
  ) : (
    gfx_r = 0.3; gfx_g = 0.3; gfx_b = 0.4;
    gfx_drawstr("  Following: --");
  );

  exp_x = gfx_w - 200;
  exp_y = bc_panel_y + 4;
  exp_w = 65;
  exp_h = 20;
  gfx_r = 0.12; gfx_g = 0.12; gfx_b = 0.16;
  gfx_rect(exp_x, exp_y, exp_w, exp_h);
  gfx_r = 0.5; gfx_g = 0.5; gfx_b = 0.6;
  gfx_x = exp_x + 5; gfx_y = exp_y + 4;
  bc_panel_expanded ? gfx_drawstr("COLLAPSE") : gfx_drawstr("EXPAND");
  (mouse_cap & 1) && !(last_cap & 1) &&
    mouse_x >= exp_x && mouse_x < exp_x + exp_w &&
    mouse_y >= exp_y && mouse_y < exp_y + exp_h ? (
    bc_panel_expanded = !bc_panel_expanded;
    bc_steal_mode = 0;
  );

  stl_x = gfx_w - 125;
  stl_y = bc_panel_y + 4;
  stl_w = 50;
  stl_h = 20;
  bc_steal_mode ? (
    gfx_r = 0.6; gfx_g = 0.2; gfx_b = 0.1;
  ) : (
    gfx_r = 0.2; gfx_g = 0.1; gfx_b = 0.1;
  );
  gfx_rect(stl_x, stl_y, stl_w, stl_h);
  gfx_r = 0.9; gfx_g = 0.5; gfx_b = 0.2;
  gfx_x = stl_x + 6; gfx_y = stl_y + 4;
  gfx_drawstr("STEAL");
  (mouse_cap & 1) && !(last_cap & 1) &&
    mouse_x >= stl_x && mouse_x < stl_x + stl_w &&
    mouse_y >= stl_y && mouse_y < stl_y + stl_h ? (
    bc_steal_mode = !bc_steal_mode;
    !bc_panel_expanded ? bc_panel_expanded = 1;
  );

  bc_following > 0 ? (
    unf_x = gfx_w - 65;
    unf_y = bc_panel_y + 4;
    unf_w = 55;
    unf_h = 20;
    gfx_r = 0.1; gfx_g = 0.2; gfx_b = 0.1;
    gfx_rect(unf_x, unf_y, unf_w, unf_h);
    gfx_r = 0.5; gfx_g = 0.9; gfx_b = 0.5;
    gfx_x = unf_x + 4; gfx_y = unf_y + 4;
    gfx_drawstr("UNFLW");
    (mouse_cap & 1) && !(last_cap & 1) &&
      mouse_x >= unf_x && mouse_x < unf_x + unf_w &&
      mouse_y >= unf_y && mouse_y < unf_y + unf_h ? (
      bc_following = 0;
      bc_follow_slot = -1;
    );
  );

  bc_panel_expanded ? (
    row_y = bc_panel_y + 30;
    row_h = 14;

    bc_my_page = bc_my_slot >= 0 ? floor(bc_my_slot / bc_rows_per_page) : 0;
    bc_page < 0 ? bc_page = 0;

    bc_active_slots = 0;
    bc_si = 0;
    loop(BC_MAX_INST,
      gmem[BC_MY_REGION + bc_si * BC_SLOT_SIZE + 1] > 0 ? bc_active_slots += 1;
      bc_si += 1;
    );
    bc_total_pages = max(1, ceil(bc_active_slots / bc_rows_per_page));
    bc_page >= bc_total_pages ? bc_page = bc_total_pages - 1;

    pg_btn_w = 18; pg_btn_h = 14;
    pg_prev_x = 8; pg_prev_y = bc_panel_y + 30 + bc_rows_per_page * row_h + 2;
    bc_total_pages > 1 ? (
      gfx_r = 0.25; gfx_g = 0.25; gfx_b = 0.32;
      gfx_rect(pg_prev_x, pg_prev_y, pg_btn_w, pg_btn_h);
      gfx_r = 0.7; gfx_g = 0.7; gfx_b = 0.8;
      gfx_x = pg_prev_x + 4; gfx_y = pg_prev_y + 2;
      gfx_drawstr("<");
      (mouse_cap & 1) && !(last_cap & 1) &&
        mouse_x >= pg_prev_x && mouse_x < pg_prev_x + pg_btn_w &&
        mouse_y >= pg_prev_y && mouse_y < pg_prev_y + pg_btn_h ? (
        bc_page > 0 ? bc_page -= 1;
      );

      gfx_r = 0.25; gfx_g = 0.25; gfx_b = 0.32;
      gfx_rect(pg_prev_x + pg_btn_w + 2, pg_prev_y, pg_btn_w, pg_btn_h);
      gfx_r = 0.7; gfx_g = 0.7; gfx_b = 0.8;
      gfx_x = pg_prev_x + pg_btn_w + 6; gfx_y = pg_prev_y + 2;
      gfx_drawstr(">");
      (mouse_cap & 1) && !(last_cap & 1) &&
        mouse_x >= pg_prev_x + pg_btn_w + 2 && mouse_x < pg_prev_x + pg_btn_w * 2 + 2 &&
        mouse_y >= pg_prev_y && mouse_y < pg_prev_y + pg_btn_h ? (
        bc_page < bc_total_pages - 1 ? bc_page += 1;
      );

      gfx_r = 0.4; gfx_g = 0.4; gfx_b = 0.5;
      gfx_x = pg_prev_x + pg_btn_w * 2 + 8; gfx_y = pg_prev_y + 2;
      gfx_drawnumber(bc_page + 1, 0);
      gfx_drawstr("/");
      gfx_drawnumber(bc_total_pages, 0);

      bc_page != bc_my_page ? (
        you_x = pg_prev_x + pg_btn_w * 2 + 40;
        gfx_r = 0.15; gfx_g = 0.15; gfx_b = 0.20;
        gfx_rect(you_x, pg_prev_y, 30, pg_btn_h);
        gfx_r = 0.95; gfx_g = 0.45; gfx_b = 0.15;
        gfx_x = you_x + 3; gfx_y = pg_prev_y + 2;
        gfx_drawstr("YOU");
        (mouse_cap & 1) && !(last_cap & 1) &&
          mouse_x >= you_x && mouse_x < you_x + 30 &&
          mouse_y >= pg_prev_y && mouse_y < pg_prev_y + pg_btn_h ? (
          bc_page = bc_my_page;
        );
      );
    );

    bc_page_start = bc_page * bc_rows_per_page;
    bc_page_end = bc_page_start + bc_rows_per_page - 1;
    bc_visible = 0;
    bc_s = 0;
    loop(BC_MAX_INST,
      isb = BC_MY_REGION + bc_s * BC_SLOT_SIZE;
      isid = gmem[isb + 1];

      isid > 0 ? (
        bc_visible >= bc_page_start && bc_visible <= bc_page_end ? (
          draw_row_y = row_y + (bc_visible - bc_page_start) * row_h;

          mouse_y >= draw_row_y && mouse_y < draw_row_y + row_h &&
            mouse_x >= 8 && mouse_x < gfx_w - 8 &&
            bc_s != bc_my_slot ? (
            gfx_r = 0.10; gfx_g = 0.10; gfx_b = 0.14;
            gfx_rect(4, draw_row_y, gfx_w - 8, row_h);
          );

          gfx_setfont(1, "Arial", 10);
          bc_s == bc_my_slot ? (
            gfx_r = 0.95; gfx_g = 0.45; gfx_b = 0.15;
          ) : (
            gfx_r = 0.7; gfx_g = 0.7; gfx_b = 0.8;
          );
          gfx_x = 12; gfx_y = draw_row_y + 1;
          gfx_drawstr("I");
          gfx_drawnumber(bc_s + 1, 0);
          gfx_drawstr("  ");

          bc_s == bc_my_slot ? (
            gfx_drawstr("[YOU]");
          ) : (
            iwho = gmem[isb + 3];
            bc_has_follower = 0;
            bc_fsc = 0;
            loop(BC_MAX_INST,
              fsb2 = BC_MY_REGION + bc_fsc * BC_SLOT_SIZE;
              gmem[fsb2 + 1] > 0 && gmem[fsb2 + 3] == isid ? bc_has_follower = 1;
              bc_fsc += 1;
            );
            iwho > 0 ? (
              gfx_r = 0.4; gfx_g = 0.6; gfx_b = 0.9;
              gfx_drawstr("[FOLLOWER]");
            ) : bc_has_follower ? (
              gfx_r = 0.95; gfx_g = 0.78; gfx_b = 0.35;
              gfx_drawstr("[LEADER]");
            ) : (
              gfx_r = 0.38; gfx_g = 0.38; gfx_b = 0.45;
              gfx_drawstr("[UNASSIGNED]");
            );
            gfx_r = 0.35; gfx_g = 0.45; gfx_b = 0.35;
            bc_steal_mode ? (
              gfx_drawstr("  click: steal");
            ) : (
              gfx_drawstr("  click: follow");
            );
            (mouse_cap & 1) && !(last_cap & 1) &&
              mouse_y >= draw_row_y && mouse_y < draw_row_y + row_h &&
              mouse_x >= 8 && mouse_x < gfx_w - 8 ? (
              bc_steal_mode ? (
                bc_steal_target = isid;
                bc_steal_pending = 1;
                bc_steal_mode = 0;
              ) : (
                bc_can_follow = 1;
                bc_cursor = isid;
                bc_hops = 0;
                while(bc_cursor > 0 && bc_hops < BC_MAX_INST) (
                  bc_cursor == bc_my_id ? (
                    bc_can_follow = 0;
                    bc_cursor = 0;
                  ) : (
                    bc_next = 0;
                    bc_cs = 0;
                    loop(BC_MAX_INST,
                      csb = BC_MY_REGION + bc_cs * BC_SLOT_SIZE;
                      gmem[csb + 1] == bc_cursor ? (
                        bc_next = gmem[csb + 3];
                        bc_cs = BC_MAX_INST;
                      );
                      bc_cs += 1;
                    );
                    bc_cursor = bc_next;
                  );
                  bc_hops += 1;
                );
                bc_can_follow ? (
                  bc_following = isid;
                );
              );
            );
          );
        );
        bc_visible += 1;
      );
      bc_s += 1;
    );
  );

  last_cap = mouse_cap;

  // --- NOTICE BUTTON ---
  notice_btn_x = gfx_w - 60;
  notice_btn_y = bc_panel_y - 18;
  gfx_r = 0.6; gfx_g = 0.5; gfx_b = 0.3;
  gfx_rect(notice_btn_x, notice_btn_y, 55, 15);
  gfx_r = 0; gfx_g = 0; gfx_b = 0;
  gfx_x = notice_btn_x + 4; gfx_y = notice_btn_y + 2;
  gfx_drawstr("NOTICE");
  (mouse_cap & 1) && mouse_x >= notice_btn_x && mouse_x <= notice_btn_x + 55 && mouse_y >= notice_btn_y && mouse_y <= notice_btn_y + 15 && !notice_clicked ? (
    notice_show = !notice_show;
    notice_clicked = 1;
  );
  !(mouse_cap & 1) ? notice_clicked = 0;
  notice_show ? (
    gfx_r = 0.05; gfx_g = 0.05; gfx_b = 0.05; gfx_a = 0.95;
    gfx_rect(0, 0, gfx_w, gfx_h);
    gfx_a = 1;
    gfx_r = 0.9; gfx_g = 0.8; gfx_b = 0.5;
    gfx_x = 15; gfx_y = 10;
    gfx_drawstr("NOTICE: THEY ARE TRYING TO STEAL YOUR COMPUTER");
    gfx_r = 0.7; gfx_g = 0.7; gfx_b = 0.7;
    gfx_x = 15; gfx_y = 30;
    gfx_drawstr("The algorithms in our favorite software are decades old.");
    gfx_x = 15; gfx_y = 45;
    gfx_drawstr("A mathematical model is a truth about the world,");
    gfx_x = 15; gfx_y = 60;
    gfx_drawstr("not a copyrightable product. You do not have to stay");
    gfx_x = 15; gfx_y = 75;
    gfx_drawstr("a slave to subscription software. Install Linux.");
    gfx_x = 15; gfx_y = 90;
    gfx_drawstr("Build your own tools. Believe in yourself.");
    gfx_r = 0.5; gfx_g = 0.7; gfx_b = 1.0;
    gfx_x = 15; gfx_y = 115;
    gfx_drawstr("github.com/LMSBAND  |  instagram.com/LMSSKABAND");
    gfx_r = 0.4; gfx_g = 0.4; gfx_b = 0.4;
    gfx_x = 15; gfx_y = 140;
    gfx_r = 0.6; gfx_g = 0.5; gfx_b = 0.3;
    gfx_rect(notice_btn_x, notice_btn_y, 55, 15);
    gfx_r = 0; gfx_g = 0; gfx_b = 0;
    gfx_x = notice_btn_x + 4; gfx_y = notice_btn_y + 2;
    gfx_drawstr("NOTICE");
  );

// ============================================================
// @SERIALIZE — Persist follow state
// ============================================================
@serialize
file_var(0, bc_following);
file_var(0, bc_my_id);
