desc:KITTY KATS BIG KRUSH
//tags: compressor distortion analog distressor
//author: LMS + Claude

options:gmem=DrumBanger

slider1:0<-12,24,0.1>-Input (dB)
slider2:-12<-40,0,0.5>-Threshold (dB)
slider3:3<0,7,1{1:1,2:1,3:1,4:1,6:1,10:1,20:1,Nuke}>-Ratio
slider4:5<0.05,20,0.05>-Attack (ms)
slider5:250<50,2500,10>-Release (ms)
slider6:0<0,2,1{Off,Dist 2 (Tape),Dist 3 (Tube)}>-Distortion Mode
slider7:0<0,1,1{Off,On}>-HP Sidechain
slider8:150<60,400,1>-HP SC Freq (Hz)
slider9:0<-12,12,0.1>-Output (dB)
slider10:100<0,100,1>-Mix (%)

@init
  comp_env = 0;
  comp_gr_db = 0;

  // HP sidechain filter state
  sc_xl1 = 0; sc_xl2 = 0; sc_yl1 = 0; sc_yl2 = 0;
  sc_xr1 = 0; sc_xr2 = 0; sc_yr1 = 0; sc_yr2 = 0;
  sc_b0 = 1; sc_b1 = 0; sc_b2 = 0; sc_a1 = 0; sc_a2 = 0;

notice_show = 0;

  // ============================================================
  // BROADCAST SYSTEM — Instance Registry
  // ============================================================
  BC_BASE = 100000;
  BC_MY_TYPE = 5;           // Distressor
  BC_SLOT_SIZE = 512;
  BC_MAX_INST = 8;
  BC_PARAM_COUNT = 10;
  BC_MY_REGION = BC_BASE + BC_MY_TYPE * 4096;
  BC_STALE_TIMEOUT = 2;

  // Generate unique instance ID (only on first init, preserve across transport stop/start)
  bc_my_id == 0 ? bc_my_id = floor(rand() * 1073741824) + 1;
  bc_my_slot = -1;
  // bc_following preserved by @serialize — do NOT zero here
  bc_follow_slot = -1;
  bc_steal_pending = 0;
  bc_steal_target = 0;
  bc_panel_expanded = 0;
  bc_steal_mode = 0;
  bc_instance_count = 0;

  BC_STALE_HB = 10000;
  BC_STALE_CT = 10008;
  i = 0;
  loop(BC_MAX_INST,
    BC_STALE_HB[i] = -1;
    BC_STALE_CT[i] = 0;
    i += 1;
  );

  bc_i = 0;
  loop(BC_MAX_INST,
    bc_my_slot < 0 ? (
      sb = BC_MY_REGION + bc_i * BC_SLOT_SIZE;
      sid = gmem[sb + 1];
      (sid == 0 || sid == bc_my_id) ? (
        bc_my_slot = bc_i;
      );
    );
    bc_i += 1;
  );

  bc_my_slot >= 0 ? (
    sb = BC_MY_REGION + bc_my_slot * BC_SLOT_SIZE;
    gmem[sb + 0] = 0;
    gmem[sb + 1] = bc_my_id;
    gmem[sb + 2] = BC_MY_TYPE;
    gmem[sb + 3] = 0;
    gmem[sb + 4] = BC_PARAM_COUNT;
  );

@slider
  input_gain = 10 ^ (slider1 / 20);
  comp_thresh = slider2;

  // Ratio mapping
  slider3 == 0 ? comp_ratio = 1;
  slider3 == 1 ? comp_ratio = 2;
  slider3 == 2 ? comp_ratio = 3;
  slider3 == 3 ? comp_ratio = 4;
  slider3 == 4 ? comp_ratio = 6;
  slider3 == 5 ? comp_ratio = 10;
  slider3 == 6 ? comp_ratio = 20;
  slider3 == 7 ? comp_ratio = 100;  // Nuke = brickwall

  comp_att = exp(-1 / (slider4 * 0.001 * srate));
  comp_rel = exp(-1 / (slider5 * 0.001 * srate));

  dist_mode = slider6;
  sc_hp_on = slider7;
  output_gain = 10 ^ (slider9 / 20);
  mix = slider10 / 100;

  // HP sidechain filter coefficients
  sc_hp_on ? (
    w0 = 2 * $pi * slider8 / srate;
    cs = cos(w0); sn = sin(w0);
    alpha = sn / (2 * 0.707);
    a0_inv = 1 / (1 + alpha);
    sc_b0 = (1 + cs) / 2 * a0_inv;
    sc_b1 = -(1 + cs) * a0_inv;
    sc_b2 = (1 + cs) / 2 * a0_inv;
    sc_a1 = -2 * cs * a0_inv;
    sc_a2 = (1 - alpha) * a0_inv;
  );

// ============================================================
// @BLOCK — Broadcast, heartbeat, stale-check, follow, steal
// ============================================================
@block
bc_my_slot >= 0 ? (
  sb = BC_MY_REGION + bc_my_slot * BC_SLOT_SIZE;
  gmem[sb + 1] != bc_my_id ? (
    bc_my_id = floor(rand() * 1073741824) + 1;
    bc_my_slot = -1;
    bc_i = 0;
    loop(BC_MAX_INST,
      bc_my_slot < 0 ? (
        tsb = BC_MY_REGION + bc_i * BC_SLOT_SIZE;
        (gmem[tsb + 1] == 0) ? bc_my_slot = bc_i;
      );
      bc_i += 1;
    );
    bc_my_slot >= 0 ? (
      sb = BC_MY_REGION + bc_my_slot * BC_SLOT_SIZE;
      gmem[sb + 0] = 0;
      gmem[sb + 1] = bc_my_id;
      gmem[sb + 2] = BC_MY_TYPE;
      gmem[sb + 3] = bc_following;
      gmem[sb + 4] = BC_PARAM_COUNT;
    );
  );
);

bc_my_slot >= 0 && bc_following > 0 ? (
  bc_found_leader = 0;
  bc_scan = 0;
  loop(BC_MAX_INST,
    bc_scan != bc_my_slot ? (
      lsb = BC_MY_REGION + bc_scan * BC_SLOT_SIZE;
      gmem[lsb + 1] == bc_following ? (
        bc_found_leader = 1;
        bc_follow_slot = bc_scan;
        lbase = lsb + 8;
        slider1 = gmem[lbase + 0];
        slider2 = gmem[lbase + 1];
        slider3 = gmem[lbase + 2];
        slider4 = gmem[lbase + 3];
        slider5 = gmem[lbase + 4];
        slider6 = gmem[lbase + 5];
        slider7 = gmem[lbase + 6];
        slider8 = gmem[lbase + 7];
        slider9 = gmem[lbase + 8];
        slider10 = gmem[lbase + 9];
        bc_scan = BC_MAX_INST;
      );
    );
    bc_scan += 1;
  );
  !bc_found_leader ? (
    bc_following = 0;
    bc_follow_slot = -1;
  );
);

bc_my_slot >= 0 && bc_steal_pending ? (
  bc_scan = 0;
  loop(BC_MAX_INST,
    lsb = BC_MY_REGION + bc_scan * BC_SLOT_SIZE;
    gmem[lsb + 1] == bc_steal_target ? (
      lbase = lsb + 8;
      slider1 = gmem[lbase + 0];
      slider2 = gmem[lbase + 1];
      slider3 = gmem[lbase + 2];
      slider4 = gmem[lbase + 3];
      slider5 = gmem[lbase + 4];
      slider6 = gmem[lbase + 5];
      slider7 = gmem[lbase + 6];
      slider8 = gmem[lbase + 7];
      slider9 = gmem[lbase + 8];
      slider10 = gmem[lbase + 9];
      bc_scan = BC_MAX_INST;
    );
    bc_scan += 1;
  );
  bc_steal_pending = 0;
  bc_steal_target = 0;
  bc_steal_mode = 0;
);

bc_my_slot >= 0 ? (
  sb = BC_MY_REGION + bc_my_slot * BC_SLOT_SIZE;
  gmem[sb + 0] += 1;
  gmem[sb + 3] = bc_following;
  pbase = sb + 8;
  gmem[pbase + 0] = slider1;
  gmem[pbase + 1] = slider2;
  gmem[pbase + 2] = slider3;
  gmem[pbase + 3] = slider4;
  gmem[pbase + 4] = slider5;
  gmem[pbase + 5] = slider6;
  gmem[pbase + 6] = slider7;
  gmem[pbase + 7] = slider8;
  gmem[pbase + 8] = slider9;
  gmem[pbase + 9] = slider10;
);

bc_instance_count = 0;
bc_scan = 0;
loop(BC_MAX_INST,
  tsb = BC_MY_REGION + bc_scan * BC_SLOT_SIZE;
  tsid = gmem[tsb + 1];
  tsid > 0 ? (
    bc_scan == bc_my_slot ? (
      bc_instance_count += 1;
    ) : (
      tshb = gmem[tsb + 0];
      tshb == BC_STALE_HB[bc_scan] ? (
        BC_STALE_CT[bc_scan] += samplesblock / srate;
        BC_STALE_CT[bc_scan] > BC_STALE_TIMEOUT ? (
          gmem[tsb + 1] = 0;
          BC_STALE_CT[bc_scan] = 0;
        );
      ) : (
        BC_STALE_HB[bc_scan] = tshb;
        BC_STALE_CT[bc_scan] = 0;
        bc_instance_count += 1;
      );
    );
  );
  bc_scan += 1;
);

@sample
  // Dry signal for mix
  dry_l = spl0;
  dry_r = spl1;

  // Input gain
  l = spl0 * input_gain;
  r = spl1 * input_gain;

  // === DISTORTION (pre-compression, like the real Distressor) ===
  dist_mode == 1 ? (
    // Dist 2: even harmonics (tape-like warmth)
    // Asymmetric soft clipping generates even harmonics
    // Manual tanh: (exp(2x)-1)/(exp(2x)+1)
    x = l * 2.0; e = exp(2*x); th1 = (e - 1) / (e + 1);
    x = l * l * 0.5; e = exp(2*x); th2 = (e - 1) / (e + 1);
    l = (th1 + th2 * 0.3) / 2.3 * 1.15;
    x = r * 2.0; e = exp(2*x); th1 = (e - 1) / (e + 1);
    x = r * r * 0.5; e = exp(2*x); th2 = (e - 1) / (e + 1);
    r = (th1 + th2 * 0.3) / 2.3 * 1.15;
  );
  dist_mode == 2 ? (
    // Dist 3: odd harmonics (tube-like grit)
    // Symmetric soft clipping
    drive = 3.0;
    x = l * drive; e = exp(2*x); l = (e - 1) / (e + 1);
    x = r * drive; e = exp(2*x); r = (e - 1) / (e + 1);
    // Normalize by tanh(drive)
    e = exp(2*drive); norm = (e - 1) / (e + 1);
    l /= norm;
    r /= norm;
  );

  // === SIDECHAIN DETECTION ===
  // Use the audio signal (optionally HP filtered) for detection
  sc_l = l;
  sc_r = r;

  sc_hp_on ? (
    // HP filter the sidechain (lets low end through without triggering comp)
    ol = sc_b0 * sc_l + sc_b1 * sc_xl1 + sc_b2 * sc_xl2 - sc_a1 * sc_yl1 - sc_a2 * sc_yl2;
    sc_xl2 = sc_xl1; sc_xl1 = sc_l; sc_yl2 = sc_yl1; sc_yl1 = ol;
    sc_l = ol;
    ol = sc_b0 * sc_r + sc_b1 * sc_xr1 + sc_b2 * sc_xr2 - sc_a1 * sc_yr1 - sc_a2 * sc_yr2;
    sc_xr2 = sc_xr1; sc_xr1 = sc_r; sc_yr2 = sc_yr1; sc_yr1 = ol;
    sc_r = ol;
  );

  // === COMPRESSION ===
  // Peak detection - stereo linked
  det = max(abs(sc_l), abs(sc_r));
  det_db = det > 0.0000001 ? 20 * log10(det) : -140;

  // Gain computation with soft knee for lower ratios
  over = det_db - comp_thresh;
  over > 0 ? (
    // Soft knee for ratios <= 4
    comp_ratio <= 4 ? (
      knee_w = 6;  // 6dB soft knee
      over < knee_w ? (
        // Quadratic knee region
        target_gr = over * over / (4 * knee_w) * (1 - 1/comp_ratio);
      ) : (
        target_gr = over - over / comp_ratio;
      );
    ) : (
      // Hard knee for aggressive ratios
      target_gr = over - over / comp_ratio;
    );
  ) : (
    target_gr = 0;
  );

  // Envelope follower
  target_gr > comp_env ? (
    comp_env = comp_att * comp_env + (1 - comp_att) * target_gr;
  ) : (
    comp_env = comp_rel * comp_env + (1 - comp_rel) * target_gr;
  );

  // Apply gain reduction
  gr = 10 ^ (-comp_env / 20);
  comp_gr_db = comp_env;

  l *= gr;
  r *= gr;

  // === OUTPUT ===
  l *= output_gain;
  r *= output_gain;

  // Dry/wet mix
  mix < 1 ? (
    spl0 = dry_l * (1 - mix) + l * mix;
    spl1 = dry_r * (1 - mix) + r * mix;
  ) : (
    spl0 = l;
    spl1 = r;
  );

@gfx 500 310
// ============================================================================
//  COLOR CONSTANTS
// ============================================================================
COL_BG_R = 0.05; COL_BG_G = 0.05; COL_BG_B = 0.07;
COL_PANEL_R = 0.08; COL_PANEL_G = 0.08; COL_PANEL_B = 0.11;
COL_PANEL_HI_R = 0.12; COL_PANEL_HI_G = 0.12; COL_PANEL_HI_B = 0.16;
COL_BORDER_R = 0.20; COL_BORDER_G = 0.20; COL_BORDER_B = 0.25;
COL_TITLE_R = 0.95; COL_TITLE_G = 0.78; COL_TITLE_B = 0.35;
COL_SEC_R = 0.55; COL_SEC_G = 0.50; COL_SEC_B = 0.40;
COL_TEXT_R = 0.78; COL_TEXT_G = 0.78; COL_TEXT_B = 0.82;
COL_DIM_R = 0.38; COL_DIM_G = 0.38; COL_DIM_B = 0.42;
COL_ACCENT_R = 0.95; COL_ACCENT_G = 0.45; COL_ACCENT_B = 0.15;
COL_GREEN_R = 0.25; COL_GREEN_G = 0.80; COL_GREEN_B = 0.50;
COL_CYAN_R = 0.20; COL_CYAN_G = 0.60; COL_CYAN_B = 0.85;
COL_BAR_BG_R = 0.12; COL_BAR_BG_G = 0.12; COL_BAR_BG_B = 0.16;

// ============================================================================
//  BACKGROUND
// ============================================================================
gfx_r = COL_BG_R; gfx_g = COL_BG_G; gfx_b = COL_BG_B;
gfx_rect(0, 0, gfx_w, gfx_h);
gfx_r = 0.03; gfx_g = 0.03; gfx_b = 0.05;
gfx_rect(0, 0, gfx_w, 44);
gfx_r = COL_TITLE_R * 0.6; gfx_g = COL_TITLE_G * 0.6; gfx_b = COL_TITLE_B * 0.6;
gfx_rect(0, 44, gfx_w, 2);

// ============================================================================
//  HELPER: draw_bar
// ============================================================================
function draw_bar(bx, by, bw, bh, val, vmin, vmax, label, show_val) (
  gfx_r = COL_BAR_BG_R; gfx_g = COL_BAR_BG_G; gfx_b = COL_BAR_BG_B;
  gfx_rect(bx, by, bw, bh);
  norm = (val - vmin) / (vmax - vmin);
  norm = max(0, min(1, norm));
  fill_w = norm * bw;
  fill_w > 0 ? (
    gfx_r = COL_CYAN_R * 0.6; gfx_g = COL_CYAN_G * 0.6; gfx_b = COL_CYAN_B * 0.6;
    gfx_rect(bx, by, fill_w, bh);
    gfx_r = COL_CYAN_R * 0.8; gfx_g = COL_CYAN_G * 0.8; gfx_b = COL_CYAN_B * 0.8;
    gfx_rect(bx, by, fill_w, floor(bh / 2));
    gfx_r = COL_CYAN_R; gfx_g = COL_CYAN_G; gfx_b = COL_CYAN_B;
    gfx_rect(bx, by, fill_w, 1);
  );
  gfx_r = COL_BORDER_R; gfx_g = COL_BORDER_G; gfx_b = COL_BORDER_B;
  gfx_rect(bx, by, bw, 1); gfx_rect(bx, by + bh - 1, bw, 1);
  gfx_rect(bx, by, 1, bh); gfx_rect(bx + bw - 1, by, 1, bh);
  gfx_r = COL_TEXT_R; gfx_g = COL_TEXT_G; gfx_b = COL_TEXT_B;
  gfx_setfont(1, "Arial", 12);
  gfx_x = bx + 5; gfx_y = by + floor((bh - 12) / 2);
  gfx_drawstr(label);
  show_val ? (
    gfx_setfont(1, "Arial", 11);
    gfx_x = bx + bw - 40; gfx_y = by + floor((bh - 11) / 2);
    gfx_drawnumber(val, val == floor(val) ? 0 : 1);
  );
  mouse_cap & 1 ? (
    mouse_x >= bx && mouse_x <= bx + bw &&
    mouse_y >= by && mouse_y <= by + bh ? (
      new_norm = (mouse_x - bx) / bw;
      new_norm = max(0, min(1, new_norm));
      val = vmin + new_norm * (vmax - vmin);
    );
  );
  val;
);

// ============================================================================
//  HELPER: draw_panel
// ============================================================================
function draw_panel(px, py, pw, ph, title) (
  gfx_r = COL_PANEL_R; gfx_g = COL_PANEL_G; gfx_b = COL_PANEL_B;
  gfx_rect(px, py, pw, ph);
  gfx_r = COL_PANEL_HI_R; gfx_g = COL_PANEL_HI_G; gfx_b = COL_PANEL_HI_B;
  gfx_rect(px, py, pw, 22);
  gfx_r = COL_BORDER_R; gfx_g = COL_BORDER_G; gfx_b = COL_BORDER_B;
  gfx_rect(px, py + 22, pw, 1);
  gfx_r = COL_BORDER_R * 0.7; gfx_g = COL_BORDER_G * 0.7; gfx_b = COL_BORDER_B * 0.7;
  gfx_rect(px, py, pw, 1); gfx_rect(px, py, 1, ph);
  gfx_rect(px + pw - 1, py, 1, ph); gfx_rect(px, py + ph - 1, pw, 1);
  gfx_r = COL_SEC_R; gfx_g = COL_SEC_G; gfx_b = COL_SEC_B;
  gfx_setfont(1, "Arial", 12);
  gfx_x = px + 8; gfx_y = py + 4;
  gfx_drawstr(title);
);

// ============================================================================
//  HELPER: draw_toggle
// ============================================================================
function draw_toggle(tx, ty, is_on, label) (
  gfx_r = COL_BORDER_R; gfx_g = COL_BORDER_G; gfx_b = COL_BORDER_B;
  gfx_circle(tx + 8, ty + 8, 7, 0);
  is_on ? (
    gfx_r = COL_GREEN_R; gfx_g = COL_GREEN_G; gfx_b = COL_GREEN_B;
    gfx_circle(tx + 8, ty + 8, 5, 1);
  ) : (
    gfx_r = 0.15; gfx_g = 0.15; gfx_b = 0.18;
    gfx_circle(tx + 8, ty + 8, 5, 1);
  );
  gfx_r = is_on ? COL_TEXT_R : COL_DIM_R;
  gfx_g = is_on ? COL_TEXT_G : COL_DIM_G;
  gfx_b = is_on ? COL_TEXT_B : COL_DIM_B;
  gfx_setfont(1, "Arial", 11);
  gfx_x = tx + 20; gfx_y = ty + 1;
  gfx_drawstr(label);
  (mouse_cap & 1) && !(last_cap & 1) &&
    mouse_x >= tx && mouse_x <= tx + 80 &&
    mouse_y >= ty && mouse_y <= ty + 16 ? (
      is_on = 1 - is_on;
  );
  is_on;
);

// ============================================================================
//  HELPER: draw_mode_sel — clickable mode selector (up to 4 options)
// ============================================================================
function draw_mode_sel(mx, my, mw, mh, val, vmax, label, v0, v1, v2, v3) (
  gfx_r = COL_BAR_BG_R; gfx_g = COL_BAR_BG_G; gfx_b = COL_BAR_BG_B;
  gfx_rect(mx, my, mw, mh);
  gfx_r = COL_BORDER_R; gfx_g = COL_BORDER_G; gfx_b = COL_BORDER_B;
  gfx_rect(mx, my, mw, 1); gfx_rect(mx, my + mh - 1, mw, 1);
  gfx_rect(mx, my, 1, mh); gfx_rect(mx + mw - 1, my, 1, mh);
  gfx_r = COL_TEXT_R; gfx_g = COL_TEXT_G; gfx_b = COL_TEXT_B;
  gfx_setfont(1, "Arial", 12);
  gfx_x = mx + 5; gfx_y = my + floor((mh - 12) / 2);
  gfx_drawstr(label);
  gfx_r = COL_ACCENT_R; gfx_g = COL_ACCENT_G; gfx_b = COL_ACCENT_B;
  gfx_x = mx + mw - 72; gfx_y = my + floor((mh - 12) / 2);
  val == 0 ? gfx_drawstr(v0);
  val == 1 ? gfx_drawstr(v1);
  val == 2 ? gfx_drawstr(v2);
  val == 3 ? gfx_drawstr(v3);
  (mouse_cap & 1) && !(last_cap & 1) &&
    mouse_x >= mx && mouse_x <= mx + mw &&
    mouse_y >= my && mouse_y <= my + mh ? (
      val = (val + 1) % (vmax + 1);
  );
  (mouse_cap & 2) && !(last_cap & 2) &&
    mouse_x >= mx && mouse_x <= mx + mw &&
    mouse_y >= my && mouse_y <= my + mh ? (
      val = val - 1; val < 0 ? val = vmax;
  );
  val;
);

// ============================================================================
//  HELPER: draw_ratio_sel — clickable ratio selector (8 options)
// ============================================================================
function draw_ratio_sel(mx, my, mw, mh, val, label) (
  gfx_r = COL_BAR_BG_R; gfx_g = COL_BAR_BG_G; gfx_b = COL_BAR_BG_B;
  gfx_rect(mx, my, mw, mh);
  gfx_r = COL_BORDER_R; gfx_g = COL_BORDER_G; gfx_b = COL_BORDER_B;
  gfx_rect(mx, my, mw, 1); gfx_rect(mx, my + mh - 1, mw, 1);
  gfx_rect(mx, my, 1, mh); gfx_rect(mx + mw - 1, my, 1, mh);
  gfx_r = COL_TEXT_R; gfx_g = COL_TEXT_G; gfx_b = COL_TEXT_B;
  gfx_setfont(1, "Arial", 12);
  gfx_x = mx + 5; gfx_y = my + floor((mh - 12) / 2);
  gfx_drawstr(label);
  val == 7 ? (
    gfx_r = 1.0; gfx_g = 0.2; gfx_b = 0.2;
  ) : (
    gfx_r = COL_ACCENT_R; gfx_g = COL_ACCENT_G; gfx_b = COL_ACCENT_B;
  );
  gfx_x = mx + mw - 52; gfx_y = my + floor((mh - 12) / 2);
  val == 0 ? gfx_drawstr("1:1");
  val == 1 ? gfx_drawstr("2:1");
  val == 2 ? gfx_drawstr("3:1");
  val == 3 ? gfx_drawstr("4:1");
  val == 4 ? gfx_drawstr("6:1");
  val == 5 ? gfx_drawstr("10:1");
  val == 6 ? gfx_drawstr("20:1");
  val == 7 ? gfx_drawstr("NUKE");
  (mouse_cap & 1) && !(last_cap & 1) &&
    mouse_x >= mx && mouse_x <= mx + mw &&
    mouse_y >= my && mouse_y <= my + mh ? (
      val = (val + 1) % 8;
  );
  (mouse_cap & 2) && !(last_cap & 2) &&
    mouse_x >= mx && mouse_x <= mx + mw &&
    mouse_y >= my && mouse_y <= my + mh ? (
      val = val - 1; val < 0 ? val = 7;
  );
  val;
);

// ============================================================================
//  LAYOUT
// ============================================================================
margin = 8;
gap = 6;
bar_h = 18;
bar_sp = 21;
col_w = floor((gfx_w - margin * 2 - gap) / 2);
body_y = 50;

// ============================================================================
//  TITLE
// ============================================================================
gfx_r = COL_TITLE_R; gfx_g = COL_TITLE_G; gfx_b = COL_TITLE_B;
gfx_setfont(1, "Arial", 22);
gfx_x = 12; gfx_y = 10;
gfx_drawstr("KITTY KATS BIG KRUSH");

// ============================================================================
//  COLUMN 1: INPUT / COMPRESSION
// ============================================================================
c1x = margin;
draw_panel(c1x, body_y, col_w, 178, "INPUT / COMPRESSION");
cy = body_y + 26;
slider1 = draw_bar(c1x + 4, cy, col_w - 8, bar_h, slider1, -12, 24, "Input dB", 1);
cy += bar_sp;
slider2 = draw_bar(c1x + 4, cy, col_w - 8, bar_h, slider2, -40, 0, "Thresh dB", 1);
cy += bar_sp;
slider3 = draw_ratio_sel(c1x + 4, cy, col_w - 8, bar_h, slider3, "Ratio");
cy += bar_sp;
slider4 = draw_bar(c1x + 4, cy, col_w - 8, bar_h, slider4, 0.05, 20, "Atk ms", 1);
cy += bar_sp;
slider5 = draw_bar(c1x + 4, cy, col_w - 8, bar_h, slider5, 50, 2500, "Rel ms", 1);
cy += bar_sp;

// GR meter text
gfx_r = COL_DIM_R; gfx_g = COL_DIM_G; gfx_b = COL_DIM_B;
gfx_setfont(1, "Arial", 11);
gfx_x = c1x + 8; gfx_y = cy + 2;
gfx_drawstr("GR: ");
gfx_r = COL_ACCENT_R; gfx_g = COL_ACCENT_G; gfx_b = COL_ACCENT_B;
gfx_drawstr("-");
gfx_drawnumber(comp_gr_db, 1);
gfx_drawstr("dB");
cy += 16;
// GR bar
gfx_r = COL_BAR_BG_R; gfx_g = COL_BAR_BG_G; gfx_b = COL_BAR_BG_B;
gfx_rect(c1x + 4, cy, col_w - 8, 6);
gr_w = min(comp_gr_db * 6, col_w - 8);
gr_w > 0 ? (
  gfx_r = COL_ACCENT_R; gfx_g = COL_ACCENT_G * 0.4; gfx_b = 0.1;
  gfx_rect(c1x + 4, cy, gr_w, 6);
);

// ============================================================================
//  COLUMN 2: CHARACTER
// ============================================================================
c2x = margin + col_w + gap;
draw_panel(c2x, body_y, col_w, 178, "CHARACTER");
cy = body_y + 26;
slider6 = draw_mode_sel(c2x + 4, cy, col_w - 8, bar_h, slider6, 2, "Dist", "Off", "Tape", "Tube", "");
cy += bar_sp;
slider7 = draw_toggle(c2x + 8, cy + 2, slider7, "HP Sidechain");
cy += bar_sp;
slider8 = draw_bar(c2x + 4, cy, col_w - 8, bar_h, slider8, 60, 400, "SC Hz", 1);
cy += bar_sp;
slider9 = draw_bar(c2x + 4, cy, col_w - 8, bar_h, slider9, -12, 12, "Out dB", 1);
cy += bar_sp;
slider10 = draw_bar(c2x + 4, cy, col_w - 8, bar_h, slider10, 0, 100, "Mix %", 1);
  // ============================================================
  // INSTANCE MANAGER PANEL
  // ============================================================
  bc_panel_h = bc_panel_expanded ? 90 : 30;
  bc_panel_y = gfx_h - bc_panel_h;

  gfx_r = 0.04; gfx_g = 0.04; gfx_b = 0.06;
  gfx_rect(0, bc_panel_y, gfx_w, bc_panel_h);
  gfx_r = 0.15; gfx_g = 0.15; gfx_b = 0.20;
  gfx_rect(0, bc_panel_y, gfx_w, 1);

  gfx_setfont(1, "Arial", 11);
  gfx_r = 0.95; gfx_g = 0.45; gfx_b = 0.15;
  gfx_x = 8; gfx_y = bc_panel_y + 8;
  bc_my_slot >= 0 ? (
    gfx_drawstr("I");
    gfx_drawnumber(bc_my_slot + 1, 0);
    gfx_drawstr("/");
    gfx_drawnumber(bc_instance_count, 0);
  ) : (
    gfx_drawstr("--");
  );

  bc_following > 0 ? (
    gfx_r = 0.2; gfx_g = 0.8; gfx_b = 0.3;
    gfx_drawstr("  Following: I");
    bc_fs = 0;
    loop(BC_MAX_INST,
      fsb = BC_MY_REGION + bc_fs * BC_SLOT_SIZE;
      gmem[fsb + 1] == bc_following ? (
        gfx_drawnumber(bc_fs + 1, 0);
        bc_fs = BC_MAX_INST;
      );
      bc_fs += 1;
    );
  ) : (
    gfx_r = 0.3; gfx_g = 0.3; gfx_b = 0.4;
    gfx_drawstr("  Following: --");
  );

  exp_x = gfx_w - 200;
  exp_y = bc_panel_y + 4;
  exp_w = 65;
  exp_h = 20;
  gfx_r = 0.12; gfx_g = 0.12; gfx_b = 0.16;
  gfx_rect(exp_x, exp_y, exp_w, exp_h);
  gfx_r = 0.5; gfx_g = 0.5; gfx_b = 0.6;
  gfx_x = exp_x + 5; gfx_y = exp_y + 4;
  bc_panel_expanded ? gfx_drawstr("COLLAPSE") : gfx_drawstr("EXPAND");
  (mouse_cap & 1) && !(last_cap & 1) &&
    mouse_x >= exp_x && mouse_x < exp_x + exp_w &&
    mouse_y >= exp_y && mouse_y < exp_y + exp_h ? (
    bc_panel_expanded = !bc_panel_expanded;
    bc_steal_mode = 0;
  );

  stl_x = gfx_w - 125;
  stl_y = bc_panel_y + 4;
  stl_w = 50;
  stl_h = 20;
  bc_steal_mode ? (
    gfx_r = 0.6; gfx_g = 0.2; gfx_b = 0.1;
  ) : (
    gfx_r = 0.2; gfx_g = 0.1; gfx_b = 0.1;
  );
  gfx_rect(stl_x, stl_y, stl_w, stl_h);
  gfx_r = 0.9; gfx_g = 0.5; gfx_b = 0.2;
  gfx_x = stl_x + 6; gfx_y = stl_y + 4;
  gfx_drawstr("STEAL");
  (mouse_cap & 1) && !(last_cap & 1) &&
    mouse_x >= stl_x && mouse_x < stl_x + stl_w &&
    mouse_y >= stl_y && mouse_y < stl_y + stl_h ? (
    bc_steal_mode = !bc_steal_mode;
    !bc_panel_expanded ? bc_panel_expanded = 1;
  );

  bc_following > 0 ? (
    unf_x = gfx_w - 65;
    unf_y = bc_panel_y + 4;
    unf_w = 55;
    unf_h = 20;
    gfx_r = 0.1; gfx_g = 0.2; gfx_b = 0.1;
    gfx_rect(unf_x, unf_y, unf_w, unf_h);
    gfx_r = 0.5; gfx_g = 0.9; gfx_b = 0.5;
    gfx_x = unf_x + 4; gfx_y = unf_y + 4;
    gfx_drawstr("UNFLW");
    (mouse_cap & 1) && !(last_cap & 1) &&
      mouse_x >= unf_x && mouse_x < unf_x + unf_w &&
      mouse_y >= unf_y && mouse_y < unf_y + unf_h ? (
      bc_following = 0;
      bc_follow_slot = -1;
    );
  );

  bc_panel_expanded ? (
    row_y = bc_panel_y + 30;
    row_h = 14;
    bc_s = 0;
    loop(BC_MAX_INST,
      isb = BC_MY_REGION + bc_s * BC_SLOT_SIZE;
      isid = gmem[isb + 1];
      isid > 0 ? (
        mouse_y >= row_y && mouse_y < row_y + row_h &&
          mouse_x >= 8 && mouse_x < gfx_w - 8 &&
          bc_s != bc_my_slot ? (
          gfx_r = 0.10; gfx_g = 0.10; gfx_b = 0.14;
          gfx_rect(4, row_y, gfx_w - 8, row_h);
        );
        gfx_setfont(1, "Arial", 10);
        bc_s == bc_my_slot ? (
          gfx_r = 0.95; gfx_g = 0.45; gfx_b = 0.15;
        ) : (
          gfx_r = 0.7; gfx_g = 0.7; gfx_b = 0.8;
        );
        gfx_x = 12; gfx_y = row_y + 1;
        gfx_drawstr("I");
        gfx_drawnumber(bc_s + 1, 0);
        gfx_drawstr("  ");
        bc_s == bc_my_slot ? (
          gfx_drawstr("[YOU]");
        ) : (
          iwho = gmem[isb + 3];
          iwho > 0 ? (
            gfx_drawstr("[>I");
            iw = 0;
            loop(BC_MAX_INST,
              iwsb = BC_MY_REGION + iw * BC_SLOT_SIZE;
              gmem[iwsb + 1] == iwho ? (
                gfx_drawnumber(iw + 1, 0);
                iw = BC_MAX_INST;
              );
              iw += 1;
            );
            gfx_drawstr("]");
          ) : (
            gfx_drawstr("[LEADER]");
          );
          gfx_r = 0.35; gfx_g = 0.45; gfx_b = 0.35;
          bc_steal_mode ? (
            gfx_drawstr("  click: steal");
          ) : (
            gfx_drawstr("  click: follow");
          );
          (mouse_cap & 1) && !(last_cap & 1) &&
            mouse_y >= row_y && mouse_y < row_y + row_h &&
            mouse_x >= 8 && mouse_x < gfx_w - 8 ? (
            bc_steal_mode ? (
              bc_steal_target = isid;
              bc_steal_pending = 1;
              bc_steal_mode = 0;
            ) : (
              bc_can_follow = 1;
              bc_cursor = isid;
              bc_hops = 0;
              while(bc_cursor > 0 && bc_hops < BC_MAX_INST) (
                bc_cursor == bc_my_id ? (
                  bc_can_follow = 0;
                  bc_cursor = 0;
                ) : (
                  bc_next = 0;
                  bc_cs = 0;
                  loop(BC_MAX_INST,
                    csb = BC_MY_REGION + bc_cs * BC_SLOT_SIZE;
                    gmem[csb + 1] == bc_cursor ? (
                      bc_next = gmem[csb + 3];
                      bc_cs = BC_MAX_INST;
                    );
                    bc_cs += 1;
                  );
                  bc_cursor = bc_next;
                );
                bc_hops += 1;
              );
              bc_can_follow ? (
                bc_following = isid;
              );
            );
          );
        );
        row_y += row_h;
      );
      bc_s += 1;
    );
  );

  last_cap = mouse_cap;

  // --- NOTICE BUTTON ---
  notice_btn_x = gfx_w - 60;
  notice_btn_y = bc_panel_y - 18;
  gfx_r = 0.6; gfx_g = 0.5; gfx_b = 0.3;
  gfx_rect(notice_btn_x, notice_btn_y, 55, 15);
  gfx_r = 0; gfx_g = 0; gfx_b = 0;
  gfx_x = notice_btn_x + 4; gfx_y = notice_btn_y + 2;
  gfx_drawstr("NOTICE");
  (mouse_cap & 1) && mouse_x >= notice_btn_x && mouse_x <= notice_btn_x + 55 && mouse_y >= notice_btn_y && mouse_y <= notice_btn_y + 15 && !notice_clicked ? (
    notice_show = !notice_show;
    notice_clicked = 1;
  );
  !(mouse_cap & 1) ? notice_clicked = 0;
  notice_show ? (
    gfx_r = 0.05; gfx_g = 0.05; gfx_b = 0.05; gfx_a = 0.95;
    gfx_rect(0, 0, gfx_w, gfx_h);
    gfx_a = 1;
    gfx_r = 0.9; gfx_g = 0.8; gfx_b = 0.5;
    gfx_x = 15; gfx_y = 10;
    gfx_drawstr("NOTICE: THEY ARE TRYING TO STEAL YOUR COMPUTER");
    gfx_r = 0.7; gfx_g = 0.7; gfx_b = 0.7;
    gfx_x = 15; gfx_y = 30;
    gfx_drawstr("The algorithms in our favorite software are decades old.");
    gfx_x = 15; gfx_y = 45;
    gfx_drawstr("A mathematical model is a truth about the world,");
    gfx_x = 15; gfx_y = 60;
    gfx_drawstr("not a copyrightable product. You do not have to stay");
    gfx_x = 15; gfx_y = 75;
    gfx_drawstr("a slave to subscription software. Install Linux.");
    gfx_x = 15; gfx_y = 90;
    gfx_drawstr("Build your own tools. Believe in yourself.");
    gfx_r = 0.5; gfx_g = 0.7; gfx_b = 1.0;
    gfx_x = 15; gfx_y = 115;
    gfx_drawstr("github.com/LMSBAND  |  instagram.com/LMSSKABAND");
    gfx_r = 0.4; gfx_g = 0.4; gfx_b = 0.4;
    gfx_x = 15; gfx_y = 140;
    gfx_r = 0.6; gfx_g = 0.5; gfx_b = 0.3;
    gfx_rect(notice_btn_x, notice_btn_y, 55, 15);
    gfx_r = 0; gfx_g = 0; gfx_b = 0;
    gfx_x = notice_btn_x + 4; gfx_y = notice_btn_y + 2;
    gfx_drawstr("NOTICE");
  );

// ============================================================
// @SERIALIZE — Persist follow state
// ============================================================
@serialize
file_var(0, bc_following);
file_var(0, bc_my_id);
