desc:LMS Tube Saturator
//tags: saturation distortion tube analog
//author: LMS + Claude

import lms_core.jsfx-inc
options:gmem=DrumBanger

slider1:0<0,100,0.1>-Drive (%)
slider2:0<-12,12,0.1>-Output Gain (dB)
slider3:100<0,100,1>-Dry/Wet (%)
slider4:0<0,100,0.1>-Even Harmonics (%)
slider5:50<0,100,0.1>-Odd Harmonics (%)
slider6:1<0,4,1{Warm Tube,Hot Tube,Tape,Rectifier,Fuzz}>-Mode
slider7:100<20,20000,1>-Tone (Hz)
slider8:0<0,100,0.1>-Bias (%)

@init
  // Initialize density-aware saturation (L/R independent state)
  sat_l.lms_sat_warm_init();
  sat_r.lms_sat_warm_init();
  harm_l.lms_sat_harmonics_init();
  harm_r.lms_sat_harmonics_init();
  dc.lms_dc_init_freq(220);
  tone.lms_tone_init();

notice_show = 0;

  // ============================================================
  // BROADCAST SYSTEM — Instance Registry
  // ============================================================
  BC_BASE = 100000;
  BC_MY_TYPE = 7;           // Tube Saturator
  BC_SLOT_SIZE = 512;
  BC_MAX_INST = 32;
  BC_PARAM_COUNT = 8;
  BC_MY_REGION = BC_BASE + BC_MY_TYPE * 16384;
  BC_STALE_TIMEOUT = 2;

  // Generate unique instance ID (only on first init, preserve across transport stop/start)
  bc_my_id == 0 ? bc_my_id = floor(rand() * 1073741824) + 1;
  bc_my_slot = -1;
  // bc_following preserved by @serialize — do NOT zero here
  bc_follow_slot = -1;
  bc_steal_pending = 0;
  bc_steal_target = 0;
  bc_panel_expanded = 0;
  bc_page = 0;
  bc_steal_mode = 0;
  bc_instance_count = 0;

  BC_STALE_HB = 10000;
  BC_STALE_CT = 10032;
  i = 0;
  loop(BC_MAX_INST,
    BC_STALE_HB[i] = -1;
    BC_STALE_CT[i] = 0;
    i += 1;
  );

  bc_i = 0;
  loop(BC_MAX_INST,
    bc_my_slot < 0 ? (
      sb = BC_MY_REGION + bc_i * BC_SLOT_SIZE;
      sid = gmem[sb + 1];
      (sid == 0 || sid == bc_my_id) ? (
        bc_my_slot = bc_i;
      );
    );
    bc_i += 1;
  );

  bc_my_slot >= 0 ? (
    sb = BC_MY_REGION + bc_my_slot * BC_SLOT_SIZE;
    gmem[sb + 0] = 0;
    gmem[sb + 1] = bc_my_id;
    gmem[sb + 2] = BC_MY_TYPE;
    gmem[sb + 3] = 0;
    gmem[sb + 4] = BC_PARAM_COUNT;
  );

@slider
  drive = slider1 / 100;
  out_gain = 10 ^ (slider2 / 20);
  dry_wet = slider3 / 100;
  even_harm = slider4 / 100;
  odd_harm = slider5 / 100;
  mode = slider6;
  bias = slider8 / 100;

  // Tone filter
  tone.lms_tone_set(slider7);

// ============================================================
// @BLOCK — Broadcast, heartbeat, stale-check, follow, steal
// ============================================================
@block
// ---- Recalculate from sliders (GFX changes don't trigger @slider) ----
drive = slider1 / 100;
out_gain = 10 ^ (slider2 / 20);
dry_wet = slider3 / 100;
even_harm = slider4 / 100;
odd_harm = slider5 / 100;
mode = slider6;
bias = slider8 / 100;

// Tone filter
tone.lms_tone_set(slider7);

bc_my_slot >= 0 ? (
  sb = BC_MY_REGION + bc_my_slot * BC_SLOT_SIZE;
  gmem[sb + 1] != bc_my_id ? (
    bc_my_id = floor(rand() * 1073741824) + 1;
    bc_my_slot = -1;
    bc_i = 0;
    loop(BC_MAX_INST,
      bc_my_slot < 0 ? (
        tsb = BC_MY_REGION + bc_i * BC_SLOT_SIZE;
        (gmem[tsb + 1] == 0) ? bc_my_slot = bc_i;
      );
      bc_i += 1;
    );
    bc_my_slot >= 0 ? (
      sb = BC_MY_REGION + bc_my_slot * BC_SLOT_SIZE;
      gmem[sb + 0] = 0;
      gmem[sb + 1] = bc_my_id;
      gmem[sb + 2] = BC_MY_TYPE;
      gmem[sb + 3] = bc_following;
      gmem[sb + 4] = BC_PARAM_COUNT;
    );
  );
);

bc_my_slot >= 0 && bc_following > 0 ? (
  bc_found_leader = 0;
  bc_scan = 0;
  loop(BC_MAX_INST,
    bc_scan != bc_my_slot ? (
      lsb = BC_MY_REGION + bc_scan * BC_SLOT_SIZE;
      gmem[lsb + 1] == bc_following ? (
        bc_found_leader = 1;
        bc_follow_slot = bc_scan;
        lbase = lsb + 8;
        slider1 = gmem[lbase + 0];
        slider2 = gmem[lbase + 1];
        slider3 = gmem[lbase + 2];
        slider4 = gmem[lbase + 3];
        slider5 = gmem[lbase + 4];
        slider6 = gmem[lbase + 5];
        slider7 = gmem[lbase + 6];
        slider8 = gmem[lbase + 7];
        bc_scan = BC_MAX_INST;
      );
    );
    bc_scan += 1;
  );
  !bc_found_leader ? (
    bc_following = 0;
    bc_follow_slot = -1;
  );
);

bc_my_slot >= 0 && bc_steal_pending ? (
  bc_scan = 0;
  loop(BC_MAX_INST,
    lsb = BC_MY_REGION + bc_scan * BC_SLOT_SIZE;
    gmem[lsb + 1] == bc_steal_target ? (
      lbase = lsb + 8;
      slider1 = gmem[lbase + 0];
      slider2 = gmem[lbase + 1];
      slider3 = gmem[lbase + 2];
      slider4 = gmem[lbase + 3];
      slider5 = gmem[lbase + 4];
      slider6 = gmem[lbase + 5];
      slider7 = gmem[lbase + 6];
      slider8 = gmem[lbase + 7];
      bc_scan = BC_MAX_INST;
    );
    bc_scan += 1;
  );
  bc_steal_pending = 0;
  bc_steal_target = 0;
  bc_steal_mode = 0;
);

bc_my_slot >= 0 ? (
  sb = BC_MY_REGION + bc_my_slot * BC_SLOT_SIZE;
  gmem[sb + 0] += 1;
  gmem[sb + 3] = bc_following;
  pbase = sb + 8;
  gmem[pbase + 0] = slider1;
  gmem[pbase + 1] = slider2;
  gmem[pbase + 2] = slider3;
  gmem[pbase + 3] = slider4;
  gmem[pbase + 4] = slider5;
  gmem[pbase + 5] = slider6;
  gmem[pbase + 6] = slider7;
  gmem[pbase + 7] = slider8;
);

bc_instance_count = 0;
bc_scan = 0;
loop(BC_MAX_INST,
  tsb = BC_MY_REGION + bc_scan * BC_SLOT_SIZE;
  tsid = gmem[tsb + 1];
  tsid > 0 ? (
    bc_scan == bc_my_slot ? (
      bc_instance_count += 1;
    ) : (
      tshb = gmem[tsb + 0];
      tshb == BC_STALE_HB[bc_scan] ? (
        BC_STALE_CT[bc_scan] += samplesblock / srate;
        BC_STALE_CT[bc_scan] > BC_STALE_TIMEOUT ? (
          gmem[tsb + 1] = 0;
          BC_STALE_CT[bc_scan] = 0;
        );
      ) : (
        BC_STALE_HB[bc_scan] = tshb;
        BC_STALE_CT[bc_scan] = 0;
        bc_instance_count += 1;
      );
    );
  );
  bc_scan += 1;
);

@sample
  dry_l = spl0;
  dry_r = spl1;

  l = spl0;
  r = spl1;

  // Apply density-aware saturation based on mode
  mode == 0 ? (
    l = sat_l.lms_sat_warm(l, drive, bias);
    r = sat_r.lms_sat_warm(r, drive, bias);
  ) : mode == 1 ? (
    l = sat_l.lms_sat_hot(l, drive, bias);
    r = sat_r.lms_sat_hot(r, drive, bias);
  ) : mode == 2 ? (
    l = sat_l.lms_sat_tape(l, drive, bias);
    r = sat_r.lms_sat_tape(r, drive, bias);
  ) : mode == 3 ? (
    l = sat_l.lms_sat_rect(l, drive, bias);
    r = sat_r.lms_sat_rect(r, drive, bias);
  ) : (
    l = sat_l.lms_sat_fuzz(l, drive, bias);
    r = sat_r.lms_sat_fuzz(r, drive, bias);
  );

  // Add harmonics
  (even_harm > 0 || odd_harm > 0) ? (
    l = harm_l.lms_sat_harmonics(l, even_harm, odd_harm);
    r = harm_r.lms_sat_harmonics(r, even_harm, odd_harm);
  );

  // Tone control
  l = tone.lms_tone_proc_l(l);
  r = tone.lms_tone_proc_r(r);

  // Output gain
  l *= out_gain;
  r *= out_gain;

  // DC blocker
  l = dc.lms_dc_proc_l(l);
  r = dc.lms_dc_proc_r(r);

  // Dry/wet mix
  spl0 = dry_l * (1 - dry_wet) + l * dry_wet;
  spl1 = dry_r * (1 - dry_wet) + r * dry_wet;

@gfx 520 330
// ============================================================================
//  COLOR CONSTANTS
// ============================================================================
COL_BG_R = 0.05; COL_BG_G = 0.05; COL_BG_B = 0.07;
COL_PANEL_R = 0.08; COL_PANEL_G = 0.08; COL_PANEL_B = 0.11;
COL_PANEL_HI_R = 0.12; COL_PANEL_HI_G = 0.12; COL_PANEL_HI_B = 0.16;
COL_BORDER_R = 0.20; COL_BORDER_G = 0.20; COL_BORDER_B = 0.25;
COL_TITLE_R = 0.95; COL_TITLE_G = 0.78; COL_TITLE_B = 0.35;
COL_SEC_R = 0.55; COL_SEC_G = 0.50; COL_SEC_B = 0.40;
COL_TEXT_R = 0.78; COL_TEXT_G = 0.78; COL_TEXT_B = 0.82;
COL_DIM_R = 0.38; COL_DIM_G = 0.38; COL_DIM_B = 0.42;
COL_ACCENT_R = 0.95; COL_ACCENT_G = 0.45; COL_ACCENT_B = 0.15;
COL_GREEN_R = 0.25; COL_GREEN_G = 0.80; COL_GREEN_B = 0.50;
COL_CYAN_R = 0.20; COL_CYAN_G = 0.60; COL_CYAN_B = 0.85;
COL_BAR_BG_R = 0.12; COL_BAR_BG_G = 0.12; COL_BAR_BG_B = 0.16;

// ============================================================================
//  BACKGROUND
// ============================================================================
gfx_r = COL_BG_R; gfx_g = COL_BG_G; gfx_b = COL_BG_B;
gfx_rect(0, 0, gfx_w, gfx_h);
gfx_r = 0.03; gfx_g = 0.03; gfx_b = 0.05;
gfx_rect(0, 0, gfx_w, 44);
gfx_r = COL_TITLE_R * 0.6; gfx_g = COL_TITLE_G * 0.6; gfx_b = COL_TITLE_B * 0.6;
gfx_rect(0, 44, gfx_w, 2);

// ============================================================================
//  HELPER: draw_bar
// ============================================================================
function draw_bar(bx, by, bw, bh, val, vmin, vmax, label, show_val) (
  gfx_r = COL_BAR_BG_R; gfx_g = COL_BAR_BG_G; gfx_b = COL_BAR_BG_B;
  gfx_rect(bx, by, bw, bh);
  norm = (val - vmin) / (vmax - vmin);
  norm = max(0, min(1, norm));
  fill_w = norm * bw;
  fill_w > 0 ? (
    gfx_r = COL_CYAN_R * 0.6; gfx_g = COL_CYAN_G * 0.6; gfx_b = COL_CYAN_B * 0.6;
    gfx_rect(bx, by, fill_w, bh);
    gfx_r = COL_CYAN_R * 0.8; gfx_g = COL_CYAN_G * 0.8; gfx_b = COL_CYAN_B * 0.8;
    gfx_rect(bx, by, fill_w, floor(bh / 2));
    gfx_r = COL_CYAN_R; gfx_g = COL_CYAN_G; gfx_b = COL_CYAN_B;
    gfx_rect(bx, by, fill_w, 1);
  );
  gfx_r = COL_BORDER_R; gfx_g = COL_BORDER_G; gfx_b = COL_BORDER_B;
  gfx_rect(bx, by, bw, 1); gfx_rect(bx, by + bh - 1, bw, 1);
  gfx_rect(bx, by, 1, bh); gfx_rect(bx + bw - 1, by, 1, bh);
  gfx_r = COL_TEXT_R; gfx_g = COL_TEXT_G; gfx_b = COL_TEXT_B;
  gfx_setfont(1, "Arial", 12);
  gfx_x = bx + 5; gfx_y = by + floor((bh - 12) / 2);
  gfx_drawstr(label);
  show_val ? (
    gfx_setfont(1, "Arial", 11);
    gfx_x = bx + bw - 40; gfx_y = by + floor((bh - 11) / 2);
    gfx_drawnumber(val, val == floor(val) ? 0 : 1);
  );
  mouse_cap & 1 ? (
    mouse_x >= bx && mouse_x <= bx + bw &&
    mouse_y >= by && mouse_y <= by + bh ? (
      new_norm = (mouse_x - bx) / bw;
      new_norm = max(0, min(1, new_norm));
      val = vmin + new_norm * (vmax - vmin);
    );
  );
  val;
);

// ============================================================================
//  HELPER: draw_panel
// ============================================================================
function draw_panel(px, py, pw, ph, title) (
  gfx_r = COL_PANEL_R; gfx_g = COL_PANEL_G; gfx_b = COL_PANEL_B;
  gfx_rect(px, py, pw, ph);
  gfx_r = COL_PANEL_HI_R; gfx_g = COL_PANEL_HI_G; gfx_b = COL_PANEL_HI_B;
  gfx_rect(px, py, pw, 22);
  gfx_r = COL_BORDER_R; gfx_g = COL_BORDER_G; gfx_b = COL_BORDER_B;
  gfx_rect(px, py + 22, pw, 1);
  gfx_r = COL_BORDER_R * 0.7; gfx_g = COL_BORDER_G * 0.7; gfx_b = COL_BORDER_B * 0.7;
  gfx_rect(px, py, pw, 1); gfx_rect(px, py, 1, ph);
  gfx_rect(px + pw - 1, py, 1, ph); gfx_rect(px, py + ph - 1, pw, 1);
  gfx_r = COL_SEC_R; gfx_g = COL_SEC_G; gfx_b = COL_SEC_B;
  gfx_setfont(1, "Arial", 12);
  gfx_x = px + 8; gfx_y = py + 4;
  gfx_drawstr(title);
);

// ============================================================================
//  HELPER: draw_toggle (not currently used but available)
// ============================================================================
function draw_toggle(tx, ty, is_on, label) (
  gfx_r = COL_BORDER_R; gfx_g = COL_BORDER_G; gfx_b = COL_BORDER_B;
  gfx_circle(tx + 8, ty + 8, 7, 0);
  is_on ? (
    gfx_r = COL_GREEN_R; gfx_g = COL_GREEN_G; gfx_b = COL_GREEN_B;
    gfx_circle(tx + 8, ty + 8, 5, 1);
  ) : (
    gfx_r = 0.15; gfx_g = 0.15; gfx_b = 0.18;
    gfx_circle(tx + 8, ty + 8, 5, 1);
  );
  gfx_r = is_on ? COL_TEXT_R : COL_DIM_R;
  gfx_g = is_on ? COL_TEXT_G : COL_DIM_G;
  gfx_b = is_on ? COL_TEXT_B : COL_DIM_B;
  gfx_setfont(1, "Arial", 11);
  gfx_x = tx + 20; gfx_y = ty + 1;
  gfx_drawstr(label);
  (mouse_cap & 1) && !(last_cap & 1) &&
    mouse_x >= tx && mouse_x <= tx + 80 &&
    mouse_y >= ty && mouse_y <= ty + 16 ? (
      is_on = 1 - is_on;
  );
  is_on;
);

// ============================================================================
//  HELPER: draw_mode_sel — clickable mode selector (5 options)
// ============================================================================
function draw_mode_sel(mx, my, mw, mh, val, vmax, label, v0, v1, v2, v3, v4) (
  gfx_r = COL_BAR_BG_R; gfx_g = COL_BAR_BG_G; gfx_b = COL_BAR_BG_B;
  gfx_rect(mx, my, mw, mh);
  gfx_r = COL_BORDER_R; gfx_g = COL_BORDER_G; gfx_b = COL_BORDER_B;
  gfx_rect(mx, my, mw, 1); gfx_rect(mx, my + mh - 1, mw, 1);
  gfx_rect(mx, my, 1, mh); gfx_rect(mx + mw - 1, my, 1, mh);
  gfx_r = COL_TEXT_R; gfx_g = COL_TEXT_G; gfx_b = COL_TEXT_B;
  gfx_setfont(1, "Arial", 12);
  gfx_x = mx + 5; gfx_y = my + floor((mh - 12) / 2);
  gfx_drawstr(label);
  gfx_r = COL_ACCENT_R; gfx_g = COL_ACCENT_G; gfx_b = COL_ACCENT_B;
  gfx_x = mx + mw - 82; gfx_y = my + floor((mh - 12) / 2);
  val == 0 ? gfx_drawstr(v0);
  val == 1 ? gfx_drawstr(v1);
  val == 2 ? gfx_drawstr(v2);
  val == 3 ? gfx_drawstr(v3);
  val == 4 ? gfx_drawstr(v4);
  (mouse_cap & 1) && !(last_cap & 1) &&
    mouse_x >= mx && mouse_x <= mx + mw &&
    mouse_y >= my && mouse_y <= my + mh ? (
      val = (val + 1) % (vmax + 1);
  );
  (mouse_cap & 2) && !(last_cap & 2) &&
    mouse_x >= mx && mouse_x <= mx + mw &&
    mouse_y >= my && mouse_y <= my + mh ? (
      val = val - 1; val < 0 ? val = vmax;
  );
  val;
);

// ============================================================================
//  LAYOUT
// ============================================================================
margin = 8;
gap = 6;
bar_h = 18;
bar_sp = 21;
col_w = 220;
body_y = 50;

// ============================================================================
//  TITLE
// ============================================================================
gfx_r = COL_TITLE_R; gfx_g = COL_TITLE_G; gfx_b = COL_TITLE_B;
gfx_setfont(1, "Arial", 22);
gfx_x = 12; gfx_y = 10;
gfx_drawstr("LMS TUBE SATURATOR");

// ============================================================================
//  LEFT COLUMN: CONTROLS
// ============================================================================
c1x = margin;
draw_panel(c1x, body_y, col_w, 222, "SATURATION");
cy = body_y + 26;
_old = slider1; slider1 = draw_bar(c1x + 4, cy, col_w - 8, bar_h, slider1, 0, 100, "Drive", 1);
slider1 != _old ? slider_automate(2^0);
cy += bar_sp;
_old = slider6; slider6 = draw_mode_sel(c1x + 4, cy, col_w - 8, bar_h, slider6, 4, "Mode", "Warm Tube", "Hot Tube", "Tape", "Rectifier", "Fuzz");
slider6 != _old ? slider_automate(2^5);
cy += bar_sp;
_old = slider4; slider4 = draw_bar(c1x + 4, cy, col_w - 8, bar_h, slider4, 0, 100, "Even Harm", 1);
slider4 != _old ? slider_automate(2^3);
cy += bar_sp;
_old = slider5; slider5 = draw_bar(c1x + 4, cy, col_w - 8, bar_h, slider5, 0, 100, "Odd Harm", 1);
slider5 != _old ? slider_automate(2^4);
cy += bar_sp;
_old = slider8; slider8 = draw_bar(c1x + 4, cy, col_w - 8, bar_h, slider8, 0, 100, "Bias", 1);
slider8 != _old ? slider_automate(2^7);
cy += bar_sp;
_old = slider7; slider7 = draw_bar(c1x + 4, cy, col_w - 8, bar_h, slider7, 20, 20000, "Tone Hz", 1);
slider7 != _old ? slider_automate(2^6);
cy += bar_sp;
_old = slider2; slider2 = draw_bar(c1x + 4, cy, col_w - 8, bar_h, slider2, -12, 12, "Output dB", 1);
slider2 != _old ? slider_automate(2^1);
cy += bar_sp;
_old = slider3; slider3 = draw_bar(c1x + 4, cy, col_w - 8, bar_h, slider3, 0, 100, "Dry/Wet", 1);
slider3 != _old ? slider_automate(2^2);

// ============================================================================
//  RIGHT PANEL: TRANSFER CURVE
// ============================================================================
tc_x = margin + col_w + gap;
tc_w = gfx_w - tc_x - margin;
tc_h = 222;
draw_panel(tc_x, body_y, tc_w, tc_h, "TRANSFER CURVE");

// Transfer curve box area
center_x = tc_x + tc_w / 2;
center_y = body_y + 22 + (tc_h - 22) / 2;
box_w = tc_w - 20;
box_h = tc_h - 36;

// Box background
gfx_r = 0.06; gfx_g = 0.06; gfx_b = 0.08;
gfx_rect(center_x - box_w/2, center_y - box_h/2, box_w, box_h);

// Center lines
gfx_r = 0.15; gfx_g = 0.15; gfx_b = 0.20;
gfx_line(center_x - box_w/2, center_y, center_x + box_w/2, center_y);
gfx_line(center_x, center_y - box_h/2, center_x, center_y + box_h/2);

// Linear reference (diagonal)
gfx_r = 0.20; gfx_g = 0.20; gfx_b = 0.25;
gfx_line(center_x - box_w/2, center_y + box_h/2,
         center_x + box_w/2, center_y - box_h/2);

// Draw the actual transfer curve
gfx_r = COL_ACCENT_R; gfx_g = COL_ACCENT_G; gfx_b = COL_ACCENT_B;
i = 0;
loop(100,
  // Input from -1 to 1
  in = (i / 99) * 2 - 1;

  // Show static transfer curve (tanh-based approximation for display only)
  mode == 0 ? out = lms_tanh(in * (1 + drive) * 1.2) * 0.85;
  mode == 1 ? out = lms_tanh(in * (1 + drive * 2) * 1.8) * 0.75;
  mode == 2 ? out = lms_tanh(in * (1 + drive * 1.5) * 0.8) * 0.95;
  mode == 3 ? out = lms_tanh(in * (1 + drive * 3) * 2.0) * 0.70;
  mode == 4 ? out = lms_tanh(in * (1 + drive * 4) * 2.5) * 0.60;

  out = max(-1, min(1, out));

  px = center_x + in * box_w * 0.5;
  py = center_y - out * box_h * 0.5;

  i == 0 ? (
    gfx_x = px; gfx_y = py;
  ) : (
    gfx_lineto(px, py);
  );

  i += 1;
);
  // ============================================================
  // INSTANCE MANAGER PANEL
  // ============================================================
  bc_rows_per_page = 5;
  bc_panel_h = bc_panel_expanded ? (30 + bc_rows_per_page * 14 + 18) : 30;
  bc_panel_y = gfx_h - bc_panel_h;

  gfx_r = 0.04; gfx_g = 0.04; gfx_b = 0.06;
  gfx_rect(0, bc_panel_y, gfx_w, bc_panel_h);
  gfx_r = 0.15; gfx_g = 0.15; gfx_b = 0.20;
  gfx_rect(0, bc_panel_y, gfx_w, 1);

  gfx_setfont(1, "Arial", 11);
  gfx_r = 0.95; gfx_g = 0.45; gfx_b = 0.15;
  gfx_x = 8; gfx_y = bc_panel_y + 8;
  bc_my_slot >= 0 ? (
    gfx_drawstr("I");
    gfx_drawnumber(bc_my_slot + 1, 0);
    gfx_drawstr("/");
    gfx_drawnumber(bc_instance_count, 0);
  ) : (
    gfx_drawstr("--");
  );

  bc_following > 0 ? (
    gfx_r = 0.2; gfx_g = 0.8; gfx_b = 0.3;
    gfx_drawstr("  Following: I");
    bc_fs = 0;
    loop(BC_MAX_INST,
      fsb = BC_MY_REGION + bc_fs * BC_SLOT_SIZE;
      gmem[fsb + 1] == bc_following ? (
        gfx_drawnumber(bc_fs + 1, 0);
        bc_fs = BC_MAX_INST;
      );
      bc_fs += 1;
    );
  ) : (
    gfx_r = 0.3; gfx_g = 0.3; gfx_b = 0.4;
    gfx_drawstr("  Following: --");
  );

  exp_x = gfx_w - 200;
  exp_y = bc_panel_y + 4;
  exp_w = 65;
  exp_h = 20;
  gfx_r = 0.12; gfx_g = 0.12; gfx_b = 0.16;
  gfx_rect(exp_x, exp_y, exp_w, exp_h);
  gfx_r = 0.5; gfx_g = 0.5; gfx_b = 0.6;
  gfx_x = exp_x + 5; gfx_y = exp_y + 4;
  bc_panel_expanded ? gfx_drawstr("COLLAPSE") : gfx_drawstr("EXPAND");
  (mouse_cap & 1) && !(last_cap & 1) &&
    mouse_x >= exp_x && mouse_x < exp_x + exp_w &&
    mouse_y >= exp_y && mouse_y < exp_y + exp_h ? (
    bc_panel_expanded = !bc_panel_expanded;
    bc_steal_mode = 0;
  );

  stl_x = gfx_w - 125;
  stl_y = bc_panel_y + 4;
  stl_w = 50;
  stl_h = 20;
  bc_steal_mode ? (
    gfx_r = 0.6; gfx_g = 0.2; gfx_b = 0.1;
  ) : (
    gfx_r = 0.2; gfx_g = 0.1; gfx_b = 0.1;
  );
  gfx_rect(stl_x, stl_y, stl_w, stl_h);
  gfx_r = 0.9; gfx_g = 0.5; gfx_b = 0.2;
  gfx_x = stl_x + 6; gfx_y = stl_y + 4;
  gfx_drawstr("STEAL");
  (mouse_cap & 1) && !(last_cap & 1) &&
    mouse_x >= stl_x && mouse_x < stl_x + stl_w &&
    mouse_y >= stl_y && mouse_y < stl_y + stl_h ? (
    bc_steal_mode = !bc_steal_mode;
    !bc_panel_expanded ? bc_panel_expanded = 1;
  );

  bc_following > 0 ? (
    unf_x = gfx_w - 65;
    unf_y = bc_panel_y + 4;
    unf_w = 55;
    unf_h = 20;
    gfx_r = 0.1; gfx_g = 0.2; gfx_b = 0.1;
    gfx_rect(unf_x, unf_y, unf_w, unf_h);
    gfx_r = 0.5; gfx_g = 0.9; gfx_b = 0.5;
    gfx_x = unf_x + 4; gfx_y = unf_y + 4;
    gfx_drawstr("UNFLW");
    (mouse_cap & 1) && !(last_cap & 1) &&
      mouse_x >= unf_x && mouse_x < unf_x + unf_w &&
      mouse_y >= unf_y && mouse_y < unf_y + unf_h ? (
      bc_following = 0;
      bc_follow_slot = -1;
    );
  );

  bc_panel_expanded ? (
    row_y = bc_panel_y + 30;
    row_h = 14;

    // Page nav — auto-scroll to show YOU on expand
    bc_my_page = bc_my_slot >= 0 ? floor(bc_my_slot / bc_rows_per_page) : 0;
    bc_page < 0 ? bc_page = 0;

    // Count active slots for page count
    bc_active_slots = 0;
    bc_si = 0;
    loop(BC_MAX_INST,
      gmem[BC_MY_REGION + bc_si * BC_SLOT_SIZE + 1] > 0 ? bc_active_slots += 1;
      bc_si += 1;
    );
    bc_total_pages = max(1, ceil(bc_active_slots / bc_rows_per_page));
    bc_page >= bc_total_pages ? bc_page = bc_total_pages - 1;

    // Prev page button
    pg_btn_w = 18; pg_btn_h = 14;
    pg_prev_x = 8; pg_prev_y = bc_panel_y + 30 + bc_rows_per_page * row_h + 2;
    bc_total_pages > 1 ? (
      gfx_r = 0.25; gfx_g = 0.25; gfx_b = 0.32;
      gfx_rect(pg_prev_x, pg_prev_y, pg_btn_w, pg_btn_h);
      gfx_r = 0.7; gfx_g = 0.7; gfx_b = 0.8;
      gfx_x = pg_prev_x + 4; gfx_y = pg_prev_y + 2;
      gfx_drawstr("<");
      (mouse_cap & 1) && !(last_cap & 1) &&
        mouse_x >= pg_prev_x && mouse_x < pg_prev_x + pg_btn_w &&
        mouse_y >= pg_prev_y && mouse_y < pg_prev_y + pg_btn_h ? (
        bc_page > 0 ? bc_page -= 1;
      );

      gfx_r = 0.25; gfx_g = 0.25; gfx_b = 0.32;
      gfx_rect(pg_prev_x + pg_btn_w + 2, pg_prev_y, pg_btn_w, pg_btn_h);
      gfx_r = 0.7; gfx_g = 0.7; gfx_b = 0.8;
      gfx_x = pg_prev_x + pg_btn_w + 6; gfx_y = pg_prev_y + 2;
      gfx_drawstr(">");
      (mouse_cap & 1) && !(last_cap & 1) &&
        mouse_x >= pg_prev_x + pg_btn_w + 2 && mouse_x < pg_prev_x + pg_btn_w * 2 + 2 &&
        mouse_y >= pg_prev_y && mouse_y < pg_prev_y + pg_btn_h ? (
        bc_page < bc_total_pages - 1 ? bc_page += 1;
      );

      // Page indicator
      gfx_r = 0.4; gfx_g = 0.4; gfx_b = 0.5;
      gfx_x = pg_prev_x + pg_btn_w * 2 + 8; gfx_y = pg_prev_y + 2;
      gfx_drawnumber(bc_page + 1, 0);
      gfx_drawstr("/");
      gfx_drawnumber(bc_total_pages, 0);

      // YOU button — jump to your page
      bc_page != bc_my_page ? (
        you_x = pg_prev_x + pg_btn_w * 2 + 40;
        gfx_r = 0.15; gfx_g = 0.15; gfx_b = 0.20;
        gfx_rect(you_x, pg_prev_y, 30, pg_btn_h);
        gfx_r = 0.95; gfx_g = 0.45; gfx_b = 0.15;
        gfx_x = you_x + 3; gfx_y = pg_prev_y + 2;
        gfx_drawstr("YOU");
        (mouse_cap & 1) && !(last_cap & 1) &&
          mouse_x >= you_x && mouse_x < you_x + 30 &&
          mouse_y >= pg_prev_y && mouse_y < pg_prev_y + pg_btn_h ? (
          bc_page = bc_my_page;
        );
      );
    );

    // Draw rows for current page
    bc_page_start = bc_page * bc_rows_per_page;
    bc_page_end = bc_page_start + bc_rows_per_page - 1;
    bc_visible = 0;
    bc_s = 0;
    loop(BC_MAX_INST,
      isb = BC_MY_REGION + bc_s * BC_SLOT_SIZE;
      isid = gmem[isb + 1];

      isid > 0 ? (
        bc_visible >= bc_page_start && bc_visible <= bc_page_end ? (
          draw_row_y = row_y + (bc_visible - bc_page_start) * row_h;

          mouse_y >= draw_row_y && mouse_y < draw_row_y + row_h &&
            mouse_x >= 8 && mouse_x < gfx_w - 8 &&
            bc_s != bc_my_slot ? (
            gfx_r = 0.10; gfx_g = 0.10; gfx_b = 0.14;
            gfx_rect(4, draw_row_y, gfx_w - 8, row_h);
          );

          gfx_setfont(1, "Arial", 10);
          bc_s == bc_my_slot ? (
            gfx_r = 0.95; gfx_g = 0.45; gfx_b = 0.15;
          ) : (
            gfx_r = 0.7; gfx_g = 0.7; gfx_b = 0.8;
          );
          gfx_x = 12; gfx_y = draw_row_y + 1;
          gfx_drawstr("I");
          gfx_drawnumber(bc_s + 1, 0);
          gfx_drawstr("  ");

          bc_s == bc_my_slot ? (
            gfx_drawstr("[YOU]");
          ) : (
            iwho = gmem[isb + 3];
            // Check if anyone is following this instance
            bc_has_follower = 0;
            bc_fsc = 0;
            loop(BC_MAX_INST,
              fsb2 = BC_MY_REGION + bc_fsc * BC_SLOT_SIZE;
              gmem[fsb2 + 1] > 0 && gmem[fsb2 + 3] == isid ? bc_has_follower = 1;
              bc_fsc += 1;
            );
            iwho > 0 ? (
              // This instance is following someone — FOLLOWER
              gfx_r = 0.4; gfx_g = 0.6; gfx_b = 0.9;
              gfx_drawstr("[FOLLOWER]");
            ) : bc_has_follower ? (
              // Someone is following this instance — LEADER
              gfx_r = 0.95; gfx_g = 0.78; gfx_b = 0.35;
              gfx_drawstr("[LEADER]");
            ) : (
              // Nobody following, not following anyone — UNASSIGNED
              gfx_r = 0.38; gfx_g = 0.38; gfx_b = 0.45;
              gfx_drawstr("[UNASSIGNED]");
            );
            gfx_r = 0.35; gfx_g = 0.45; gfx_b = 0.35;
            bc_steal_mode ? (
              gfx_drawstr("  click: steal");
            ) : (
              gfx_drawstr("  click: follow");
            );
            (mouse_cap & 1) && !(last_cap & 1) &&
              mouse_y >= draw_row_y && mouse_y < draw_row_y + row_h &&
              mouse_x >= 8 && mouse_x < gfx_w - 8 ? (
              bc_steal_mode ? (
                bc_steal_target = isid;
                bc_steal_pending = 1;
                bc_steal_mode = 0;
              ) : (
                bc_can_follow = 1;
                bc_cursor = isid;
                bc_hops = 0;
                while(bc_cursor > 0 && bc_hops < BC_MAX_INST) (
                  bc_cursor == bc_my_id ? (
                    bc_can_follow = 0;
                    bc_cursor = 0;
                  ) : (
                    bc_next = 0;
                    bc_cs = 0;
                    loop(BC_MAX_INST,
                      csb = BC_MY_REGION + bc_cs * BC_SLOT_SIZE;
                      gmem[csb + 1] == bc_cursor ? (
                        bc_next = gmem[csb + 3];
                        bc_cs = BC_MAX_INST;
                      );
                      bc_cs += 1;
                    );
                    bc_cursor = bc_next;
                  );
                  bc_hops += 1;
                );
                bc_can_follow ? (
                  bc_following = isid;
                );
              );
            );
          );
        );
        bc_visible += 1;
      );
      bc_s += 1;
    );
  );

  last_cap = mouse_cap;

  // --- NOTICE BUTTON ---
  notice_btn_x = gfx_w - 60;
  notice_btn_y = bc_panel_y - 18;
  gfx_r = 0.6; gfx_g = 0.5; gfx_b = 0.3;
  gfx_rect(notice_btn_x, notice_btn_y, 55, 15);
  gfx_r = 0; gfx_g = 0; gfx_b = 0;
  gfx_x = notice_btn_x + 4; gfx_y = notice_btn_y + 2;
  gfx_drawstr("NOTICE");
  (mouse_cap & 1) && mouse_x >= notice_btn_x && mouse_x <= notice_btn_x + 55 && mouse_y >= notice_btn_y && mouse_y <= notice_btn_y + 15 && !notice_clicked ? (
    notice_show = !notice_show;
    notice_clicked = 1;
  );
  !(mouse_cap & 1) ? notice_clicked = 0;
  notice_show ? (
    gfx_r = 0.05; gfx_g = 0.05; gfx_b = 0.05; gfx_a = 0.95;
    gfx_rect(0, 0, gfx_w, gfx_h);
    gfx_a = 1;
    gfx_r = 0.9; gfx_g = 0.8; gfx_b = 0.5;
    gfx_x = 15; gfx_y = 10;
    gfx_drawstr("NOTICE: THEY ARE TRYING TO STEAL YOUR COMPUTER");
    gfx_r = 0.7; gfx_g = 0.7; gfx_b = 0.7;
    gfx_x = 15; gfx_y = 30;
    gfx_drawstr("The algorithms in our favorite software are decades old.");
    gfx_x = 15; gfx_y = 45;
    gfx_drawstr("A mathematical model is a truth about the world,");
    gfx_x = 15; gfx_y = 60;
    gfx_drawstr("not a copyrightable product. You do not have to stay");
    gfx_x = 15; gfx_y = 75;
    gfx_drawstr("a slave to subscription software. Install Linux.");
    gfx_x = 15; gfx_y = 90;
    gfx_drawstr("Build your own tools. Believe in yourself.");
    gfx_r = 0.5; gfx_g = 0.7; gfx_b = 1.0;
    gfx_x = 15; gfx_y = 115;
    gfx_drawstr("github.com/LMSBAND  |  instagram.com/LMSSKABAND");
    gfx_r = 0.4; gfx_g = 0.4; gfx_b = 0.4;
    gfx_x = 15; gfx_y = 140;
    gfx_r = 0.6; gfx_g = 0.5; gfx_b = 0.3;
    gfx_rect(notice_btn_x, notice_btn_y, 55, 15);
    gfx_r = 0; gfx_g = 0; gfx_b = 0;
    gfx_x = notice_btn_x + 4; gfx_y = notice_btn_y + 2;
    gfx_drawstr("NOTICE");
  );

// ============================================================
// @SERIALIZE — Persist follow state
// ============================================================
@serialize
file_var(0, bc_following);
file_var(0, bc_my_id);
