desc:LMS - Smart Gate (Density-Aware Noise Gate)
//tags: gate noise drum density-aware spatial
//author: LMS + Claude
//version: 1.0
//license: GPL-3.0
filename:0,shakebot_logo.png

import lms_core.jsfx-inc
options:gmem=DrumBanger

// Core
slider1:0<-12,12,0.1>-Input Gain (dB)
slider2:0<0,1,1{Single,Drum}>-Mode
slider3:50<0,100,1>-Gate Threshold (%)

// Gate envelope
slider4:1<0.1,20,0.1>-Attack (ms)
slider5:50<10,500,1>-Hold (ms)
slider6:200<20,2000,1>-Release (ms)
slider7:-80<-80,0,1>-Range (dB)

// Density tuning
slider8:30<0,100,1>-Density Sensitivity (%)
slider9:50<0,100,1>-Hysteresis (%)

// Sidechain
slider10:80<20,500,1>-Sidechain HPF (Hz)

// Drum mode
slider11:0<0,2,1{Kick,Snare,Tom}>-Drum Type
slider12:1<1,8,1>-Tom Distance (1=near snare)
slider13:60<0,100,1>-Bleed Reject (%)

// Output
slider14:0<-24,0,0.1>-Gate GR (dB)
slider15:100<0,100,1>-Mix (%)

@init

  // Density tracker (4-band spectral analysis from lms_core.jsfx-inc)
  hd.lms_opto_hd_init();

  // Sidechain HPF (removes rumble from gate sidechain)
  sc_hpf.lms_bq_init();
  sc_hpf.lms_bq_set_hp(80, 0.707);

  // Gate state
  gate_gain = 0.0;       // 0 = closed, 1 = open (smoothed)
  gate_state = 0;        // 0=CLOSED, 1=ATTACK, 2=OPEN, 3=HOLD, 4=RELEASE
  hold_counter = 0;
  gate_env = 0;          // sidechain envelope
  gate_should_open = 0;
  gate_should_close = 0;

  // Derived params
  in_gain = 1.0;
  mode = 0;
  gate_thresh = 0.25;
  att_coeff = 0;
  rel_coeff = 0;
  hold_samples = 0;
  range_lin = 0.0001;
  density_sens = 0.3;
  hysteresis_pct = 0.5;
  drum_type = 0;
  tom_distance = 1;
  bleed_reject = 0.6;
  mix = 1.0;

  // Drum mode peer state (populated in @block)
  peer_count = 0;
  peer_max_env = 0;
  peer_owner_type = -1;
  peer_owner_dist = 0;

  // GFX display state
  gfx_gate_gain = 0;
  gfx_density = 1.0;
  gfx_env = 0;
  gfx_eff_thresh = 0;
  gfx_smooth = 0.85;

  // Peer display (up to 8 peers for GFX)
  gfx_peer_type_0 = -1; gfx_peer_type_1 = -1; gfx_peer_type_2 = -1; gfx_peer_type_3 = -1;
  gfx_peer_type_4 = -1; gfx_peer_type_5 = -1; gfx_peer_type_6 = -1; gfx_peer_type_7 = -1;
  gfx_peer_open_0 = 0; gfx_peer_open_1 = 0; gfx_peer_open_2 = 0; gfx_peer_open_3 = 0;
  gfx_peer_open_4 = 0; gfx_peer_open_5 = 0; gfx_peer_open_6 = 0; gfx_peer_open_7 = 0;
  gfx_peer_dist_0 = 0; gfx_peer_dist_1 = 0; gfx_peer_dist_2 = 0; gfx_peer_dist_3 = 0;
  gfx_peer_dist_4 = 0; gfx_peer_dist_5 = 0; gfx_peer_dist_6 = 0; gfx_peer_dist_7 = 0;
  gfx_peer_count = 0;

  notice_show = 0;
  buy_show = 0;

  // ============================================================
  // BROADCAST SYSTEM — Instance Registry
  // ============================================================
  BC_BASE = 100000;
  BC_MY_TYPE = 21;            // Smart Gate
  BC_SLOT_SIZE = 512;
  BC_MAX_INST = 32;
  BC_PARAM_COUNT = 13;        // sliders 1-13 (14 = read-only GR, 15 = mix applied locally)
  BC_MY_REGION = BC_BASE + BC_MY_TYPE * 16384;
  BC_STALE_TIMEOUT = 2;

  bc_my_id == 0 ? bc_my_id = floor(rand() * 1073741824) + 1;
  bc_my_slot = -1;
  bc_follow_slot = -1;
  bc_steal_pending = 0;
  bc_steal_target = 0;
  bc_panel_expanded = 0;
  bc_page = 0;
  bc_steal_mode = 0;
  bc_instance_count = 0;

  BC_STALE_HB = 840000;
  BC_STALE_CT = 840032;
  i = 0;
  loop(BC_MAX_INST,
    BC_STALE_HB[i] = -1;
    BC_STALE_CT[i] = 0;
    i += 1;
  );

  bc_i = 0;
  loop(BC_MAX_INST,
    bc_my_slot < 0 ? (
      sb = BC_MY_REGION + bc_i * BC_SLOT_SIZE;
      sid = gmem[sb + 1];
      (sid == 0 || sid == bc_my_id) ? (
        bc_my_slot = bc_i;
      );
    );
    bc_i += 1;
  );

  bc_my_slot >= 0 ? (
    sb = BC_MY_REGION + bc_my_slot * BC_SLOT_SIZE;
    gmem[sb + 0] = 0;
    gmem[sb + 1] = bc_my_id;
    gmem[sb + 2] = BC_MY_TYPE;
    gmem[sb + 3] = 0;
    gmem[sb + 4] = BC_PARAM_COUNT;
  );

@slider
  in_gain = lms_db2lin(slider1);
  mode = slider2;
  gate_thresh = (slider3 / 100) * (slider3 / 100);
  att_coeff = exp(-1 / (srate * slider4 / 1000));
  hold_samples = floor(srate * slider5 / 1000);
  rel_coeff = exp(-1 / (srate * slider6 / 1000));
  range_lin = lms_db2lin(slider7);
  density_sens = slider8 / 100;
  hysteresis_pct = slider9 / 100;
  sc_hpf.lms_bq_set_hp(slider10, 0.707);
  drum_type = slider11;
  tom_distance = slider12;
  bleed_reject = slider13 / 100;
  mix = slider15 / 100;

// ============================================================
// @BLOCK — Recalc, drum peer scan, broadcast
// ============================================================
@block
// ---- Recalculate from sliders ----
in_gain = lms_db2lin(slider1);
mode = slider2;
gate_thresh = (slider3 / 100) * (slider3 / 100);
att_coeff = exp(-1 / (srate * slider4 / 1000));
hold_samples = floor(srate * slider5 / 1000);
rel_coeff = exp(-1 / (srate * slider6 / 1000));
range_lin = lms_db2lin(slider7);
density_sens = slider8 / 100;
hysteresis_pct = slider9 / 100;
sc_hpf.lms_bq_set_hp(slider10, 0.707);
drum_type = slider11;
tom_distance = slider12;
bleed_reject = slider13 / 100;
mix = slider15 / 100;

// ---- Broadcast: slot ownership ----
bc_my_slot >= 0 ? (
  sb = BC_MY_REGION + bc_my_slot * BC_SLOT_SIZE;
  gmem[sb + 1] != bc_my_id ? (
    bc_my_id = floor(rand() * 1073741824) + 1;
    bc_my_slot = -1;
    bc_i = 0;
    loop(BC_MAX_INST,
      bc_my_slot < 0 ? (
        tsb = BC_MY_REGION + bc_i * BC_SLOT_SIZE;
        (gmem[tsb + 1] == 0) ? bc_my_slot = bc_i;
      );
      bc_i += 1;
    );
    bc_my_slot >= 0 ? (
      sb = BC_MY_REGION + bc_my_slot * BC_SLOT_SIZE;
      gmem[sb + 0] = 0;
      gmem[sb + 1] = bc_my_id;
      gmem[sb + 2] = BC_MY_TYPE;
      gmem[sb + 3] = bc_following;
      gmem[sb + 4] = BC_PARAM_COUNT;
    );
  );
);

// ---- Broadcast: follow ----
bc_my_slot >= 0 && bc_following > 0 ? (
  bc_found_leader = 0;
  bc_scan = 0;
  loop(BC_MAX_INST,
    bc_scan != bc_my_slot ? (
      lsb = BC_MY_REGION + bc_scan * BC_SLOT_SIZE;
      gmem[lsb + 1] == bc_following ? (
        bc_found_leader = 1;
        bc_follow_slot = bc_scan;
        lbase = lsb + 8;
        slider1  = gmem[lbase + 0];
        slider2  = gmem[lbase + 1];
        slider3  = gmem[lbase + 2];
        slider4  = gmem[lbase + 3];
        slider5  = gmem[lbase + 4];
        slider6  = gmem[lbase + 5];
        slider7  = gmem[lbase + 6];
        slider8  = gmem[lbase + 7];
        slider9  = gmem[lbase + 8];
        slider10 = gmem[lbase + 9];
        slider11 = gmem[lbase + 10];
        slider12 = gmem[lbase + 11];
        slider13 = gmem[lbase + 12];
        bc_scan = BC_MAX_INST;
      );
    );
    bc_scan += 1;
  );
  !bc_found_leader ? (
    bc_following = 0;
    bc_follow_slot = -1;
  );
);

// ---- Broadcast: steal ----
bc_my_slot >= 0 && bc_steal_pending ? (
  bc_scan = 0;
  loop(BC_MAX_INST,
    lsb = BC_MY_REGION + bc_scan * BC_SLOT_SIZE;
    gmem[lsb + 1] == bc_steal_target ? (
      lbase = lsb + 8;
      slider1  = gmem[lbase + 0];
      slider2  = gmem[lbase + 1];
      slider3  = gmem[lbase + 2];
      slider4  = gmem[lbase + 3];
      slider5  = gmem[lbase + 4];
      slider6  = gmem[lbase + 5];
      slider7  = gmem[lbase + 6];
      slider8  = gmem[lbase + 7];
      slider9  = gmem[lbase + 8];
      slider10 = gmem[lbase + 9];
      slider11 = gmem[lbase + 10];
      slider12 = gmem[lbase + 11];
      slider13 = gmem[lbase + 12];
      bc_scan = BC_MAX_INST;
    );
    bc_scan += 1;
  );
  bc_steal_pending = 0;
  bc_steal_target = 0;
  bc_steal_mode = 0;
);

// ---- Broadcast: heartbeat + param write ----
bc_my_slot >= 0 ? (
  sb = BC_MY_REGION + bc_my_slot * BC_SLOT_SIZE;
  gmem[sb + 0] += 1;
  gmem[sb + 3] = bc_following;
  pbase = sb + 8;
  gmem[pbase + 0]  = slider1;
  gmem[pbase + 1]  = slider2;
  gmem[pbase + 2]  = slider3;
  gmem[pbase + 3]  = slider4;
  gmem[pbase + 4]  = slider5;
  gmem[pbase + 5]  = slider6;
  gmem[pbase + 6]  = slider7;
  gmem[pbase + 7]  = slider8;
  gmem[pbase + 8]  = slider9;
  gmem[pbase + 9]  = slider10;
  gmem[pbase + 10] = slider11;
  gmem[pbase + 11] = slider12;
  gmem[pbase + 12] = slider13;
);

// ---- Broadcast: drum mode state (always write so peers can see us) ----
bc_my_slot >= 0 ? (
  sb = BC_MY_REGION + bc_my_slot * BC_SLOT_SIZE;
  ebase = sb + 200;
  gmem[ebase + 0] = drum_type;
  gmem[ebase + 1] = tom_distance;
  gmem[ebase + 2] = hd.env_total;
  gmem[ebase + 3] = hd.density;
  gmem[ebase + 4] = gate_gain > 0.5 ? 1 : 0;
);

// ---- Drum mode: scan peers ----
mode == 1 ? (
  peer_count = 0;
  peer_max_env = 0;
  peer_owner_type = -1;
  peer_owner_dist = 0;

  bc_scan = 0;
  loop(BC_MAX_INST,
    bc_scan != bc_my_slot ? (
      psb = BC_MY_REGION + bc_scan * BC_SLOT_SIZE;
      pid = gmem[psb + 1];
      pid > 0 ? (
        pbase = psb + 200;
        p_type = gmem[pbase + 0];
        p_dist = gmem[pbase + 1];
        p_env  = gmem[pbase + 2];
        p_dens = gmem[pbase + 3];
        p_open = gmem[pbase + 4];

        // Track strongest peer
        p_env > peer_max_env ? (
          peer_max_env = p_env;
          peer_owner_type = p_type;
          peer_owner_dist = p_dist;
        );

        // Store for GFX (up to 8 peers)
        peer_count == 0 ? (gfx_peer_type_0 = p_type; gfx_peer_open_0 = p_open; gfx_peer_dist_0 = p_dist);
        peer_count == 1 ? (gfx_peer_type_1 = p_type; gfx_peer_open_1 = p_open; gfx_peer_dist_1 = p_dist);
        peer_count == 2 ? (gfx_peer_type_2 = p_type; gfx_peer_open_2 = p_open; gfx_peer_dist_2 = p_dist);
        peer_count == 3 ? (gfx_peer_type_3 = p_type; gfx_peer_open_3 = p_open; gfx_peer_dist_3 = p_dist);
        peer_count == 4 ? (gfx_peer_type_4 = p_type; gfx_peer_open_4 = p_open; gfx_peer_dist_4 = p_dist);
        peer_count == 5 ? (gfx_peer_type_5 = p_type; gfx_peer_open_5 = p_open; gfx_peer_dist_5 = p_dist);
        peer_count == 6 ? (gfx_peer_type_6 = p_type; gfx_peer_open_6 = p_open; gfx_peer_dist_6 = p_dist);
        peer_count == 7 ? (gfx_peer_type_7 = p_type; gfx_peer_open_7 = p_open; gfx_peer_dist_7 = p_dist);

        peer_count += 1;
      );
    );
    bc_scan += 1;
  );
  gfx_peer_count = min(8, peer_count);
);

// ---- Broadcast: stale detection ----
bc_instance_count = 0;
bc_scan = 0;
loop(BC_MAX_INST,
  tsb = BC_MY_REGION + bc_scan * BC_SLOT_SIZE;
  tsid = gmem[tsb + 1];
  tsid > 0 ? (
    bc_scan == bc_my_slot ? (
      bc_instance_count += 1;
    ) : (
      tshb = gmem[tsb + 0];
      tshb == BC_STALE_HB[bc_scan] ? (
        BC_STALE_CT[bc_scan] += samplesblock / srate;
        BC_STALE_CT[bc_scan] > BC_STALE_TIMEOUT ? (
          gmem[tsb + 1] = 0;
          BC_STALE_CT[bc_scan] = 0;
        );
      ) : (
        BC_STALE_HB[bc_scan] = tshb;
        BC_STALE_CT[bc_scan] = 0;
        bc_instance_count += 1;
      );
    );
  );
  bc_scan += 1;
);

// ============================================================
// @SAMPLE — Density gate + drum inference + state machine
// ============================================================
@sample

  dry_l = spl0; dry_r = spl1;
  l = spl0 * in_gain;
  r = spl1 * in_gain;

  // Sidechain: mono sum → HPF → density tracker
  sc_mono = (l + r) * 0.5;
  sc_mono = sc_hpf.lms_bq_proc(sc_mono);
  hd.lms_opto_hd_proc(sc_mono);

  // Sidechain envelope (instant attack, smooth release)
  sc_abs = abs(sc_mono);
  sc_abs > gate_env ? (
    gate_env = sc_abs;
  ) : (
    gate_env = rel_coeff * gate_env;
  );

  // ---- GATE DECISION ----
  mode == 0 ? (
    // SINGLE MODE: density-weighted threshold
    density_factor = (hd.density - 1.0) / 1.5;
    density_factor = max(0, min(1, density_factor));
    effective_thresh = gate_thresh * (1.0 - density_sens * density_factor);

    gate_should_open = gate_env > effective_thresh;
    gate_should_close = gate_env < effective_thresh * (1 - hysteresis_pct);
  ) : (
    // DRUM MODE: spatial inference
    density_factor = (hd.density - 1.0) / 1.5;
    density_factor = max(0, min(1, density_factor));
    effective_thresh = gate_thresh * (1.0 - density_sens * density_factor);

    has_transient = gate_env > effective_thresh;

    // Cross-mic comparison
    peer_count > 0 && has_transient ? (
      my_env = max(0.0001, hd.env_total);
      ratio = my_env / max(0.0001, peer_max_env);

      // Distance weighting for toms
      drum_type == 2 ? (
        dist_factor = 1.0 / tom_distance;
        rej = bleed_reject * (1.0 - dist_factor * 0.3);
      ) : (
        rej = bleed_reject;
      );

      // Decision thresholds
      ratio > (1.0 - rej) ? (
        // I'm at least as loud as peers → my hit → open
        gate_should_open = 1;
      ) : ratio > 0.5 * (1.0 - rej) ? (
        // Ambiguous — roughly equal → probably intentional → open both
        gate_should_open = 1;
      ) : (
        // Peer much louder → bleed → stay closed
        gate_should_open = 0;
      );
    ) : (
      gate_should_open = has_transient;
    );
    gate_should_close = !gate_should_open && gate_env < effective_thresh * (1 - hysteresis_pct);
  );

  // Store effective threshold for GFX
  gfx_eff_thresh = effective_thresh;

  // ---- GATE STATE MACHINE ----
  // 0=CLOSED, 1=ATTACK, 2=OPEN, 3=HOLD, 4=RELEASE
  gate_state == 0 ? (
    gate_should_open ? gate_state = 1;
  ) : gate_state == 1 ? (
    gate_gain += (1.0 - gate_gain) * (1.0 - att_coeff);
    gate_gain >= 0.999 ? (gate_gain = 1.0; gate_state = 2);
  ) : gate_state == 2 ? (
    gate_gain = 1.0;
    gate_should_close ? (hold_counter = hold_samples; gate_state = 3);
  ) : gate_state == 3 ? (
    gate_gain = 1.0;
    hold_counter -= 1;
    gate_should_open ? gate_state = 2;
    hold_counter <= 0 ? gate_state = 4;
  ) : gate_state == 4 ? (
    gate_gain = gate_gain * rel_coeff + range_lin * (1 - rel_coeff);
    gate_should_open ? gate_state = 1;
    gate_gain <= range_lin + 0.0001 ? (gate_gain = range_lin; gate_state = 0);
  );

  // Apply gate
  gated_l = l * gate_gain;
  gated_r = r * gate_gain;

  // Mix
  spl0 = dry_l * (1 - mix) + gated_l * mix;
  spl1 = dry_r * (1 - mix) + gated_r * mix;

  // Metering
  slider14 = gate_gain > 0.001 ? 20 * log10(gate_gain) : -80;

  // Smooth GFX display
  gfx_gate_gain = gfx_gate_gain * gfx_smooth + gate_gain * (1 - gfx_smooth);
  gfx_density = gfx_density * gfx_smooth + hd.density * (1 - gfx_smooth);
  gfx_env = gfx_env * gfx_smooth + gate_env * (1 - gfx_smooth);

// ============================================================
// @GFX
// ============================================================
@gfx 560 430

// ============================================================================
//  SCALING
// ============================================================================
gfx_ext_retina > 0 ? gfx_ext_retina = 1;
S = gfx_w / 560;
S < 0.5 ? S = 0.5;

F_TITLE = max(10, floor(22 * S));
F_LABEL = max(8, floor(12 * S));
F_SMALL = max(7, floor(11 * S));
F_TINY  = max(7, floor(10 * S));

// ============================================================================
//  COLOR CONSTANTS
// ============================================================================
COL_BG_R = 0.04; COL_BG_G = 0.04; COL_BG_B = 0.06;
COL_PANEL_R = 0.08; COL_PANEL_G = 0.08; COL_PANEL_B = 0.11;
COL_PANEL_HI_R = 0.12; COL_PANEL_HI_G = 0.12; COL_PANEL_HI_B = 0.16;
COL_BORDER_R = 0.20; COL_BORDER_G = 0.20; COL_BORDER_B = 0.25;
COL_TITLE_R = 0.95; COL_TITLE_G = 0.78; COL_TITLE_B = 0.35;
COL_SEC_R = 0.55; COL_SEC_G = 0.50; COL_SEC_B = 0.40;
COL_TEXT_R = 0.78; COL_TEXT_G = 0.78; COL_TEXT_B = 0.82;
COL_DIM_R = 0.38; COL_DIM_G = 0.38; COL_DIM_B = 0.42;
COL_ACCENT_R = 0.95; COL_ACCENT_G = 0.45; COL_ACCENT_B = 0.15;
COL_GREEN_R = 0.25; COL_GREEN_G = 0.80; COL_GREEN_B = 0.50;
COL_CYAN_R = 0.20; COL_CYAN_G = 0.60; COL_CYAN_B = 0.85;
COL_BAR_BG_R = 0.12; COL_BAR_BG_G = 0.12; COL_BAR_BG_B = 0.16;

// ============================================================================
//  BACKGROUND
// ============================================================================
hdr_h = floor(44 * S);
gfx_r = COL_BG_R; gfx_g = COL_BG_G; gfx_b = COL_BG_B;
gfx_rect(0, 0, gfx_w, gfx_h);
gfx_r = 0.03; gfx_g = 0.03; gfx_b = 0.05;
gfx_rect(0, 0, gfx_w, hdr_h);
gfx_r = COL_TITLE_R * 0.6; gfx_g = COL_TITLE_G * 0.6; gfx_b = COL_TITLE_B * 0.6;
gfx_rect(0, hdr_h, gfx_w, max(1, floor(2 * S)));

// ============================================================================
//  HELPERS
// ============================================================================
function draw_bar(bx, by, bw, bh, val, vmin, vmax, label, show_val) (
  gfx_r = COL_BAR_BG_R; gfx_g = COL_BAR_BG_G; gfx_b = COL_BAR_BG_B;
  gfx_rect(bx, by, bw, bh);
  norm = (val - vmin) / (vmax - vmin);
  norm = max(0, min(1, norm));
  fill_w = norm * bw;
  fill_w > 0 ? (
    gfx_r = COL_CYAN_R * 0.6; gfx_g = COL_CYAN_G * 0.6; gfx_b = COL_CYAN_B * 0.6;
    gfx_rect(bx, by, fill_w, bh);
    gfx_r = COL_CYAN_R * 0.8; gfx_g = COL_CYAN_G * 0.8; gfx_b = COL_CYAN_B * 0.8;
    gfx_rect(bx, by, fill_w, floor(bh / 2));
    gfx_r = COL_CYAN_R; gfx_g = COL_CYAN_G; gfx_b = COL_CYAN_B;
    gfx_rect(bx, by, fill_w, 1);
  );
  gfx_r = COL_BORDER_R; gfx_g = COL_BORDER_G; gfx_b = COL_BORDER_B;
  gfx_rect(bx, by, bw, 1); gfx_rect(bx, by + bh - 1, bw, 1);
  gfx_rect(bx, by, 1, bh); gfx_rect(bx + bw - 1, by, 1, bh);
  gfx_r = COL_TEXT_R; gfx_g = COL_TEXT_G; gfx_b = COL_TEXT_B;
  gfx_setfont(1, "Arial", F_LABEL);
  gfx_x = bx + floor(5 * S); gfx_y = by + floor((bh - F_LABEL) / 2);
  gfx_drawstr(label);
  show_val ? (
    gfx_setfont(1, "Arial", F_SMALL);
    gfx_x = bx + bw - floor(40 * S); gfx_y = by + floor((bh - F_SMALL) / 2);
    gfx_drawnumber(val, val == floor(val) ? 0 : 1);
  );
  mouse_cap & 1 ? (
    mouse_x >= bx && mouse_x <= bx + bw &&
    mouse_y >= by && mouse_y <= by + bh ? (
      new_norm = (mouse_x - bx) / bw;
      new_norm = max(0, min(1, new_norm));
      val = vmin + new_norm * (vmax - vmin);
    );
  );
  val;
);

function draw_panel(px, py, pw, ph, title) (
  gfx_r = COL_PANEL_R; gfx_g = COL_PANEL_G; gfx_b = COL_PANEL_B;
  gfx_rect(px, py, pw, ph);
  gfx_r = COL_PANEL_HI_R; gfx_g = COL_PANEL_HI_G; gfx_b = COL_PANEL_HI_B;
  gfx_rect(px, py, pw, floor(22 * S));
  gfx_r = COL_BORDER_R; gfx_g = COL_BORDER_G; gfx_b = COL_BORDER_B;
  gfx_rect(px, py + floor(22 * S), pw, 1);
  gfx_r = COL_BORDER_R * 0.7; gfx_g = COL_BORDER_G * 0.7; gfx_b = COL_BORDER_B * 0.7;
  gfx_rect(px, py, pw, 1); gfx_rect(px, py, 1, ph);
  gfx_rect(px + pw - 1, py, 1, ph); gfx_rect(px, py + ph - 1, pw, 1);
  gfx_r = COL_SEC_R; gfx_g = COL_SEC_G; gfx_b = COL_SEC_B;
  gfx_setfont(1, "Arial", F_LABEL);
  gfx_x = px + floor(8 * S); gfx_y = py + floor(4 * S);
  gfx_drawstr(title);
);

function draw_toggle(tx, ty, is_on, label) (
  gfx_r = COL_BORDER_R; gfx_g = COL_BORDER_G; gfx_b = COL_BORDER_B;
  gfx_circle(tx + floor(8 * S), ty + floor(8 * S), floor(7 * S), 0);
  is_on ? (
    gfx_r = COL_GREEN_R; gfx_g = COL_GREEN_G; gfx_b = COL_GREEN_B;
    gfx_circle(tx + floor(8 * S), ty + floor(8 * S), floor(5 * S), 1);
  ) : (
    gfx_r = 0.15; gfx_g = 0.15; gfx_b = 0.18;
    gfx_circle(tx + floor(8 * S), ty + floor(8 * S), floor(5 * S), 1);
  );
  gfx_r = is_on ? COL_TEXT_R : COL_DIM_R;
  gfx_g = is_on ? COL_TEXT_G : COL_DIM_G;
  gfx_b = is_on ? COL_TEXT_B : COL_DIM_B;
  gfx_setfont(1, "Arial", F_SMALL);
  gfx_x = tx + floor(20 * S); gfx_y = ty + floor(1 * S);
  gfx_drawstr(label);
  (mouse_cap & 1) && !(last_cap & 1) &&
    mouse_x >= tx && mouse_x <= tx + floor(80 * S) &&
    mouse_y >= ty && mouse_y <= ty + floor(16 * S) ? (
      is_on = 1 - is_on;
  );
  is_on;
);

// ============================================================================
//  LAYOUT
// ============================================================================
margin = floor(8 * S);
gap = floor(6 * S);
bar_h = floor(18 * S);
bar_sp = floor(21 * S);
pad = floor(4 * S);
pad2 = pad * 2;
body_y = floor(50 * S);

col_w = floor((gfx_w - margin * 2 - gap) / 2);
c1x = margin;
c2x = margin + col_w + gap;

// ============================================================================
//  LOGO + TITLE
// ============================================================================
gfx_getimgdim(0, logo_img_w, logo_img_h);
logo_img_w > 0 ? (
  logo_h = floor(32 * S);
  logo_w = floor(logo_h * (logo_img_w / logo_img_h));
  logo_x = floor(6 * S);
  logo_y = floor(((hdr_h - logo_h)) / 2);
  gfx_blit(0, 1, 0, 0, 0, logo_img_w, logo_img_h, logo_x, logo_y, logo_w, logo_h);
) : (
  logo_w = 0;
  logo_x = 0;
);
gfx_r = COL_TITLE_R; gfx_g = COL_TITLE_G; gfx_b = COL_TITLE_B;
gfx_setfont(1, "Arial", F_TITLE);
gfx_x = logo_x + logo_w + floor(8 * S); gfx_y = floor(6 * S);
gfx_drawstr("SMART GATE");
gfx_r = COL_DIM_R; gfx_g = COL_DIM_G; gfx_b = COL_DIM_B;
gfx_setfont(1, "Arial", F_SMALL);
gfx_x = logo_x + logo_w + floor(8 * S); gfx_y = floor(26 * S);
gfx_drawstr("Density-Aware Noise Gate");

// ============================================================================
//  LEFT COLUMN: CONTROLS
// ============================================================================
ctrl_h = mode == 1 ? floor(310 * S) : floor(265 * S);
draw_panel(c1x, body_y, col_w, ctrl_h, "CONTROLS");
cy = body_y + floor(26 * S);

// Input Gain
_old = slider1; slider1 = draw_bar(c1x + pad, cy, col_w - pad2, bar_h, slider1, -12, 12, "Input dB", 1);
slider1 != _old ? slider_automate(2^0);
cy += bar_sp;

// Mode selector (Single/Drum, click to cycle)
mode_sel_w = col_w - pad2;
mode_sel_h = bar_h;
gfx_r = COL_BAR_BG_R; gfx_g = COL_BAR_BG_G; gfx_b = COL_BAR_BG_B;
gfx_rect(c1x + pad, cy, mode_sel_w, mode_sel_h);
gfx_r = COL_BORDER_R; gfx_g = COL_BORDER_G; gfx_b = COL_BORDER_B;
gfx_rect(c1x + pad, cy, mode_sel_w, 1); gfx_rect(c1x + pad, cy + mode_sel_h - 1, mode_sel_w, 1);
gfx_rect(c1x + pad, cy, 1, mode_sel_h); gfx_rect(c1x + pad + mode_sel_w - 1, cy, 1, mode_sel_h);
mode == 1 ? (
  gfx_r = COL_ACCENT_R * 0.25; gfx_g = COL_ACCENT_G * 0.25; gfx_b = COL_ACCENT_B * 0.15;
  gfx_rect(c1x + pad + 1, cy + 1, mode_sel_w - 2, mode_sel_h - 2);
);
gfx_r = COL_TEXT_R; gfx_g = COL_TEXT_G; gfx_b = COL_TEXT_B;
gfx_setfont(1, "Arial", F_LABEL);
gfx_x = c1x + pad + floor(5 * S); gfx_y = cy + floor((mode_sel_h - F_LABEL) / 2);
gfx_drawstr("Mode");
gfx_r = COL_ACCENT_R; gfx_g = COL_ACCENT_G; gfx_b = COL_ACCENT_B;
gfx_setfont(1, "Arial", F_SMALL);
gfx_x = c1x + pad + mode_sel_w - floor(55 * S); gfx_y = cy + floor((mode_sel_h - F_SMALL) / 2);
slider2 == 0 ? gfx_drawstr("SINGLE") : gfx_drawstr("DRUM");
(mouse_cap & 1) && !(last_cap & 1) &&
  mouse_x >= c1x + pad && mouse_x <= c1x + pad + mode_sel_w &&
  mouse_y >= cy && mouse_y <= cy + mode_sel_h ? (
  _old = slider2;
  slider2 = 1 - slider2;
  slider2 != _old ? slider_automate(2^1);
);
cy += bar_sp;

// Gate Threshold
_old = slider3; slider3 = draw_bar(c1x + pad, cy, col_w - pad2, bar_h, slider3, 0, 100, "Threshold %", 1);
slider3 != _old ? slider_automate(2^2);
cy += bar_sp;

// Attack
_old = slider4; slider4 = draw_bar(c1x + pad, cy, col_w - pad2, bar_h, slider4, 0.1, 20, "Attack ms", 1);
slider4 != _old ? slider_automate(2^3);
cy += bar_sp;

// Hold
_old = slider5; slider5 = draw_bar(c1x + pad, cy, col_w - pad2, bar_h, slider5, 10, 500, "Hold ms", 1);
slider5 != _old ? slider_automate(2^4);
cy += bar_sp;

// Release
_old = slider6; slider6 = draw_bar(c1x + pad, cy, col_w - pad2, bar_h, slider6, 20, 2000, "Release ms", 1);
slider6 != _old ? slider_automate(2^5);
cy += bar_sp;

// Range
_old = slider7; slider7 = draw_bar(c1x + pad, cy, col_w - pad2, bar_h, slider7, -80, 0, "Range dB", 1);
slider7 != _old ? slider_automate(2^6);
cy += bar_sp;

// Density Sensitivity
_old = slider8; slider8 = draw_bar(c1x + pad, cy, col_w - pad2, bar_h, slider8, 0, 100, "Density Sens %", 1);
slider8 != _old ? slider_automate(2^7);
cy += bar_sp;

// Hysteresis
_old = slider9; slider9 = draw_bar(c1x + pad, cy, col_w - pad2, bar_h, slider9, 0, 100, "Hysteresis %", 1);
slider9 != _old ? slider_automate(2^8);
cy += bar_sp;

// Sidechain HPF
_old = slider10; slider10 = draw_bar(c1x + pad, cy, col_w - pad2, bar_h, slider10, 20, 500, "SC HPF Hz", 1);
slider10 != _old ? slider_automate(2^9);
cy += bar_sp;

// Mix
_old = slider15; slider15 = draw_bar(c1x + pad, cy, col_w - pad2, bar_h, slider15, 0, 100, "Mix %", 1);
slider15 != _old ? slider_automate(2^14);
cy += bar_sp;

// Drum mode controls (only when mode=Drum)
mode == 1 ? (
  // Drum Type selector (Kick/Snare/Tom)
  dt_sel_w = col_w - pad2;
  dt_sel_h = bar_h;
  gfx_r = COL_BAR_BG_R; gfx_g = COL_BAR_BG_G; gfx_b = COL_BAR_BG_B;
  gfx_rect(c1x + pad, cy, dt_sel_w, dt_sel_h);
  gfx_r = COL_BORDER_R; gfx_g = COL_BORDER_G; gfx_b = COL_BORDER_B;
  gfx_rect(c1x + pad, cy, dt_sel_w, 1); gfx_rect(c1x + pad, cy + dt_sel_h - 1, dt_sel_w, 1);
  gfx_rect(c1x + pad, cy, 1, dt_sel_h); gfx_rect(c1x + pad + dt_sel_w - 1, cy, 1, dt_sel_h);
  gfx_r = COL_TEXT_R; gfx_g = COL_TEXT_G; gfx_b = COL_TEXT_B;
  gfx_setfont(1, "Arial", F_LABEL);
  gfx_x = c1x + pad + floor(5 * S); gfx_y = cy + floor((dt_sel_h - F_LABEL) / 2);
  gfx_drawstr("Drum Type");
  gfx_r = COL_ACCENT_R; gfx_g = COL_ACCENT_G; gfx_b = COL_ACCENT_B;
  gfx_setfont(1, "Arial", F_SMALL);
  gfx_x = c1x + pad + dt_sel_w - floor(50 * S); gfx_y = cy + floor((dt_sel_h - F_SMALL) / 2);
  slider11 == 0 ? gfx_drawstr("KICK");
  slider11 == 1 ? gfx_drawstr("SNARE");
  slider11 == 2 ? gfx_drawstr("TOM");
  (mouse_cap & 1) && !(last_cap & 1) &&
    mouse_x >= c1x + pad && mouse_x <= c1x + pad + dt_sel_w &&
    mouse_y >= cy && mouse_y <= cy + dt_sel_h ? (
    _old = slider11;
    slider11 = (slider11 + 1) % 3;
    slider11 != _old ? slider_automate(2^10);
  );
  (mouse_cap & 2) && !(last_cap & 2) &&
    mouse_x >= c1x + pad && mouse_x <= c1x + pad + dt_sel_w &&
    mouse_y >= cy && mouse_y <= cy + dt_sel_h ? (
    _old = slider11;
    slider11 = slider11 - 1; slider11 < 0 ? slider11 = 2;
    slider11 != _old ? slider_automate(2^10);
  );
  cy += bar_sp;

  // Tom Distance (only when drum_type == Tom)
  slider11 == 2 ? (
    _old = slider12; slider12 = draw_bar(c1x + pad, cy, col_w - pad2, bar_h, slider12, 1, 8, "Tom Distance", 1);
    slider12 != _old ? (slider12 = floor(slider12 + 0.5); slider_automate(2^11));
    cy += bar_sp;
  );

  // Bleed Reject
  _old = slider13; slider13 = draw_bar(c1x + pad, cy, col_w - pad2, bar_h, slider13, 0, 100, "Bleed Rej %", 1);
  slider13 != _old ? slider_automate(2^12);
);

// ============================================================================
//  RIGHT COLUMN: STATE
// ============================================================================

// --- GATE METER ---
gate_meter_h = floor(60 * S);
draw_panel(c2x, body_y, col_w, gate_meter_h, "GATE");

meter_x = c2x + pad;
meter_y = body_y + floor(26 * S);
meter_w = col_w - pad2;
meter_h = floor(28 * S);

// Background
gfx_r = 0.08; gfx_g = 0.08; gfx_b = 0.10;
gfx_rect(meter_x, meter_y, meter_w, meter_h);

// Gate bar
gate_pct = gfx_gate_gain;
bar_w_gate = gate_pct * meter_w;
gate_pct > 0.8 ? (
  gfx_r = 0.2; gfx_g = 0.8; gfx_b = 0.3; gfx_a = 0.8;
) : gate_pct > 0.3 ? (
  gfx_r = 0.9; gfx_g = 0.7; gfx_b = 0.1; gfx_a = 0.8;
) : (
  gfx_r = 0.9; gfx_g = 0.2; gfx_b = 0.2; gfx_a = 0.8;
);
bar_w_gate > 0 ? (
  gfx_rect(meter_x, meter_y, bar_w_gate, meter_h);
);
gfx_a = 1;

// Gate state text
gfx_r = 1; gfx_g = 1; gfx_b = 1;
gfx_setfont(1, "Arial", F_LABEL);
gfx_x = meter_x + floor(5 * S);
gfx_y = meter_y + floor(8 * S);
gate_state == 0 ? gfx_drawstr("CLOSED");
gate_state == 1 ? gfx_drawstr("ATTACK");
gate_state == 2 ? gfx_drawstr("OPEN");
gate_state == 3 ? gfx_drawstr("HOLD");
gate_state == 4 ? gfx_drawstr("RELEASE");

// GR readout
gfx_setfont(1, "Arial", F_SMALL);
gfx_x = meter_x + meter_w - floor(60 * S);
gfx_y = meter_y + floor(8 * S);
gfx_drawnumber(slider14, 1);
gfx_drawstr(" dB");

// Border
gfx_r = 0.25; gfx_g = 0.25; gfx_b = 0.3;
gfx_rect(meter_x, meter_y, meter_w, meter_h, 0);

// --- DENSITY STATE ---
density_panel_y = body_y + gate_meter_h + gap;
density_panel_h = floor(80 * S);
draw_panel(c2x, density_panel_y, col_w, density_panel_h, "DENSITY");

dy = density_panel_y + floor(26 * S);
d_bar_w = floor(60 * S);
d_bar_h = floor(10 * S);
d_bx = c2x + pad + floor(30 * S);

// Lo
gfx_r = 0.12; gfx_g = 0.31; gfx_b = 0.86;
disp_lo = min(1, (hd.density - 1.0) / 1.5);
gfx_rect(d_bx, dy, d_bar_w * max(0, disp_lo), d_bar_h);
gfx_r = 0.2; gfx_g = 0.2; gfx_b = 0.25;
gfx_rect(d_bx, dy, d_bar_w, d_bar_h, 0);
gfx_r = 0.5; gfx_g = 0.5; gfx_b = 0.6;
gfx_setfont(1, "Arial", F_TINY);
gfx_x = c2x + pad; gfx_y = dy;
gfx_drawstr("LO");

dy += floor(13 * S);
gfx_r = 0.86; gfx_g = 0.63; gfx_b = 0.12;
gfx_rect(d_bx, dy, d_bar_w * min(1, max(0, hd.mid_density)), d_bar_h);
gfx_r = 0.2; gfx_g = 0.2; gfx_b = 0.25;
gfx_rect(d_bx, dy, d_bar_w, d_bar_h, 0);
gfx_r = 0.5; gfx_g = 0.5; gfx_b = 0.6;
gfx_x = c2x + pad; gfx_y = dy;
gfx_drawstr("MID");

dy += floor(13 * S);
gfx_r = 0.86; gfx_g = 0.24; gfx_b = 0.12;
gfx_rect(d_bx, dy, d_bar_w * min(1, max(0, hd.hi_density)), d_bar_h);
gfx_r = 0.2; gfx_g = 0.2; gfx_b = 0.25;
gfx_rect(d_bx, dy, d_bar_w, d_bar_h, 0);
gfx_r = 0.5; gfx_g = 0.5; gfx_b = 0.6;
gfx_x = c2x + pad; gfx_y = dy;
gfx_drawstr("HI");

dy += floor(13 * S);
gfx_r = 0.71; gfx_g = 0.16; gfx_b = 0.86;
gfx_rect(d_bx, dy, d_bar_w * min(1, max(0, hd.air_density)), d_bar_h);
gfx_r = 0.2; gfx_g = 0.2; gfx_b = 0.25;
gfx_rect(d_bx, dy, d_bar_w, d_bar_h, 0);
gfx_r = 0.5; gfx_g = 0.5; gfx_b = 0.6;
gfx_x = c2x + pad; gfx_y = dy;
gfx_drawstr("AIR");

// Density readout on right side
gfx_setfont(1, "Arial", F_TINY);
status_x = d_bx + d_bar_w + floor(15 * S);
status_y = density_panel_y + floor(26 * S);
gfx_r = COL_DIM_R; gfx_g = COL_DIM_G; gfx_b = COL_DIM_B;
gfx_x = status_x; gfx_y = status_y;
gfx_drawstr("Density: ");
gfx_r = COL_TEXT_R; gfx_g = COL_TEXT_G; gfx_b = COL_TEXT_B;
gfx_drawnumber(gfx_density, 2);

gfx_r = COL_DIM_R; gfx_g = COL_DIM_G; gfx_b = COL_DIM_B;
gfx_x = status_x; gfx_y = status_y + floor(13 * S);
gfx_drawstr("Env: ");
gfx_r = COL_TEXT_R; gfx_g = COL_TEXT_G; gfx_b = COL_TEXT_B;
gfx_drawnumber(gfx_env * 100, 1);

gfx_r = COL_DIM_R; gfx_g = COL_DIM_G; gfx_b = COL_DIM_B;
gfx_x = status_x; gfx_y = status_y + floor(26 * S);
gfx_drawstr("Eff Thr: ");
gfx_r = COL_TEXT_R; gfx_g = COL_TEXT_G; gfx_b = COL_TEXT_B;
gfx_drawnumber(sqrt(gfx_eff_thresh) * 100, 1);
gfx_drawstr("%");

// --- SIDECHAIN ENVELOPE METER (mini) ---
sc_meter_y = density_panel_y + density_panel_h + gap;
sc_meter_h = floor(28 * S);
draw_panel(c2x, sc_meter_y, col_w, sc_meter_h + floor(22 * S), "SIDECHAIN");
gfx_r = 0.08; gfx_g = 0.08; gfx_b = 0.10;
gfx_rect(c2x + pad, sc_meter_y + floor(22 * S), col_w - pad2, sc_meter_h);
// Envelope bar
sc_env_norm = min(1.0, gfx_env * 4);
sc_env_fill = sc_env_norm * (col_w - pad2);
sc_env_fill > 0 ? (
  gfx_r = COL_CYAN_R * 0.5; gfx_g = COL_CYAN_G * 0.5; gfx_b = COL_CYAN_B * 0.5;
  gfx_rect(c2x + pad, sc_meter_y + floor(22 * S), sc_env_fill, sc_meter_h);
);
// Threshold line
t_norm = sqrt(gfx_eff_thresh);
t_line_x = c2x + pad + floor(t_norm * 4 * (col_w - pad2));
t_line_x = min(t_line_x, c2x + col_w - pad);
gfx_r = 1.0; gfx_g = 0.3; gfx_b = 0.3;
gfx_rect(t_line_x, sc_meter_y + floor(22 * S), max(1, floor(2 * S)), sc_meter_h);
// Border
gfx_r = 0.25; gfx_g = 0.25; gfx_b = 0.3;
gfx_rect(c2x + pad, sc_meter_y + floor(22 * S), col_w - pad2, sc_meter_h, 0);

// --- DRUM MODE PEERS (only when mode=Drum) ---
mode == 1 ? (
  peer_panel_y = sc_meter_y + sc_meter_h + floor(22 * S) + gap;
  peer_rows = max(1, gfx_peer_count);
  peer_panel_h = floor(22 * S) + peer_rows * floor(16 * S) + floor(8 * S);
  draw_panel(c2x, peer_panel_y, col_w, peer_panel_h, "DRUM PEERS");

  py = peer_panel_y + floor(26 * S);
  gfx_setfont(1, "Arial", F_TINY);

  gfx_peer_count == 0 ? (
    gfx_r = COL_DIM_R; gfx_g = COL_DIM_G; gfx_b = COL_DIM_B;
    gfx_x = c2x + pad + floor(4 * S); gfx_y = py;
    gfx_drawstr("No peers found");
  );

  // Draw each peer
  pi = 0;
  loop(gfx_peer_count,
    pi == 0 ? (pt = gfx_peer_type_0; po = gfx_peer_open_0; pd = gfx_peer_dist_0);
    pi == 1 ? (pt = gfx_peer_type_1; po = gfx_peer_open_1; pd = gfx_peer_dist_1);
    pi == 2 ? (pt = gfx_peer_type_2; po = gfx_peer_open_2; pd = gfx_peer_dist_2);
    pi == 3 ? (pt = gfx_peer_type_3; po = gfx_peer_open_3; pd = gfx_peer_dist_3);
    pi == 4 ? (pt = gfx_peer_type_4; po = gfx_peer_open_4; pd = gfx_peer_dist_4);
    pi == 5 ? (pt = gfx_peer_type_5; po = gfx_peer_open_5; pd = gfx_peer_dist_5);
    pi == 6 ? (pt = gfx_peer_type_6; po = gfx_peer_open_6; pd = gfx_peer_dist_6);
    pi == 7 ? (pt = gfx_peer_type_7; po = gfx_peer_open_7; pd = gfx_peer_dist_7);

    // Open/closed indicator
    po ? (
      gfx_r = COL_GREEN_R; gfx_g = COL_GREEN_G; gfx_b = COL_GREEN_B;
    ) : (
      gfx_r = 0.5; gfx_g = 0.15; gfx_b = 0.15;
    );
    gfx_circle(c2x + pad + floor(8 * S), py + floor(6 * S), floor(4 * S), 1);

    // Type label
    gfx_r = COL_TEXT_R; gfx_g = COL_TEXT_G; gfx_b = COL_TEXT_B;
    gfx_x = c2x + pad + floor(18 * S); gfx_y = py;
    pt == 0 ? gfx_drawstr("KICK");
    pt == 1 ? gfx_drawstr("SNARE");
    pt == 2 ? (
      gfx_drawstr("TOM d=");
      gfx_drawnumber(pd, 0);
    );

    // State
    gfx_r = COL_DIM_R; gfx_g = COL_DIM_G; gfx_b = COL_DIM_B;
    gfx_x = c2x + col_w - floor(45 * S); gfx_y = py;
    po ? (
      gfx_r = COL_GREEN_R; gfx_g = COL_GREEN_G; gfx_b = COL_GREEN_B;
      gfx_drawstr("OPEN");
    ) : (
      gfx_r = 0.5; gfx_g = 0.15; gfx_b = 0.15;
      gfx_drawstr("GATED");
    );

    py += floor(16 * S);
    pi += 1;
  );
);

// ============================================================================
//  INSTANCE MANAGER PANEL
// ============================================================================
bc_rows_per_page = 5;
bc_row_h = floor(14 * S);
bc_bar_h = floor(30 * S);
bc_btn_h = floor(20 * S);
bc_panel_h = bc_panel_expanded ? (bc_bar_h + bc_rows_per_page * bc_row_h + floor(18 * S)) : bc_bar_h;
bc_panel_y = gfx_h - bc_panel_h;

gfx_r = 0.04; gfx_g = 0.04; gfx_b = 0.06;
gfx_rect(0, bc_panel_y, gfx_w, bc_panel_h);
gfx_r = 0.15; gfx_g = 0.15; gfx_b = 0.20;
gfx_rect(0, bc_panel_y, gfx_w, 1);

gfx_setfont(1, "Arial", F_SMALL);
gfx_r = 0.95; gfx_g = 0.45; gfx_b = 0.15;
gfx_x = floor(8 * S); gfx_y = bc_panel_y + floor(8 * S);
bc_my_slot >= 0 ? (
  gfx_drawstr("I");
  gfx_drawnumber(bc_my_slot + 1, 0);
  gfx_drawstr("/");
  gfx_drawnumber(bc_instance_count, 0);
) : (
  gfx_drawstr("--");
);

bc_following > 0 ? (
  gfx_r = 0.2; gfx_g = 0.8; gfx_b = 0.3;
  gfx_drawstr("  Following: I");
  bc_fs = 0;
  loop(BC_MAX_INST,
    fsb = BC_MY_REGION + bc_fs * BC_SLOT_SIZE;
    gmem[fsb + 1] == bc_following ? (
      gfx_drawnumber(bc_fs + 1, 0);
      bc_fs = BC_MAX_INST;
    );
    bc_fs += 1;
  );
) : (
  gfx_r = 0.3; gfx_g = 0.3; gfx_b = 0.4;
  gfx_drawstr("  Following: --");
);

exp_x = gfx_w - floor(200 * S);
exp_y = bc_panel_y + floor(4 * S);
exp_w = floor(65 * S);
exp_h = floor(20 * S);
gfx_r = 0.12; gfx_g = 0.12; gfx_b = 0.16;
gfx_rect(exp_x, exp_y, exp_w, exp_h);
gfx_r = 0.5; gfx_g = 0.5; gfx_b = 0.6;
gfx_x = exp_x + floor(5 * S); gfx_y = exp_y + floor(4 * S);
bc_panel_expanded ? gfx_drawstr("COLLAPSE") : gfx_drawstr("EXPAND");
(mouse_cap & 1) && !(last_cap & 1) &&
  mouse_x >= exp_x && mouse_x < exp_x + exp_w &&
  mouse_y >= exp_y && mouse_y < exp_y + exp_h ? (
  bc_panel_expanded = !bc_panel_expanded;
  bc_steal_mode = 0;
);

stl_x = gfx_w - floor(125 * S);
stl_y = bc_panel_y + floor(4 * S);
stl_w = floor(50 * S);
stl_h = floor(20 * S);
bc_steal_mode ? (
  gfx_r = 0.6; gfx_g = 0.2; gfx_b = 0.1;
) : (
  gfx_r = 0.2; gfx_g = 0.1; gfx_b = 0.1;
);
gfx_rect(stl_x, stl_y, stl_w, stl_h);
gfx_r = 0.9; gfx_g = 0.5; gfx_b = 0.2;
gfx_x = stl_x + floor(6 * S); gfx_y = stl_y + floor(4 * S);
gfx_drawstr("STEAL");
(mouse_cap & 1) && !(last_cap & 1) &&
  mouse_x >= stl_x && mouse_x < stl_x + stl_w &&
  mouse_y >= stl_y && mouse_y < stl_y + stl_h ? (
  bc_steal_mode = !bc_steal_mode;
  !bc_panel_expanded ? bc_panel_expanded = 1;
);

bc_following > 0 ? (
  unf_x = gfx_w - floor(65 * S);
  unf_y = bc_panel_y + floor(4 * S);
  unf_w = floor(55 * S);
  unf_h = floor(20 * S);
  gfx_r = 0.1; gfx_g = 0.2; gfx_b = 0.1;
  gfx_rect(unf_x, unf_y, unf_w, unf_h);
  gfx_r = 0.5; gfx_g = 0.9; gfx_b = 0.5;
  gfx_x = unf_x + floor(4 * S); gfx_y = unf_y + floor(4 * S);
  gfx_drawstr("UNFLW");
  (mouse_cap & 1) && !(last_cap & 1) &&
    mouse_x >= unf_x && mouse_x < unf_x + unf_w &&
    mouse_y >= unf_y && mouse_y < unf_y + unf_h ? (
    bc_following = 0;
    bc_follow_slot = -1;
  );
);

bc_panel_expanded ? (
  row_y = bc_panel_y + bc_bar_h;
  row_h = bc_row_h;
  bc_my_page = bc_my_slot >= 0 ? floor(bc_my_slot / bc_rows_per_page) : 0;
  bc_page < 0 ? bc_page = 0;
  bc_active_slots = 0;
  bc_si = 0;
  loop(BC_MAX_INST,
    gmem[BC_MY_REGION + bc_si * BC_SLOT_SIZE + 1] > 0 ? bc_active_slots += 1;
    bc_si += 1;
  );
  bc_total_pages = max(1, ceil(bc_active_slots / bc_rows_per_page));
  bc_page >= bc_total_pages ? bc_page = bc_total_pages - 1;
  pg_btn_w = floor(18 * S); pg_btn_h = floor(14 * S);
  pg_prev_x = floor(8 * S); pg_prev_y = bc_panel_y + bc_bar_h + bc_rows_per_page * row_h + floor(2 * S);
  bc_total_pages > 1 ? (
    gfx_r = 0.25; gfx_g = 0.25; gfx_b = 0.32;
    gfx_rect(pg_prev_x, pg_prev_y, pg_btn_w, pg_btn_h);
    gfx_r = 0.7; gfx_g = 0.7; gfx_b = 0.8;
    gfx_x = pg_prev_x + floor(4 * S); gfx_y = pg_prev_y + floor(2 * S);
    gfx_drawstr("<");
    (mouse_cap & 1) && !(last_cap & 1) &&
      mouse_x >= pg_prev_x && mouse_x < pg_prev_x + pg_btn_w &&
      mouse_y >= pg_prev_y && mouse_y < pg_prev_y + pg_btn_h ? (
      bc_page > 0 ? bc_page -= 1;
    );
    gfx_r = 0.25; gfx_g = 0.25; gfx_b = 0.32;
    gfx_rect(pg_prev_x + pg_btn_w + 2, pg_prev_y, pg_btn_w, pg_btn_h);
    gfx_r = 0.7; gfx_g = 0.7; gfx_b = 0.8;
    gfx_x = pg_prev_x + pg_btn_w + floor(6 * S); gfx_y = pg_prev_y + floor(2 * S);
    gfx_drawstr(">");
    (mouse_cap & 1) && !(last_cap & 1) &&
      mouse_x >= pg_prev_x + pg_btn_w + 2 && mouse_x < pg_prev_x + pg_btn_w * 2 + 2 &&
      mouse_y >= pg_prev_y && mouse_y < pg_prev_y + pg_btn_h ? (
      bc_page < bc_total_pages - 1 ? bc_page += 1;
    );
    gfx_r = 0.4; gfx_g = 0.4; gfx_b = 0.5;
    gfx_x = pg_prev_x + pg_btn_w * 2 + floor(8 * S); gfx_y = pg_prev_y + floor(2 * S);
    gfx_drawnumber(bc_page + 1, 0);
    gfx_drawstr("/");
    gfx_drawnumber(bc_total_pages, 0);
    bc_page != bc_my_page ? (
      you_x = pg_prev_x + pg_btn_w * 2 + floor(40 * S);
      gfx_r = 0.15; gfx_g = 0.15; gfx_b = 0.20;
      gfx_rect(you_x, pg_prev_y, floor(30 * S), pg_btn_h);
      gfx_r = 0.95; gfx_g = 0.45; gfx_b = 0.15;
      gfx_x = you_x + floor(3 * S); gfx_y = pg_prev_y + floor(2 * S);
      gfx_drawstr("YOU");
      (mouse_cap & 1) && !(last_cap & 1) &&
        mouse_x >= you_x && mouse_x < you_x + floor(30 * S) &&
        mouse_y >= pg_prev_y && mouse_y < pg_prev_y + pg_btn_h ? (
        bc_page = bc_my_page;
      );
    );
  );
  bc_page_start = bc_page * bc_rows_per_page;
  bc_page_end = bc_page_start + bc_rows_per_page - 1;
  bc_visible = 0;
  bc_s = 0;
  loop(BC_MAX_INST,
    isb = BC_MY_REGION + bc_s * BC_SLOT_SIZE;
    isid = gmem[isb + 1];
    isid > 0 ? (
      bc_visible >= bc_page_start && bc_visible <= bc_page_end ? (
        draw_row_y = row_y + (bc_visible - bc_page_start) * row_h;
        mouse_y >= draw_row_y && mouse_y < draw_row_y + row_h &&
          mouse_x >= floor(8 * S) && mouse_x < gfx_w - floor(8 * S) &&
          bc_s != bc_my_slot ? (
          gfx_r = 0.10; gfx_g = 0.10; gfx_b = 0.14;
          gfx_rect(floor(4 * S), draw_row_y, gfx_w - floor(8 * S), row_h);
        );
        gfx_setfont(1, "Arial", F_TINY);
        bc_s == bc_my_slot ? (
          gfx_r = 0.95; gfx_g = 0.45; gfx_b = 0.15;
        ) : (
          gfx_r = 0.7; gfx_g = 0.7; gfx_b = 0.8;
        );
        gfx_x = floor(12 * S); gfx_y = draw_row_y + floor(1 * S);
        gfx_drawstr("I");
        gfx_drawnumber(bc_s + 1, 0);
        gfx_drawstr("  ");
        bc_s == bc_my_slot ? (
          gfx_drawstr("[YOU]");
        ) : (
          iwho = gmem[isb + 3];
          bc_has_follower = 0;
          bc_fsc = 0;
          loop(BC_MAX_INST,
            fsb2 = BC_MY_REGION + bc_fsc * BC_SLOT_SIZE;
            gmem[fsb2 + 1] > 0 && gmem[fsb2 + 3] == isid ? bc_has_follower = 1;
            bc_fsc += 1;
          );
          iwho > 0 ? (
            gfx_r = 0.4; gfx_g = 0.6; gfx_b = 0.9;
            gfx_drawstr("[FOLLOWER]");
          ) : bc_has_follower ? (
            gfx_r = 0.95; gfx_g = 0.78; gfx_b = 0.35;
            gfx_drawstr("[LEADER]");
          ) : (
            gfx_r = 0.38; gfx_g = 0.38; gfx_b = 0.45;
            gfx_drawstr("[UNASSIGNED]");
          );
          gfx_r = 0.35; gfx_g = 0.45; gfx_b = 0.35;
          bc_steal_mode ? (
            gfx_drawstr("  click: steal");
          ) : (
            gfx_drawstr("  click: follow");
          );
          (mouse_cap & 1) && !(last_cap & 1) &&
            mouse_y >= draw_row_y && mouse_y < draw_row_y + row_h &&
            mouse_x >= floor(8 * S) && mouse_x < gfx_w - floor(8 * S) ? (
            bc_steal_mode ? (
              bc_steal_target = isid;
              bc_steal_pending = 1;
              bc_steal_mode = 0;
            ) : (
              bc_can_follow = 1;
              bc_cursor = isid;
              bc_hops = 0;
              while(bc_cursor > 0 && bc_hops < BC_MAX_INST) (
                bc_cursor == bc_my_id ? (
                  bc_can_follow = 0;
                  bc_cursor = 0;
                ) : (
                  bc_next = 0;
                  bc_cs = 0;
                  loop(BC_MAX_INST,
                    csb = BC_MY_REGION + bc_cs * BC_SLOT_SIZE;
                    gmem[csb + 1] == bc_cursor ? (
                      bc_next = gmem[csb + 3];
                      bc_cs = BC_MAX_INST;
                    );
                    bc_cs += 1;
                  );
                  bc_cursor = bc_next;
                );
                bc_hops += 1;
              );
              bc_can_follow ? (
                bc_following = isid;
              );
            );
          );
        );
      );
      bc_visible += 1;
    );
    bc_s += 1;
  );
);

last_cap = mouse_cap;

// --- BUY + NOTICE BUTTONS ---
notice_btn_x = gfx_w - floor(60 * S);
notice_btn_y = bc_panel_y - floor(18 * S);
buy_btn_x = notice_btn_x - floor(50 * S);
buy_btn_y = notice_btn_y;
gfx_r = 0.6; gfx_g = 0.5; gfx_b = 0.3;
gfx_rect(buy_btn_x, buy_btn_y, floor(45 * S), floor(15 * S));
gfx_r = 0; gfx_g = 0; gfx_b = 0;
gfx_x = buy_btn_x + floor(4 * S); gfx_y = buy_btn_y + floor(2 * S);
gfx_drawstr("BUY");
(mouse_cap & 1) && mouse_x >= buy_btn_x && mouse_x <= buy_btn_x + floor(45 * S) && mouse_y >= buy_btn_y && mouse_y <= buy_btn_y + floor(15 * S) && !buy_clicked ? (
  buy_show = !buy_show; buy_show ? notice_show = 0;
  buy_clicked = 1;
);
!(mouse_cap & 1) ? buy_clicked = 0;
gfx_r = 0.6; gfx_g = 0.5; gfx_b = 0.3;
gfx_rect(notice_btn_x, notice_btn_y, floor(55 * S), floor(15 * S));
gfx_r = 0; gfx_g = 0; gfx_b = 0;
gfx_x = notice_btn_x + floor(4 * S); gfx_y = notice_btn_y + floor(2 * S);
gfx_drawstr("NOTICE");
(mouse_cap & 1) && mouse_x >= notice_btn_x && mouse_x <= notice_btn_x + floor(55 * S) && mouse_y >= notice_btn_y && mouse_y <= notice_btn_y + floor(15 * S) && !notice_clicked ? (
  notice_show = !notice_show; notice_show ? buy_show = 0;
  notice_clicked = 1;
);
!(mouse_cap & 1) ? notice_clicked = 0;
buy_show ? (
  gfx_r = 0.05; gfx_g = 0.05; gfx_b = 0.05; gfx_a = 0.95;
  gfx_rect(0, 0, gfx_w, gfx_h); gfx_a = 1;
  gfx_r = 0.9; gfx_g = 0.8; gfx_b = 0.5;
  gfx_x = floor(15 * S); gfx_y = floor(10 * S);
  gfx_drawstr("SUPPORT LMS");
  gfx_r = 0.7; gfx_g = 0.7; gfx_b = 0.7;
  gfx_x = floor(15 * S); gfx_y = floor(35 * S);
  gfx_drawstr("These plugins are offered for free use by anyone not able to afford it.");
  gfx_x = floor(15 * S); gfx_y = floor(50 * S);
  gfx_drawstr("No need to prove anything to us. But if you can afford to buy this suite,");
  gfx_x = floor(15 * S); gfx_y = floor(65 * S);
  gfx_drawstr("we would sure appreciate it. 50 dollars gets you every update and every");
  gfx_x = floor(15 * S); gfx_y = floor(80 * S);
  gfx_drawstr("plugin added to this suite forever. Its in its baby stages and these will");
  gfx_x = floor(15 * S); gfx_y = floor(95 * S);
  gfx_drawstr("only get doper over time. We also offer 6 months installments. But if you");
  gfx_x = floor(15 * S); gfx_y = floor(110 * S);
  gfx_drawstr("cant afford it just use it. We love you. We are all gonna make it.");
);
notice_show ? (
  gfx_r = 0.05; gfx_g = 0.05; gfx_b = 0.05; gfx_a = 0.95;
  gfx_rect(0, 0, gfx_w, gfx_h); gfx_a = 1;
  gfx_r = 0.9; gfx_g = 0.8; gfx_b = 0.5;
  gfx_x = floor(15 * S); gfx_y = floor(10 * S);
  gfx_drawstr("NOTICE");
  gfx_r = 0.7; gfx_g = 0.7; gfx_b = 0.7;
  gfx_x = floor(15 * S); gfx_y = floor(35 * S);
  gfx_drawstr("LMS plugins are made with assistance from Claude by Anthropic.");
  gfx_x = floor(15 * S); gfx_y = floor(50 * S);
  gfx_drawstr("All DSP algorithms, GFX layout, and broadcast system designed by");
  gfx_x = floor(15 * S); gfx_y = floor(65 * S);
  gfx_drawstr("Bryan (LMS) with Claude as a coding partner.");
  gfx_x = floor(15 * S); gfx_y = floor(85 * S);
  gfx_drawstr("This plugin is part of the LMS suite for REAPER.");
);

@serialize
file_var(0, bc_following);
file_var(0, bc_my_id);
