desc:KITTY KATS BIG KRUSH
//tags: compressor distortion analog distressor
//author: LMS + Claude
filename:0,shakebot_logo.png


import lms_core.jsfx-inc

options:gmem=DrumBanger

slider1:0<-12,24,0.1>-Input (dB)
slider2:-12<-40,0,0.5>-Threshold (dB)
slider3:3<0,7,1{1:1,2:1,3:1,4:1,6:1,10:1,20:1,Nuke}>-Ratio
slider4:5<0.05,20,0.05>-Attack (ms)
slider5:250<50,2500,10>-Release (ms)
slider6:0<0,2,1{Off,Dist 2 (Tape),Dist 3 (Tube)}>-Distortion Mode
slider7:0<0,1,1{Off,On}>-HP Sidechain
slider8:150<60,400,1>-HP SC Freq (Hz)
slider9:0<-12,12,0.1>-Output (dB)
slider10:100<0,100,1>-Mix (%)

@init
  sc_hp.lms_bq_init();
  comp.lms_comp_init();
  sat_l.lms_sat_warm_init();
  sat_r.lms_sat_warm_init();

notice_show = 0;

  // ============================================================
  // BROADCAST SYSTEM — Instance Registry
  // ============================================================
  BC_BASE = 100000;
  BC_MY_TYPE = 5;           // Distressor
  BC_SLOT_SIZE = 512;
  BC_MAX_INST = 32;
  BC_PARAM_COUNT = 10;
  BC_MY_REGION = BC_BASE + BC_MY_TYPE * 16384;
  BC_STALE_TIMEOUT = 2;

  // Generate unique instance ID (only on first init, preserve across transport stop/start)
  bc_my_id == 0 ? bc_my_id = floor(rand() * 1073741824) + 1;
  bc_my_slot = -1;
  // bc_following preserved by @serialize — do NOT zero here
  bc_follow_slot = -1;
  bc_steal_pending = 0;
  bc_steal_target = 0;
  bc_panel_expanded = 0;
  bc_page = 0;
  bc_steal_mode = 0;
  bc_instance_count = 0;

  BC_STALE_HB = 10000;    // last-seen heartbeat per slot (32 slots)
  BC_STALE_CT = 10032;    // stale counter per slot (32 slots, after HB array)
  i = 0;
  loop(BC_MAX_INST,
    BC_STALE_HB[i] = -1;
    BC_STALE_CT[i] = 0;
    i += 1;
  );

  bc_i = 0;
  loop(BC_MAX_INST,
    bc_my_slot < 0 ? (
      sb = BC_MY_REGION + bc_i * BC_SLOT_SIZE;
      sid = gmem[sb + 1];
      (sid == 0 || sid == bc_my_id) ? (
        bc_my_slot = bc_i;
      );
    );
    bc_i += 1;
  );

  bc_my_slot >= 0 ? (
    sb = BC_MY_REGION + bc_my_slot * BC_SLOT_SIZE;
    gmem[sb + 0] = 0;
    gmem[sb + 1] = bc_my_id;
    gmem[sb + 2] = BC_MY_TYPE;
    gmem[sb + 3] = 0;
    gmem[sb + 4] = BC_PARAM_COUNT;
  );

@slider
  input_gain = lms_db2lin(slider1);

  // Ratio mapping
  slider3 == 0 ? comp_ratio = 1;
  slider3 == 1 ? comp_ratio = 2;
  slider3 == 2 ? comp_ratio = 3;
  slider3 == 3 ? comp_ratio = 4;
  slider3 == 4 ? comp_ratio = 6;
  slider3 == 5 ? comp_ratio = 10;
  slider3 == 6 ? comp_ratio = 20;
  slider3 == 7 ? comp_ratio = 100;  // Nuke = brickwall

  comp.lms_comp_set(slider2, comp_ratio, slider4, slider5);

  dist_mode = slider6;
  sc_hp_on = slider7;
  output_gain = lms_db2lin(slider9);
  mix = slider10 / 100;

  // HP sidechain filter coefficients
  sc_hp_on ? (
    sc_hp.lms_bq_set_hp(slider8, 0.707);
  );

// ============================================================
// @BLOCK — Broadcast, heartbeat, stale-check, follow, steal
// ============================================================
@block
// ---- Recalculate from sliders (GFX changes don't trigger @slider) ----
input_gain = lms_db2lin(slider1);

// Ratio mapping
slider3 == 0 ? comp_ratio = 1;
slider3 == 1 ? comp_ratio = 2;
slider3 == 2 ? comp_ratio = 3;
slider3 == 3 ? comp_ratio = 4;
slider3 == 4 ? comp_ratio = 6;
slider3 == 5 ? comp_ratio = 10;
slider3 == 6 ? comp_ratio = 20;
slider3 == 7 ? comp_ratio = 100;

comp.lms_comp_set(slider2, comp_ratio, slider4, slider5);

dist_mode = slider6;
sc_hp_on = slider7;
output_gain = lms_db2lin(slider9);
mix = slider10 / 100;

// HP sidechain filter coefficients
sc_hp_on ? (
  sc_hp.lms_bq_set_hp(slider8, 0.707);
);

bc_my_slot >= 0 ? (
  sb = BC_MY_REGION + bc_my_slot * BC_SLOT_SIZE;
  gmem[sb + 1] != bc_my_id ? (
    bc_my_id = floor(rand() * 1073741824) + 1;
    bc_my_slot = -1;
    bc_i = 0;
    loop(BC_MAX_INST,
      bc_my_slot < 0 ? (
        tsb = BC_MY_REGION + bc_i * BC_SLOT_SIZE;
        (gmem[tsb + 1] == 0) ? bc_my_slot = bc_i;
      );
      bc_i += 1;
    );
    bc_my_slot >= 0 ? (
      sb = BC_MY_REGION + bc_my_slot * BC_SLOT_SIZE;
      gmem[sb + 0] = 0;
      gmem[sb + 1] = bc_my_id;
      gmem[sb + 2] = BC_MY_TYPE;
      gmem[sb + 3] = bc_following;
      gmem[sb + 4] = BC_PARAM_COUNT;
    );
  );
);

bc_my_slot >= 0 && bc_following > 0 ? (
  bc_found_leader = 0;
  bc_scan = 0;
  loop(BC_MAX_INST,
    bc_scan != bc_my_slot ? (
      lsb = BC_MY_REGION + bc_scan * BC_SLOT_SIZE;
      gmem[lsb + 1] == bc_following ? (
        bc_found_leader = 1;
        bc_follow_slot = bc_scan;
        lbase = lsb + 8;
        slider1 = gmem[lbase + 0];
        slider2 = gmem[lbase + 1];
        slider3 = gmem[lbase + 2];
        slider4 = gmem[lbase + 3];
        slider5 = gmem[lbase + 4];
        slider6 = gmem[lbase + 5];
        slider7 = gmem[lbase + 6];
        slider8 = gmem[lbase + 7];
        slider9 = gmem[lbase + 8];
        slider10 = gmem[lbase + 9];
        bc_scan = BC_MAX_INST;
      );
    );
    bc_scan += 1;
  );
  !bc_found_leader ? (
    bc_following = 0;
    bc_follow_slot = -1;
  );
);

bc_my_slot >= 0 && bc_steal_pending ? (
  bc_scan = 0;
  loop(BC_MAX_INST,
    lsb = BC_MY_REGION + bc_scan * BC_SLOT_SIZE;
    gmem[lsb + 1] == bc_steal_target ? (
      lbase = lsb + 8;
      slider1 = gmem[lbase + 0];
      slider2 = gmem[lbase + 1];
      slider3 = gmem[lbase + 2];
      slider4 = gmem[lbase + 3];
      slider5 = gmem[lbase + 4];
      slider6 = gmem[lbase + 5];
      slider7 = gmem[lbase + 6];
      slider8 = gmem[lbase + 7];
      slider9 = gmem[lbase + 8];
      slider10 = gmem[lbase + 9];
      bc_scan = BC_MAX_INST;
    );
    bc_scan += 1;
  );
  bc_steal_pending = 0;
  bc_steal_target = 0;
  bc_steal_mode = 0;
);

bc_my_slot >= 0 ? (
  sb = BC_MY_REGION + bc_my_slot * BC_SLOT_SIZE;
  gmem[sb + 0] += 1;
  gmem[sb + 3] = bc_following;
  pbase = sb + 8;
  gmem[pbase + 0] = slider1;
  gmem[pbase + 1] = slider2;
  gmem[pbase + 2] = slider3;
  gmem[pbase + 3] = slider4;
  gmem[pbase + 4] = slider5;
  gmem[pbase + 5] = slider6;
  gmem[pbase + 6] = slider7;
  gmem[pbase + 7] = slider8;
  gmem[pbase + 8] = slider9;
  gmem[pbase + 9] = slider10;
);

bc_instance_count = 0;
bc_scan = 0;
loop(BC_MAX_INST,
  tsb = BC_MY_REGION + bc_scan * BC_SLOT_SIZE;
  tsid = gmem[tsb + 1];
  tsid > 0 ? (
    bc_scan == bc_my_slot ? (
      bc_instance_count += 1;
    ) : (
      tshb = gmem[tsb + 0];
      tshb == BC_STALE_HB[bc_scan] ? (
        BC_STALE_CT[bc_scan] += samplesblock / srate;
        BC_STALE_CT[bc_scan] > BC_STALE_TIMEOUT ? (
          gmem[tsb + 1] = 0;
          BC_STALE_CT[bc_scan] = 0;
        );
      ) : (
        BC_STALE_HB[bc_scan] = tshb;
        BC_STALE_CT[bc_scan] = 0;
        bc_instance_count += 1;
      );
    );
  );
  bc_scan += 1;
);

@sample
  // Dry signal for mix
  dry_l = spl0;
  dry_r = spl1;

  // Input gain
  l = spl0 * input_gain;
  r = spl1 * input_gain;

  // === DISTORTION (pre-compression, like the real Distressor) ===
  dist_mode == 1 ? (
    // Dist 2: tape-like warmth (even harmonics)
    l = sat_l.lms_sat_tape(l, 0.65, 0.0);
    r = sat_r.lms_sat_tape(r, 0.65, 0.0);
  );
  dist_mode == 2 ? (
    // Dist 3: tube-like grit (odd harmonics)
    l = sat_l.lms_sat_hot(l, 0.7, 0.0);
    r = sat_r.lms_sat_hot(r, 0.7, 0.0);
  );

  // === SIDECHAIN DETECTION ===
  // Use the audio signal (optionally HP filtered) for detection
  sc_l = l;
  sc_r = r;

  sc_hp_on ? (
    // HP filter the sidechain (lets low end through without triggering comp)
    sc_l = sc_hp.lms_bq_proc_l(sc_l);
    sc_r = sc_hp.lms_bq_proc_r(sc_r);
  );

  // === COMPRESSION ===
  // Sidechain signal feeds the compressor detector
  comp.lms_comp_proc(sc_l, sc_r);
  l *= comp.gr;
  r *= comp.gr;

  // === OUTPUT ===
  l *= output_gain;
  r *= output_gain;

  // Dry/wet mix
  mix < 1 ? (
    spl0 = dry_l * (1 - mix) + l * mix;
    spl1 = dry_r * (1 - mix) + r * mix;
  ) : (
    spl0 = l;
    spl1 = r;
  );

@gfx 500 310

// ============================================================================
//  SCALING — compute scale factor from actual window size vs nominal
// ============================================================================
gfx_ext_retina > 0 ? gfx_ext_retina = 1;
S = gfx_w / 500;
S < 0.5 ? S = 0.5;

// Scaled font sizes
F_TITLE = max(10, floor(22 * S));
F_LABEL = max(8, floor(12 * S));
F_SMALL = max(7, floor(11 * S));
F_TINY  = max(7, floor(10 * S));
// ============================================================================
//  COLOR CONSTANTS
// ============================================================================
COL_BG_R = 0.05; COL_BG_G = 0.05; COL_BG_B = 0.07;
COL_PANEL_R = 0.08; COL_PANEL_G = 0.08; COL_PANEL_B = 0.11;
COL_PANEL_HI_R = 0.12; COL_PANEL_HI_G = 0.12; COL_PANEL_HI_B = 0.16;
COL_BORDER_R = 0.20; COL_BORDER_G = 0.20; COL_BORDER_B = 0.25;
COL_TITLE_R = 0.95; COL_TITLE_G = 0.78; COL_TITLE_B = 0.35;
COL_SEC_R = 0.55; COL_SEC_G = 0.50; COL_SEC_B = 0.40;
COL_TEXT_R = 0.78; COL_TEXT_G = 0.78; COL_TEXT_B = 0.82;
COL_DIM_R = 0.38; COL_DIM_G = 0.38; COL_DIM_B = 0.42;
COL_ACCENT_R = 0.95; COL_ACCENT_G = 0.45; COL_ACCENT_B = 0.15;
COL_GREEN_R = 0.25; COL_GREEN_G = 0.80; COL_GREEN_B = 0.50;
COL_CYAN_R = 0.20; COL_CYAN_G = 0.60; COL_CYAN_B = 0.85;
COL_BAR_BG_R = 0.12; COL_BAR_BG_G = 0.12; COL_BAR_BG_B = 0.16;

// ============================================================================
//  BACKGROUND
// ============================================================================
hdr_h = floor(44 * S);
gfx_r = COL_BG_R; gfx_g = COL_BG_G; gfx_b = COL_BG_B;
gfx_rect(0, 0, gfx_w, gfx_h);
gfx_r = 0.03; gfx_g = 0.03; gfx_b = 0.05;
gfx_rect(0, 0, gfx_w, hdr_h);
gfx_r = COL_TITLE_R * 0.6; gfx_g = COL_TITLE_G * 0.6; gfx_b = COL_TITLE_B * 0.6;
gfx_rect(0, hdr_h, gfx_w, max(1, floor(2 * S)));

// ============================================================================
//  HELPER: draw_bar
// ============================================================================
function draw_bar(bx, by, bw, bh, val, vmin, vmax, label, show_val) (
  gfx_r = COL_BAR_BG_R; gfx_g = COL_BAR_BG_G; gfx_b = COL_BAR_BG_B;
  gfx_rect(bx, by, bw, bh);
  norm = (val - vmin) / (vmax - vmin);
  norm = max(0, min(1, norm));
  fill_w = norm * bw;
  fill_w > 0 ? (
    gfx_r = COL_CYAN_R * 0.6; gfx_g = COL_CYAN_G * 0.6; gfx_b = COL_CYAN_B * 0.6;
    gfx_rect(bx, by, fill_w, bh);
    gfx_r = COL_CYAN_R * 0.8; gfx_g = COL_CYAN_G * 0.8; gfx_b = COL_CYAN_B * 0.8;
    gfx_rect(bx, by, fill_w, floor(bh / 2));
    gfx_r = COL_CYAN_R; gfx_g = COL_CYAN_G; gfx_b = COL_CYAN_B;
    gfx_rect(bx, by, fill_w, 1);
  );
  gfx_r = COL_BORDER_R; gfx_g = COL_BORDER_G; gfx_b = COL_BORDER_B;
  gfx_rect(bx, by, bw, 1); gfx_rect(bx, by + bh - 1, bw, 1);
  gfx_rect(bx, by, 1, bh); gfx_rect(bx + bw - 1, by, 1, bh);
  gfx_r = COL_TEXT_R; gfx_g = COL_TEXT_G; gfx_b = COL_TEXT_B;
  gfx_setfont(1, "Arial", F_LABEL);
  gfx_x = bx + floor(5 * S); gfx_y = by + floor((bh - F_LABEL) / 2);
  gfx_drawstr(label);
  show_val ? (
    gfx_setfont(1, "Arial", F_SMALL);
    gfx_x = bx + bw - floor(40 * S); gfx_y = by + floor((bh - F_SMALL) / 2);
    gfx_drawnumber(val, val == floor(val) ? 0 : 1);
  );
  mouse_cap & 1 ? (
    mouse_x >= bx && mouse_x <= bx + bw &&
    mouse_y >= by && mouse_y <= by + bh ? (
      new_norm = (mouse_x - bx) / bw;
      new_norm = max(0, min(1, new_norm));
      val = vmin + new_norm * (vmax - vmin);
    );
  );
  val;
);

// ============================================================================
//  HELPER: draw_panel
// ============================================================================
function draw_panel(px, py, pw, ph, title) (
  gfx_r = COL_PANEL_R; gfx_g = COL_PANEL_G; gfx_b = COL_PANEL_B;
  gfx_rect(px, py, pw, ph);
  gfx_r = COL_PANEL_HI_R; gfx_g = COL_PANEL_HI_G; gfx_b = COL_PANEL_HI_B;
  gfx_rect(px, py, pw, floor(22 * S));
  gfx_r = COL_BORDER_R; gfx_g = COL_BORDER_G; gfx_b = COL_BORDER_B;
  gfx_rect(px, py + floor(22 * S), pw, 1);
  gfx_r = COL_BORDER_R * 0.7; gfx_g = COL_BORDER_G * 0.7; gfx_b = COL_BORDER_B * 0.7;
  gfx_rect(px, py, pw, 1); gfx_rect(px, py, 1, ph);
  gfx_rect(px + pw - 1, py, 1, ph); gfx_rect(px, py + ph - 1, pw, 1);
  gfx_r = COL_SEC_R; gfx_g = COL_SEC_G; gfx_b = COL_SEC_B;
  gfx_setfont(1, "Arial", F_LABEL);
  gfx_x = px + floor(8 * S); gfx_y = py + floor(4 * S);
  gfx_drawstr(title);
);

// ============================================================================
//  HELPER: draw_toggle
// ============================================================================
function draw_toggle(tx, ty, is_on, label) (
  gfx_r = COL_BORDER_R; gfx_g = COL_BORDER_G; gfx_b = COL_BORDER_B;
  gfx_circle(tx + floor(8 * S), ty + floor(8 * S), floor(7 * S), 0);
  is_on ? (
    gfx_r = COL_GREEN_R; gfx_g = COL_GREEN_G; gfx_b = COL_GREEN_B;
    gfx_circle(tx + floor(8 * S), ty + floor(8 * S), floor(5 * S), 1);
  ) : (
    gfx_r = 0.15; gfx_g = 0.15; gfx_b = 0.18;
    gfx_circle(tx + floor(8 * S), ty + floor(8 * S), floor(5 * S), 1);
  );
  gfx_r = is_on ? COL_TEXT_R : COL_DIM_R;
  gfx_g = is_on ? COL_TEXT_G : COL_DIM_G;
  gfx_b = is_on ? COL_TEXT_B : COL_DIM_B;
  gfx_setfont(1, "Arial", F_SMALL);
  gfx_x = tx + floor(20 * S); gfx_y = ty + floor(1 * S);
  gfx_drawstr(label);
  (mouse_cap & 1) && !(last_cap & 1) &&
    mouse_x >= tx && mouse_x <= tx + floor(80 * S) &&
    mouse_y >= ty && mouse_y <= ty + floor(16 * S) ? (
      is_on = 1 - is_on;
  );
  is_on;
);

// ============================================================================
//  HELPER: draw_mode_sel — clickable mode selector (up to 4 options)
// ============================================================================
function draw_mode_sel(mx, my, mw, mh, val, vmax, label, v0, v1, v2, v3) (
  gfx_r = COL_BAR_BG_R; gfx_g = COL_BAR_BG_G; gfx_b = COL_BAR_BG_B;
  gfx_rect(mx, my, mw, mh);
  gfx_r = COL_BORDER_R; gfx_g = COL_BORDER_G; gfx_b = COL_BORDER_B;
  gfx_rect(mx, my, mw, 1); gfx_rect(mx, my + mh - 1, mw, 1);
  gfx_rect(mx, my, 1, mh); gfx_rect(mx + mw - 1, my, 1, mh);
  gfx_r = COL_TEXT_R; gfx_g = COL_TEXT_G; gfx_b = COL_TEXT_B;
  gfx_setfont(1, "Arial", F_LABEL);
  gfx_x = mx + floor(5 * S); gfx_y = my + floor((mh - F_LABEL) / 2);
  gfx_drawstr(label);
  gfx_r = COL_ACCENT_R; gfx_g = COL_ACCENT_G; gfx_b = COL_ACCENT_B;
  gfx_x = mx + mw - floor(72 * S); gfx_y = my + floor((mh - F_LABEL) / 2);
  val == 0 ? gfx_drawstr(v0);
  val == 1 ? gfx_drawstr(v1);
  val == 2 ? gfx_drawstr(v2);
  val == 3 ? gfx_drawstr(v3);
  (mouse_cap & 1) && !(last_cap & 1) &&
    mouse_x >= mx && mouse_x <= mx + mw &&
    mouse_y >= my && mouse_y <= my + mh ? (
      val = (val + 1) % (vmax + 1);
  );
  (mouse_cap & 2) && !(last_cap & 2) &&
    mouse_x >= mx && mouse_x <= mx + mw &&
    mouse_y >= my && mouse_y <= my + mh ? (
      val = val - 1; val < 0 ? val = vmax;
  );
  val;
);

// ============================================================================
//  HELPER: draw_ratio_sel — clickable ratio selector (8 options)
// ============================================================================
function draw_ratio_sel(mx, my, mw, mh, val, label) (
  gfx_r = COL_BAR_BG_R; gfx_g = COL_BAR_BG_G; gfx_b = COL_BAR_BG_B;
  gfx_rect(mx, my, mw, mh);
  gfx_r = COL_BORDER_R; gfx_g = COL_BORDER_G; gfx_b = COL_BORDER_B;
  gfx_rect(mx, my, mw, 1); gfx_rect(mx, my + mh - 1, mw, 1);
  gfx_rect(mx, my, 1, mh); gfx_rect(mx + mw - 1, my, 1, mh);
  gfx_r = COL_TEXT_R; gfx_g = COL_TEXT_G; gfx_b = COL_TEXT_B;
  gfx_setfont(1, "Arial", F_LABEL);
  gfx_x = mx + floor(5 * S); gfx_y = my + floor((mh - F_LABEL) / 2);
  gfx_drawstr(label);
  val == 7 ? (
    gfx_r = 1.0; gfx_g = 0.2; gfx_b = 0.2;
  ) : (
    gfx_r = COL_ACCENT_R; gfx_g = COL_ACCENT_G; gfx_b = COL_ACCENT_B;
  );
  gfx_x = mx + mw - floor(52 * S); gfx_y = my + floor((mh - F_LABEL) / 2);
  val == 0 ? gfx_drawstr("1:1");
  val == 1 ? gfx_drawstr("2:1");
  val == 2 ? gfx_drawstr("3:1");
  val == 3 ? gfx_drawstr("4:1");
  val == 4 ? gfx_drawstr("6:1");
  val == 5 ? gfx_drawstr("10:1");
  val == 6 ? gfx_drawstr("20:1");
  val == 7 ? gfx_drawstr("NUKE");
  (mouse_cap & 1) && !(last_cap & 1) &&
    mouse_x >= mx && mouse_x <= mx + mw &&
    mouse_y >= my && mouse_y <= my + mh ? (
      val = (val + 1) % 8;
  );
  (mouse_cap & 2) && !(last_cap & 2) &&
    mouse_x >= mx && mouse_x <= mx + mw &&
    mouse_y >= my && mouse_y <= my + mh ? (
      val = val - 1; val < 0 ? val = 7;
  );
  val;
);

// ============================================================================
//  LAYOUT
// ============================================================================
margin = floor(8 * S);
gap = floor(6 * S);
bar_h = floor(18 * S);
bar_sp = floor(21 * S);
col_w = floor((gfx_w - margin * 2 - gap) / 2);
pad = floor(4 * S);
pad2 = pad * 2;
gr_bar_h = max(2, floor(6 * S));
body_y = floor(50 * S);

// ============================================================================
//  LOGO + TITLE
// ============================================================================
gfx_getimgdim(0, logo_img_w, logo_img_h);
logo_img_w > 0 ? (
  logo_h = floor(32 * S);
  logo_w = floor(logo_h * (logo_img_w / logo_img_h));
  logo_x = floor(6 * S);
  logo_y = floor(((hdr_h - logo_h)) / 2);
  gfx_blit(0, 1, 0, 0, 0, logo_img_w, logo_img_h, logo_x, logo_y, logo_w, logo_h);
) : (
  logo_w = 0;
  logo_x = 0;
);
gfx_r = COL_TITLE_R; gfx_g = COL_TITLE_G; gfx_b = COL_TITLE_B;
gfx_setfont(1, "Arial", F_TITLE);
gfx_x = logo_x + logo_w + floor(8 * S); gfx_y = floor(10 * S);
gfx_drawstr("KITTY KATS BIG KRUSH");

// ============================================================================
//  COLUMN 1: INPUT / COMPRESSION
// ============================================================================
c1x = margin;
draw_panel(c1x, body_y, col_w, floor(178 * S), "INPUT / COMPRESSION");
cy = body_y + floor(26 * S);
_old = slider1; slider1 = draw_bar(c1x + pad, cy, col_w - pad2, bar_h, slider1, -12, 24, "Input dB", 1);
slider1 != _old ? slider_automate(2^0);
cy += bar_sp;
_old = slider2; slider2 = draw_bar(c1x + pad, cy, col_w - pad2, bar_h, slider2, -40, 0, "Thresh dB", 1);
slider2 != _old ? slider_automate(2^1);
cy += bar_sp;
_old = slider3; slider3 = draw_ratio_sel(c1x + pad, cy, col_w - pad2, bar_h, slider3, "Ratio");
slider3 != _old ? slider_automate(2^2);
cy += bar_sp;
_old = slider4; slider4 = draw_bar(c1x + pad, cy, col_w - pad2, bar_h, slider4, 0.05, 20, "Atk ms", 1);
slider4 != _old ? slider_automate(2^3);
cy += bar_sp;
_old = slider5; slider5 = draw_bar(c1x + pad, cy, col_w - pad2, bar_h, slider5, 50, 2500, "Rel ms", 1);
slider5 != _old ? slider_automate(2^4);
cy += bar_sp;

// GR meter text
gfx_r = COL_DIM_R; gfx_g = COL_DIM_G; gfx_b = COL_DIM_B;
gfx_setfont(1, "Arial", F_SMALL);
gfx_measurestr("GR: ", sub_w, sub_h);
gfx_x = gfx_w - sub_w - floor(10 * S); gfx_y = floor(10 * S);
gfx_drawstr("GR: ");
gfx_r = COL_ACCENT_R; gfx_g = COL_ACCENT_G; gfx_b = COL_ACCENT_B;
gfx_drawstr("-");
gfx_drawnumber(comp.gr_db, 1);
gfx_drawstr("dB");
cy += floor(16 * S);
// GR bar
gfx_r = COL_BAR_BG_R; gfx_g = COL_BAR_BG_G; gfx_b = COL_BAR_BG_B;
gfx_rect(c1x + pad, cy, col_w - pad2, gr_bar_h);
gr_w = min(comp.gr_db * gr_bar_h, col_w - pad2);
gr_w > 0 ? (
  gfx_r = COL_ACCENT_R; gfx_g = COL_ACCENT_G * 0.4; gfx_b = 0.1;
  gfx_rect(c1x + pad, cy, gr_w, gr_bar_h);
);

// ============================================================================
//  COLUMN 2: CHARACTER
// ============================================================================
c2x = margin + col_w + gap;
draw_panel(c2x, body_y, col_w, floor(178 * S), "CHARACTER");
cy = body_y + floor(26 * S);
_old = slider6; slider6 = draw_mode_sel(c2x + pad, cy, col_w - pad2, bar_h, slider6, 2, "Dist", "Off", "Tape", "Tube", "");
slider6 != _old ? slider_automate(2^5);
cy += bar_sp;
_old = slider7; slider7 = draw_toggle(c2x + pad2, cy + floor(2 * S), slider7, "HP Sidechain");
slider7 != _old ? slider_automate(2^6);
cy += bar_sp;
_old = slider8; slider8 = draw_bar(c2x + pad, cy, col_w - pad2, bar_h, slider8, 60, 400, "SC Hz", 1);
slider8 != _old ? slider_automate(2^7);
cy += bar_sp;
_old = slider9; slider9 = draw_bar(c2x + pad, cy, col_w - pad2, bar_h, slider9, -12, 12, "Out dB", 1);
slider9 != _old ? slider_automate(2^8);
cy += bar_sp;
_old = slider10; slider10 = draw_bar(c2x + pad, cy, col_w - pad2, bar_h, slider10, 0, 100, "Mix %", 1);
slider10 != _old ? slider_automate(2^9);
  // ============================================================
  // INSTANCE MANAGER PANEL
  // ============================================================
  bc_rows_per_page = 5;
  bc_row_h = floor(14 * S);
  bc_bar_h = floor(30 * S);
  bc_btn_h = floor(20 * S);
  bc_panel_h = bc_panel_expanded ? (bc_bar_h + bc_rows_per_page * bc_row_h + floor(18 * S)) : bc_bar_h;
  bc_panel_y = gfx_h - bc_panel_h;

  gfx_r = 0.04; gfx_g = 0.04; gfx_b = 0.06;
  gfx_rect(0, bc_panel_y, gfx_w, bc_panel_h);
  gfx_r = 0.15; gfx_g = 0.15; gfx_b = 0.20;
  gfx_rect(0, bc_panel_y, gfx_w, 1);

  gfx_setfont(1, "Arial", F_SMALL);
  gfx_r = 0.95; gfx_g = 0.45; gfx_b = 0.15;
  gfx_x = floor(8 * S); gfx_y = bc_panel_y + floor(8 * S);
  bc_my_slot >= 0 ? (
    gfx_drawstr("I");
    gfx_drawnumber(bc_my_slot + 1, 0);
    gfx_drawstr("/");
    gfx_drawnumber(bc_instance_count, 0);
  ) : (
    gfx_drawstr("--");
  );

  bc_following > 0 ? (
    gfx_r = 0.2; gfx_g = 0.8; gfx_b = 0.3;
    gfx_drawstr("  Following: I");
    bc_fs = 0;
    loop(BC_MAX_INST,
      fsb = BC_MY_REGION + bc_fs * BC_SLOT_SIZE;
      gmem[fsb + 1] == bc_following ? (
        gfx_drawnumber(bc_fs + 1, 0);
        bc_fs = BC_MAX_INST;
      );
      bc_fs += 1;
    );
  ) : (
    gfx_r = 0.3; gfx_g = 0.3; gfx_b = 0.4;
    gfx_drawstr("  Following: --");
  );

  exp_x = gfx_w - floor(200 * S);
  exp_y = bc_panel_y + floor(4 * S);
  exp_w = floor(65 * S);
  exp_h = floor(20 * S);
  gfx_r = 0.12; gfx_g = 0.12; gfx_b = 0.16;
  gfx_rect(exp_x, exp_y, exp_w, exp_h);
  gfx_r = 0.5; gfx_g = 0.5; gfx_b = 0.6;
  gfx_x = exp_x + floor(5 * S); gfx_y = exp_y + floor(4 * S);
  bc_panel_expanded ? gfx_drawstr("COLLAPSE") : gfx_drawstr("EXPAND");
  (mouse_cap & 1) && !(last_cap & 1) &&
    mouse_x >= exp_x && mouse_x < exp_x + exp_w &&
    mouse_y >= exp_y && mouse_y < exp_y + exp_h ? (
    bc_panel_expanded = !bc_panel_expanded;
    bc_steal_mode = 0;
  );

  stl_x = gfx_w - floor(125 * S);
  stl_y = bc_panel_y + floor(4 * S);
  stl_w = floor(50 * S);
  stl_h = floor(20 * S);
  bc_steal_mode ? (
    gfx_r = 0.6; gfx_g = 0.2; gfx_b = 0.1;
  ) : (
    gfx_r = 0.2; gfx_g = 0.1; gfx_b = 0.1;
  );
  gfx_rect(stl_x, stl_y, stl_w, stl_h);
  gfx_r = 0.9; gfx_g = 0.5; gfx_b = 0.2;
  gfx_x = stl_x + floor(6 * S); gfx_y = stl_y + floor(4 * S);
  gfx_drawstr("STEAL");
  (mouse_cap & 1) && !(last_cap & 1) &&
    mouse_x >= stl_x && mouse_x < stl_x + stl_w &&
    mouse_y >= stl_y && mouse_y < stl_y + stl_h ? (
    bc_steal_mode = !bc_steal_mode;
    !bc_panel_expanded ? bc_panel_expanded = 1;
  );

  bc_following > 0 ? (
    unf_x = gfx_w - floor(65 * S);
    unf_y = bc_panel_y + floor(4 * S);
    unf_w = floor(55 * S);
    unf_h = floor(20 * S);
    gfx_r = 0.1; gfx_g = 0.2; gfx_b = 0.1;
    gfx_rect(unf_x, unf_y, unf_w, unf_h);
    gfx_r = 0.5; gfx_g = 0.9; gfx_b = 0.5;
    gfx_x = unf_x + floor(4 * S); gfx_y = unf_y + floor(4 * S);
    gfx_drawstr("UNFLW");
    (mouse_cap & 1) && !(last_cap & 1) &&
      mouse_x >= unf_x && mouse_x < unf_x + unf_w &&
      mouse_y >= unf_y && mouse_y < unf_y + unf_h ? (
      bc_following = 0;
      bc_follow_slot = -1;
    );
  );

  bc_panel_expanded ? (
    row_y = bc_panel_y + bc_bar_h;
    row_h = bc_row_h;

    // Page nav — auto-scroll to show YOU on expand
    bc_my_page = bc_my_slot >= 0 ? floor(bc_my_slot / bc_rows_per_page) : 0;
    bc_page < 0 ? bc_page = 0;

    // Count active slots for page count
    bc_active_slots = 0;
    bc_si = 0;
    loop(BC_MAX_INST,
      gmem[BC_MY_REGION + bc_si * BC_SLOT_SIZE + 1] > 0 ? bc_active_slots += 1;
      bc_si += 1;
    );
    bc_total_pages = max(1, ceil(bc_active_slots / bc_rows_per_page));
    bc_page >= bc_total_pages ? bc_page = bc_total_pages - 1;

    // Prev page button
    pg_btn_w = floor(18 * S); pg_btn_h = floor(14 * S);
    pg_prev_x = floor(8 * S); pg_prev_y = bc_panel_y + bc_bar_h + bc_rows_per_page * row_h + floor(2 * S);
    bc_total_pages > 1 ? (
      gfx_r = 0.25; gfx_g = 0.25; gfx_b = 0.32;
      gfx_rect(pg_prev_x, pg_prev_y, pg_btn_w, pg_btn_h);
      gfx_r = 0.7; gfx_g = 0.7; gfx_b = 0.8;
      gfx_x = pg_prev_x + floor(4 * S); gfx_y = pg_prev_y + floor(2 * S);
      gfx_drawstr("<");
      (mouse_cap & 1) && !(last_cap & 1) &&
        mouse_x >= pg_prev_x && mouse_x < pg_prev_x + pg_btn_w &&
        mouse_y >= pg_prev_y && mouse_y < pg_prev_y + pg_btn_h ? (
        bc_page > 0 ? bc_page -= 1;
      );

      gfx_r = 0.25; gfx_g = 0.25; gfx_b = 0.32;
      gfx_rect(pg_prev_x + pg_btn_w + 2, pg_prev_y, pg_btn_w, pg_btn_h);
      gfx_r = 0.7; gfx_g = 0.7; gfx_b = 0.8;
      gfx_x = pg_prev_x + pg_btn_w + floor(6 * S); gfx_y = pg_prev_y + floor(2 * S);
      gfx_drawstr(">");
      (mouse_cap & 1) && !(last_cap & 1) &&
        mouse_x >= pg_prev_x + pg_btn_w + 2 && mouse_x < pg_prev_x + pg_btn_w * 2 + 2 &&
        mouse_y >= pg_prev_y && mouse_y < pg_prev_y + pg_btn_h ? (
        bc_page < bc_total_pages - 1 ? bc_page += 1;
      );

      // Page indicator
      gfx_r = 0.4; gfx_g = 0.4; gfx_b = 0.5;
      gfx_x = pg_prev_x + pg_btn_w * 2 + floor(8 * S); gfx_y = pg_prev_y + floor(2 * S);
      gfx_drawnumber(bc_page + 1, 0);
      gfx_drawstr("/");
      gfx_drawnumber(bc_total_pages, 0);

      // YOU button — jump to your page
      bc_page != bc_my_page ? (
        you_x = pg_prev_x + pg_btn_w * 2 + floor(40 * S);
        gfx_r = 0.15; gfx_g = 0.15; gfx_b = 0.20;
        gfx_rect(you_x, pg_prev_y, floor(30 * S), pg_btn_h);
        gfx_r = 0.95; gfx_g = 0.45; gfx_b = 0.15;
        gfx_x = you_x + floor(3 * S); gfx_y = pg_prev_y + floor(2 * S);
        gfx_drawstr("YOU");
        (mouse_cap & 1) && !(last_cap & 1) &&
          mouse_x >= you_x && mouse_x < you_x + floor(30 * S) &&
          mouse_y >= pg_prev_y && mouse_y < pg_prev_y + pg_btn_h ? (
          bc_page = bc_my_page;
        );
      );
    );

    // Draw rows for current page
    bc_page_start = bc_page * bc_rows_per_page;
    bc_page_end = bc_page_start + bc_rows_per_page - 1;
    bc_visible = 0;
    bc_s = 0;
    loop(BC_MAX_INST,
      isb = BC_MY_REGION + bc_s * BC_SLOT_SIZE;
      isid = gmem[isb + 1];

      isid > 0 ? (
        bc_visible >= bc_page_start && bc_visible <= bc_page_end ? (
          draw_row_y = row_y + (bc_visible - bc_page_start) * row_h;

          mouse_y >= draw_row_y && mouse_y < draw_row_y + row_h &&
            mouse_x >= floor(8 * S) && mouse_x < gfx_w - floor(8 * S) &&
            bc_s != bc_my_slot ? (
            gfx_r = 0.10; gfx_g = 0.10; gfx_b = 0.14;
            gfx_rect(floor(4 * S), draw_row_y, gfx_w - floor(8 * S), row_h);
          );

          gfx_setfont(1, "Arial", F_TINY);
          bc_s == bc_my_slot ? (
            gfx_r = 0.95; gfx_g = 0.45; gfx_b = 0.15;
          ) : (
            gfx_r = 0.7; gfx_g = 0.7; gfx_b = 0.8;
          );
          gfx_x = floor(12 * S); gfx_y = draw_row_y + floor(1 * S);
          gfx_drawstr("I");
          gfx_drawnumber(bc_s + 1, 0);
          gfx_drawstr("  ");

          bc_s == bc_my_slot ? (
            gfx_drawstr("[YOU]");
          ) : (
            iwho = gmem[isb + 3];
            // Check if anyone is following this instance
            bc_has_follower = 0;
            bc_fsc = 0;
            loop(BC_MAX_INST,
              fsb2 = BC_MY_REGION + bc_fsc * BC_SLOT_SIZE;
              gmem[fsb2 + 1] > 0 && gmem[fsb2 + 3] == isid ? bc_has_follower = 1;
              bc_fsc += 1;
            );
            iwho > 0 ? (
              // This instance is following someone — FOLLOWER
              gfx_r = 0.4; gfx_g = 0.6; gfx_b = 0.9;
              gfx_drawstr("[FOLLOWER]");
            ) : bc_has_follower ? (
              // Someone is following this instance — LEADER
              gfx_r = 0.95; gfx_g = 0.78; gfx_b = 0.35;
              gfx_drawstr("[LEADER]");
            ) : (
              // Nobody following, not following anyone — UNASSIGNED
              gfx_r = 0.38; gfx_g = 0.38; gfx_b = 0.45;
              gfx_drawstr("[UNASSIGNED]");
            );
            gfx_r = 0.35; gfx_g = 0.45; gfx_b = 0.35;
            bc_steal_mode ? (
              gfx_drawstr("  click: steal");
            ) : (
              gfx_drawstr("  click: follow");
            );
            (mouse_cap & 1) && !(last_cap & 1) &&
              mouse_y >= draw_row_y && mouse_y < draw_row_y + row_h &&
              mouse_x >= floor(8 * S) && mouse_x < gfx_w - floor(8 * S) ? (
              bc_steal_mode ? (
                bc_steal_target = isid;
                bc_steal_pending = 1;
                bc_steal_mode = 0;
              ) : (
                bc_can_follow = 1;
                bc_cursor = isid;
                bc_hops = 0;
                while(bc_cursor > 0 && bc_hops < BC_MAX_INST) (
                  bc_cursor == bc_my_id ? (
                    bc_can_follow = 0;
                    bc_cursor = 0;
                  ) : (
                    bc_next = 0;
                    bc_cs = 0;
                    loop(BC_MAX_INST,
                      csb = BC_MY_REGION + bc_cs * BC_SLOT_SIZE;
                      gmem[csb + 1] == bc_cursor ? (
                        bc_next = gmem[csb + 3];
                        bc_cs = BC_MAX_INST;
                      );
                      bc_cs += 1;
                    );
                    bc_cursor = bc_next;
                  );
                  bc_hops += 1;
                );
                bc_can_follow ? (
                  bc_following = isid;
                );
              );
            );
          );
        );
        bc_visible += 1;
      );
      bc_s += 1;
    );
  );

  last_cap = mouse_cap;

  // --- BUY + NOTICE BUTTONS ---
  notice_btn_x = gfx_w - floor(60 * S);
  notice_btn_y = bc_panel_y - floor(18 * S);
  buy_btn_x = notice_btn_x - floor(50 * S);
  buy_btn_y = notice_btn_y;
  gfx_r = 0.6; gfx_g = 0.5; gfx_b = 0.3;
  gfx_rect(buy_btn_x, buy_btn_y, floor(45 * S), floor(15 * S));
  gfx_r = 0; gfx_g = 0; gfx_b = 0;
  gfx_x = buy_btn_x + floor(4 * S); gfx_y = buy_btn_y + floor(2 * S);
  gfx_drawstr("BUY");
  (mouse_cap & 1) && mouse_x >= buy_btn_x && mouse_x <= buy_btn_x + floor(45 * S) && mouse_y >= buy_btn_y && mouse_y <= buy_btn_y + floor(15 * S) && !buy_clicked ? (
    buy_show = !buy_show; buy_show ? notice_show = 0;
    buy_clicked = 1;
  );
  !(mouse_cap & 1) ? buy_clicked = 0;
  gfx_r = 0.6; gfx_g = 0.5; gfx_b = 0.3;
  gfx_rect(notice_btn_x, notice_btn_y, floor(55 * S), floor(15 * S));
  gfx_r = 0; gfx_g = 0; gfx_b = 0;
  gfx_x = notice_btn_x + floor(4 * S); gfx_y = notice_btn_y + floor(2 * S);
  gfx_drawstr("NOTICE");
  (mouse_cap & 1) && mouse_x >= notice_btn_x && mouse_x <= notice_btn_x + floor(55 * S) && mouse_y >= notice_btn_y && mouse_y <= notice_btn_y + floor(15 * S) && !notice_clicked ? (
    notice_show = !notice_show; notice_show ? buy_show = 0;
    notice_clicked = 1;
  );
  !(mouse_cap & 1) ? notice_clicked = 0;
  buy_show ? (
    gfx_r = 0.05; gfx_g = 0.05; gfx_b = 0.05; gfx_a = 0.95;
    gfx_rect(0, 0, gfx_w, gfx_h); gfx_a = 1;
    gfx_r = 0.9; gfx_g = 0.8; gfx_b = 0.5;
    gfx_x = floor(15 * S); gfx_y = floor(10 * S);
    gfx_drawstr("SUPPORT LMS");
    gfx_r = 0.7; gfx_g = 0.7; gfx_b = 0.7;
    gfx_x = floor(15 * S); gfx_y = floor(35 * S);
    gfx_drawstr("These plugins are offered for free use by anyone not able to afford it.");
    gfx_x = floor(15 * S); gfx_y = floor(50 * S);
    gfx_drawstr("No need to prove anything to us. But if you can afford to buy this suite,");
    gfx_x = floor(15 * S); gfx_y = floor(65 * S);
    gfx_drawstr("we would sure appreciate it. 50 dollars gets you every update and every");
    gfx_x = floor(15 * S); gfx_y = floor(80 * S);
    gfx_drawstr("plugin added to this suite forever. Its in its baby stages and these will");
    gfx_x = floor(15 * S); gfx_y = floor(95 * S);
    gfx_drawstr("only get doper over time. We also offer 6 months installments. But if you");
    gfx_x = floor(15 * S); gfx_y = floor(110 * S);
    gfx_drawstr("dont have the money, dont sweat it, you can use as much and as long as");
    gfx_x = floor(15 * S); gfx_y = floor(125 * S);
    gfx_drawstr("you like. Hail Satan. - LMS");
    gfx_r = 0.5; gfx_g = 0.7; gfx_b = 1.0;
    gfx_x = floor(15 * S); gfx_y = floor(150 * S);
    gfx_drawstr("bryanleaf.gumroad.com/l/zzgmzx");
    gfx_r = 0.6; gfx_g = 0.5; gfx_b = 0.3;
    gfx_rect(buy_btn_x, buy_btn_y, floor(45 * S), floor(15 * S));
    gfx_rect(notice_btn_x, notice_btn_y, floor(55 * S), floor(15 * S));
    gfx_r = 0; gfx_g = 0; gfx_b = 0;
    gfx_x = buy_btn_x + floor(4 * S); gfx_y = buy_btn_y + floor(2 * S);
    gfx_drawstr("BUY");
    gfx_x = notice_btn_x + floor(4 * S); gfx_y = notice_btn_y + floor(2 * S);
    gfx_drawstr("NOTICE");
  );
  notice_show ? (
    gfx_r = 0.05; gfx_g = 0.05; gfx_b = 0.05; gfx_a = 0.95;
    gfx_rect(0, 0, gfx_w, gfx_h); gfx_a = 1;
    gfx_r = 0.9; gfx_g = 0.8; gfx_b = 0.5;
    gfx_x = floor(15 * S); gfx_y = floor(10 * S);
    gfx_drawstr("NOTICE: THEY ARE TRYING TO STEAL YOUR COMPUTER");
    gfx_r = 0.7; gfx_g = 0.7; gfx_b = 0.7;
    gfx_x = floor(15 * S); gfx_y = floor(30 * S);
    gfx_drawstr("The algorithms in our favorite software are decades old.");
    gfx_x = floor(15 * S); gfx_y = floor(45 * S);
    gfx_drawstr("A mathematical model is a truth about the world,");
    gfx_x = floor(15 * S); gfx_y = floor(60 * S);
    gfx_drawstr("not a copyrightable product. You do not have to stay");
    gfx_x = floor(15 * S); gfx_y = floor(75 * S);
    gfx_drawstr("a slave to subscription software. Install Linux.");
    gfx_x = floor(15 * S); gfx_y = floor(90 * S);
    gfx_drawstr("Build your own tools. Believe in yourself.");
    gfx_r = 0.5; gfx_g = 0.7; gfx_b = 1.0;
    gfx_x = floor(15 * S); gfx_y = floor(115 * S);
    gfx_drawstr("github.com/LMSBAND  |  instagram.com/LMSSKABAND");
    gfx_r = 0.6; gfx_g = 0.5; gfx_b = 0.3;
    gfx_rect(buy_btn_x, buy_btn_y, floor(45 * S), floor(15 * S));
    gfx_rect(notice_btn_x, notice_btn_y, floor(55 * S), floor(15 * S));
    gfx_r = 0; gfx_g = 0; gfx_b = 0;
    gfx_x = buy_btn_x + floor(4 * S); gfx_y = buy_btn_y + floor(2 * S);
    gfx_drawstr("BUY");
    gfx_x = notice_btn_x + floor(4 * S); gfx_y = notice_btn_y + floor(2 * S);
    gfx_drawstr("NOTICE");
  );

// ============================================================
// @SERIALIZE — Persist follow state
// ============================================================
@serialize
file_var(0, bc_following);
file_var(0, bc_my_id);
