desc:Matchering Realtime Master (FIR Convolution)
//tags: mastering EQ limiter matchering convolution
//author: LMS + Claude

filename:0,matchering_fir_data.txt

options:gmem=DrumBanger

slider1:-2.70<-20,20,0.1>Input Gain (dB)
slider2:100<0,100,1>Dry/Wet (%)
slider3:1<0,1,1{Off,On}>Limiter
slider4:-0.01<-6,0,0.01>Limiter Threshold (dB)
slider5:0<-6,6,0.1>Low Tweak (dB)
slider6:0<-6,6,0.1>Mid Tweak (dB)
slider7:0<-6,6,0.1>High Tweak (dB)
slider8:500<100,2000,1>Mid Freq (Hz)
slider9:0<0,1,1{Off,On}>42069 Compressor
slider10:-12<-40,0,0.5>42069 Threshold (dB)
slider11:4<0,3,1{4:1,8:1,12:1,20:1}>42069 Ratio
slider12:0.2<0.02,0.8,0.01>42069 Attack (ms)
slider13:250<50,1100,10>42069 Release (ms)
slider14:100<0,100,1>42069 Mix (%)

@init
  fir_len = 4096;
  fft_size = 8192;
  chunk_size = 4096;

  // Memory pointers - all FFT buffers within first 65536 block
  mid_fir_fft = 0;           // 0..8191
  side_fir_fft = 8192;       // 8192..16383
  // Double-buffer input
  input_buf_l0 = 16384;      // 16384..20479
  input_buf_r0 = 20480;      // 20480..24575
  input_buf_l1 = 24576;      // 24576..28671
  input_buf_r1 = 28672;      // 28672..32767
  work_buf_mid = 32768;      // 32768..40959
  work_buf_side = 40960;     // 40960..49151
  overlap_mid = 49152;       // 49152..53247
  overlap_side = 53248;      // 53248..57343
  output_buf_l = 57344;      // 57344..61439
  output_buf_r = 61440;      // 61440..65535

  buf_pos = 0;
  output_ready = 0;
  cur_input_l = input_buf_l0;
  cur_input_r = input_buf_r0;

  // Initialize slider-derived values (in case @slider hasn't run yet)
  master_gain = 10 ^ (-2.70 / 20);
  dry_wet = 1.0;
  limiter_on = 1;
  limiter_thresh = 10 ^ (-0.01 / 20);

  // 42069 compressor state
  comp_env = 0;  // envelope follower state (dB)
  comp_gr_db = 0;  // current gain reduction for metering

  // --- Load FIR coefficients from data file ---
  // Clear both FFT buffers
  i = 0;
  loop(fft_size,
    mid_fir_fft[i] = 0;
    side_fir_fft[i] = 0;
    i += 1;
  );

  // Read mid FIR (first fir_len values) and side FIR (next fir_len values)
  fh = file_open(0);
  fh >= 0 ? (
    file_mem(fh, mid_fir_fft, fir_len);
    file_mem(fh, side_fir_fft, fir_len);
    file_close(fh);
  );

  // FFT both FIRs in place
  fft_real(mid_fir_fft, fft_size);
  fft_real(side_fir_fft, fft_size);

  // Clear overlap buffers
  i = 0;
  loop(fir_len,
    overlap_mid[i] = 0;
    overlap_side[i] = 0;
    i += 1;
  );

  // Clear output buffers
  i = 0;
  loop(chunk_size,
    output_buf_l[i] = 0;
    output_buf_r[i] = 0;
    i += 1;
  );

  // Post-tweak biquad state
  ls_b0 = 0; ls_b1 = 0; ls_b2 = 0; ls_a1 = 0; ls_a2 = 0;
  ls_xl1 = 0; ls_xl2 = 0; ls_yl1 = 0; ls_yl2 = 0;
  ls_xr1 = 0; ls_xr2 = 0; ls_yr1 = 0; ls_yr2 = 0;
  hs_b0 = 0; hs_b1 = 0; hs_b2 = 0; hs_a1 = 0; hs_a2 = 0;
  hs_xl1 = 0; hs_xl2 = 0; hs_yl1 = 0; hs_yl2 = 0;
  hs_xr1 = 0; hs_xr2 = 0; hs_yr1 = 0; hs_yr2 = 0;
  mp_b0 = 0; mp_b1 = 0; mp_b2 = 0; mp_a1 = 0; mp_a2 = 0;
  mp_xl1 = 0; mp_xl2 = 0; mp_yl1 = 0; mp_yl2 = 0;
  mp_xr1 = 0; mp_xr2 = 0; mp_yr1 = 0; mp_yr2 = 0;

  // Report latency to REAPER for PDC
  pdc_delay = chunk_size;
  pdc_bot_ch = 0;
  pdc_top_ch = 2;

  function calc_low_shelf(freq, gain_db)
    local(a, w0, cs, sn, alpha, ap1, am1, beta, a0_inv)
  (
    a = 10 ^ (gain_db / 40);
    w0 = 2 * $pi * freq / srate;
    cs = cos(w0); sn = sin(w0);
    alpha = sn / (2 * 0.707);
    ap1 = a + 1; am1 = a - 1;
    beta = 2 * sqrt(a) * alpha;
    a0_inv = 1 / (ap1 + am1 * cs + beta);
    ls_b0 = a * (ap1 - am1 * cs + beta) * a0_inv;
    ls_b1 = 2 * a * (am1 - ap1 * cs) * a0_inv;
    ls_b2 = a * (ap1 - am1 * cs - beta) * a0_inv;
    ls_a1 = -2 * (am1 + ap1 * cs) * a0_inv;
    ls_a2 = (ap1 + am1 * cs - beta) * a0_inv;
  );

  function calc_high_shelf(freq, gain_db)
    local(a, w0, cs, sn, alpha, ap1, am1, beta, a0_inv)
  (
    a = 10 ^ (gain_db / 40);
    w0 = 2 * $pi * freq / srate;
    cs = cos(w0); sn = sin(w0);
    alpha = sn / (2 * 0.707);
    ap1 = a + 1; am1 = a - 1;
    beta = 2 * sqrt(a) * alpha;
    a0_inv = 1 / (ap1 - am1 * cs + beta);
    hs_b0 = a * (ap1 + am1 * cs + beta) * a0_inv;
    hs_b1 = -2 * a * (am1 + ap1 * cs) * a0_inv;
    hs_b2 = a * (ap1 + am1 * cs - beta) * a0_inv;
    hs_a1 = 2 * (am1 - ap1 * cs) * a0_inv;
    hs_a2 = (ap1 - am1 * cs - beta) * a0_inv;
  );

  function calc_mid_peak(freq, gain_db, q)
    local(a, w0, alpha, a0_inv)
  (
    a = 10 ^ (gain_db / 20);
    w0 = 2 * $pi * freq / srate;
    alpha = sin(w0) / (2 * q);
    a0_inv = 1 / (1 + alpha / a);
    mp_b0 = (1 + alpha * a) * a0_inv;
    mp_b1 = (-2 * cos(w0)) * a0_inv;
    mp_b2 = (1 - alpha * a) * a0_inv;
    mp_a1 = (-2 * cos(w0)) * a0_inv;
    mp_a2 = (1 - alpha / a) * a0_inv;
  );

notice_show = 0;

  // ============================================================
  // BROADCAST SYSTEM — Instance Registry
  // ============================================================
  BC_BASE = 100000;
  BC_MY_TYPE = 11;           // Matchering
  BC_SLOT_SIZE = 512;
  BC_MAX_INST = 8;
  BC_PARAM_COUNT = 14;
  BC_MY_REGION = BC_BASE + BC_MY_TYPE * 4096;
  BC_STALE_TIMEOUT = 2;

  // Generate unique instance ID (only on first init, preserve across transport stop/start)
  bc_my_id == 0 ? bc_my_id = floor(rand() * 1073741824) + 1;
  bc_my_slot = -1;
  // bc_following preserved by @serialize — do NOT zero here
  bc_follow_slot = -1;
  bc_steal_pending = 0;
  bc_steal_target = 0;
  bc_panel_expanded = 0;
  bc_steal_mode = 0;
  bc_instance_count = 0;

  BC_STALE_HB = 70000;
  BC_STALE_CT = 70008;
  i = 0;
  loop(BC_MAX_INST,
    BC_STALE_HB[i] = -1;
    BC_STALE_CT[i] = 0;
    i += 1;
  );

  bc_i = 0;
  loop(BC_MAX_INST,
    bc_my_slot < 0 ? (
      sb = BC_MY_REGION + bc_i * BC_SLOT_SIZE;
      sid = gmem[sb + 1];
      (sid == 0 || sid == bc_my_id) ? (
        bc_my_slot = bc_i;
      );
    );
    bc_i += 1;
  );

  bc_my_slot >= 0 ? (
    sb = BC_MY_REGION + bc_my_slot * BC_SLOT_SIZE;
    gmem[sb + 0] = 0;
    gmem[sb + 1] = bc_my_id;
    gmem[sb + 2] = BC_MY_TYPE;
    gmem[sb + 3] = 0;
    gmem[sb + 4] = BC_PARAM_COUNT;
  );

@slider
  master_gain = 10 ^ (slider1 / 20);
  dry_wet = slider2 / 100;
  limiter_on = slider3;
  limiter_thresh = 10 ^ (slider4 / 20);

  // Post-tweak EQ
  low_gain = slider5;
  mid_gain = slider6;
  high_gain = slider7;
  mid_freq = slider8;

  calc_low_shelf(200, low_gain);
  calc_high_shelf(8000, high_gain);
  calc_mid_peak(mid_freq, mid_gain, 0.7);

  // 42069 compressor
  comp_on = slider9;
  comp_thresh = slider10;
  // Ratio: slider11 is 0=4:1, 1=8:1, 2=12:1, 3=20:1
  slider11 == 0 ? comp_ratio = 4;
  slider11 == 1 ? comp_ratio = 8;
  slider11 == 2 ? comp_ratio = 12;
  slider11 == 3 ? comp_ratio = 20;
  // Attack/release coefficients (42069 has very fast attack)
  comp_att = exp(-1 / (slider12 * 0.001 * srate));
  comp_rel = exp(-1 / (slider13 * 0.001 * srate));
  comp_mix = slider14 / 100;

// ============================================================
// @BLOCK — Broadcast, heartbeat, stale-check, follow, steal
// ============================================================
@block
bc_my_slot >= 0 ? (
  sb = BC_MY_REGION + bc_my_slot * BC_SLOT_SIZE;
  gmem[sb + 1] != bc_my_id ? (
    bc_my_id = floor(rand() * 1073741824) + 1;
    bc_my_slot = -1;
    bc_i = 0;
    loop(BC_MAX_INST,
      bc_my_slot < 0 ? (
        tsb = BC_MY_REGION + bc_i * BC_SLOT_SIZE;
        (gmem[tsb + 1] == 0) ? bc_my_slot = bc_i;
      );
      bc_i += 1;
    );
    bc_my_slot >= 0 ? (
      sb = BC_MY_REGION + bc_my_slot * BC_SLOT_SIZE;
      gmem[sb + 0] = 0;
      gmem[sb + 1] = bc_my_id;
      gmem[sb + 2] = BC_MY_TYPE;
      gmem[sb + 3] = bc_following;
      gmem[sb + 4] = BC_PARAM_COUNT;
    );
  );
);

bc_my_slot >= 0 && bc_following > 0 ? (
  bc_found_leader = 0;
  bc_scan = 0;
  loop(BC_MAX_INST,
    bc_scan != bc_my_slot ? (
      lsb = BC_MY_REGION + bc_scan * BC_SLOT_SIZE;
      gmem[lsb + 1] == bc_following ? (
        bc_found_leader = 1;
        bc_follow_slot = bc_scan;
        lbase = lsb + 8;
        slider1 = gmem[lbase + 0];
        slider2 = gmem[lbase + 1];
        slider3 = gmem[lbase + 2];
        slider4 = gmem[lbase + 3];
        slider5 = gmem[lbase + 4];
        slider6 = gmem[lbase + 5];
        slider7 = gmem[lbase + 6];
        slider8 = gmem[lbase + 7];
        slider9 = gmem[lbase + 8];
        slider10 = gmem[lbase + 9];
        slider11 = gmem[lbase + 10];
        slider12 = gmem[lbase + 11];
        slider13 = gmem[lbase + 12];
        slider14 = gmem[lbase + 13];
        bc_scan = BC_MAX_INST;
      );
    );
    bc_scan += 1;
  );
  !bc_found_leader ? (
    bc_following = 0;
    bc_follow_slot = -1;
  );
);

bc_my_slot >= 0 && bc_steal_pending ? (
  bc_scan = 0;
  loop(BC_MAX_INST,
    lsb = BC_MY_REGION + bc_scan * BC_SLOT_SIZE;
    gmem[lsb + 1] == bc_steal_target ? (
      lbase = lsb + 8;
      slider1 = gmem[lbase + 0];
      slider2 = gmem[lbase + 1];
      slider3 = gmem[lbase + 2];
      slider4 = gmem[lbase + 3];
      slider5 = gmem[lbase + 4];
      slider6 = gmem[lbase + 5];
      slider7 = gmem[lbase + 6];
      slider8 = gmem[lbase + 7];
      slider9 = gmem[lbase + 8];
      slider10 = gmem[lbase + 9];
      slider11 = gmem[lbase + 10];
      slider12 = gmem[lbase + 11];
      slider13 = gmem[lbase + 12];
      slider14 = gmem[lbase + 13];
      bc_scan = BC_MAX_INST;
    );
    bc_scan += 1;
  );
  bc_steal_pending = 0;
  bc_steal_target = 0;
  bc_steal_mode = 0;
);

bc_my_slot >= 0 ? (
  sb = BC_MY_REGION + bc_my_slot * BC_SLOT_SIZE;
  gmem[sb + 0] += 1;
  gmem[sb + 3] = bc_following;
  pbase = sb + 8;
  gmem[pbase + 0] = slider1;
  gmem[pbase + 1] = slider2;
  gmem[pbase + 2] = slider3;
  gmem[pbase + 3] = slider4;
  gmem[pbase + 4] = slider5;
  gmem[pbase + 5] = slider6;
  gmem[pbase + 6] = slider7;
  gmem[pbase + 7] = slider8;
  gmem[pbase + 8] = slider9;
  gmem[pbase + 9] = slider10;
  gmem[pbase + 10] = slider11;
  gmem[pbase + 11] = slider12;
  gmem[pbase + 12] = slider13;
  gmem[pbase + 13] = slider14;
);

bc_instance_count = 0;
bc_scan = 0;
loop(BC_MAX_INST,
  tsb = BC_MY_REGION + bc_scan * BC_SLOT_SIZE;
  tsid = gmem[tsb + 1];
  tsid > 0 ? (
    bc_scan == bc_my_slot ? (
      bc_instance_count += 1;
    ) : (
      tshb = gmem[tsb + 0];
      tshb == BC_STALE_HB[bc_scan] ? (
        BC_STALE_CT[bc_scan] += samplesblock / srate;
        BC_STALE_CT[bc_scan] > BC_STALE_TIMEOUT ? (
          gmem[tsb + 1] = 0;
          BC_STALE_CT[bc_scan] = 0;
        );
      ) : (
        BC_STALE_HB[bc_scan] = tshb;
        BC_STALE_CT[bc_scan] = 0;
        bc_instance_count += 1;
      );
    );
  );
  bc_scan += 1;
);

@sample
  // Store input samples into current input buffer
  cur_input_l[buf_pos] = spl0;
  cur_input_r[buf_pos] = spl1;

  // Output from previous processed block
  output_ready ? (
    spl0 = output_buf_l[buf_pos];
    spl1 = output_buf_r[buf_pos];
  ) : (
    spl0 = 0;
    spl1 = 0;
  );

  buf_pos += 1;

  // When we have a full chunk, process it
  buf_pos >= chunk_size ? (
    buf_pos = 0;

    // Swap input buffers: process the one we just filled,
    // start filling the other one
    proc_l = cur_input_l;
    proc_r = cur_input_r;
    cur_input_l == input_buf_l0 ? (
      cur_input_l = input_buf_l1;
      cur_input_r = input_buf_r1;
    ) : (
      cur_input_l = input_buf_l0;
      cur_input_r = input_buf_r0;
    );

    // Convert L/R to Mid/Side
    i = 0;
    loop(chunk_size,
      l = proc_l[i];
      r = proc_r[i];
      work_buf_mid[i] = (l + r) * 0.5;
      work_buf_side[i] = (l - r) * 0.5;
      i += 1;
    );

    // Zero-pad to fft_size
    i = chunk_size;
    loop(fft_size - chunk_size,
      work_buf_mid[i] = 0;
      work_buf_side[i] = 0;
      i += 1;
    );

    // FFT the mid and side chunks
    fft_real(work_buf_mid, fft_size);
    fft_real(work_buf_side, fft_size);

    // Convolve with pre-computed FIR FFTs
    convolve_c(work_buf_mid, mid_fir_fft, fft_size / 2);
    convolve_c(work_buf_side, side_fir_fft, fft_size / 2);

    // IFFT back to time domain
    ifft_real(work_buf_mid, fft_size);
    ifft_real(work_buf_side, fft_size);

    // Scale by 1/fft_size and overlap-add
    scale = 1 / fft_size;
    i = 0;

    // First part: add overlap from previous block
    loop(fir_len - 1,
      m = work_buf_mid[i] * scale + overlap_mid[i];
      s = work_buf_side[i] * scale + overlap_side[i];
      i < chunk_size ? (
        // Convert M/S back to L/R, apply master gain
        output_buf_l[i] = (m + s) * master_gain;
        output_buf_r[i] = (m - s) * master_gain;
      );
      i += 1;
    );

    // Middle part: no overlap needed (only if chunk_size > fir_len-1)
    loop(chunk_size - (fir_len - 1),
      m = work_buf_mid[i] * scale;
      s = work_buf_side[i] * scale;
      output_buf_l[i] = (m + s) * master_gain;
      output_buf_r[i] = (m - s) * master_gain;
      i += 1;
    );

    // Save the tail for overlap-add next block
    j = 0;
    loop(fir_len - 1,
      overlap_mid[j] = work_buf_mid[chunk_size + j] * scale;
      overlap_side[j] = work_buf_side[chunk_size + j] * scale;
      j += 1;
    );

    output_ready = 1;

    // Apply post-tweak EQ and dry/wet to output buffer
    i = 0;
    loop(chunk_size,
      wet_l = output_buf_l[i];
      wet_r = output_buf_r[i];

      // Low shelf
      abs(low_gain) > 0.05 ? (
        ol = ls_b0 * wet_l + ls_b1 * ls_xl1 + ls_b2 * ls_xl2 - ls_a1 * ls_yl1 - ls_a2 * ls_yl2;
        ls_xl2 = ls_xl1; ls_xl1 = wet_l; ls_yl2 = ls_yl1; ls_yl1 = ol;
        wet_l = ol;
        ol = ls_b0 * wet_r + ls_b1 * ls_xr1 + ls_b2 * ls_xr2 - ls_a1 * ls_yr1 - ls_a2 * ls_yr2;
        ls_xr2 = ls_xr1; ls_xr1 = wet_r; ls_yr2 = ls_yr1; ls_yr1 = ol;
        wet_r = ol;
      );

      // Mid peak
      abs(mid_gain) > 0.05 ? (
        ol = mp_b0 * wet_l + mp_b1 * mp_xl1 + mp_b2 * mp_xl2 - mp_a1 * mp_yl1 - mp_a2 * mp_yl2;
        mp_xl2 = mp_xl1; mp_xl1 = wet_l; mp_yl2 = mp_yl1; mp_yl1 = ol;
        wet_l = ol;
        ol = mp_b0 * wet_r + mp_b1 * mp_xr1 + mp_b2 * mp_xr2 - mp_a1 * mp_yr1 - mp_a2 * mp_yr2;
        mp_xr2 = mp_xr1; mp_xr1 = wet_r; mp_yr2 = mp_yr1; mp_yr1 = ol;
        wet_r = ol;
      );

      // High shelf
      abs(high_gain) > 0.05 ? (
        ol = hs_b0 * wet_l + hs_b1 * hs_xl1 + hs_b2 * hs_xl2 - hs_a1 * hs_yl1 - hs_a2 * hs_yl2;
        hs_xl2 = hs_xl1; hs_xl1 = wet_l; hs_yl2 = hs_yl1; hs_yl1 = ol;
        wet_l = ol;
        ol = hs_b0 * wet_r + hs_b1 * hs_xr1 + hs_b2 * hs_xr2 - hs_a1 * hs_yr1 - hs_a2 * hs_yr2;
        hs_xr2 = hs_xr1; hs_xr1 = wet_r; hs_yr2 = hs_yr1; hs_yr1 = ol;
        wet_r = ol;
      );

      // 42069 FET Compressor (stereo linked, feed-forward)
      comp_on ? (
        // Peak detection - stereo linked
        det = max(abs(wet_l), abs(wet_r));
        det_db = det > 0.0000001 ? 20 * log10(det) : -140;

        // Gain computation
        over = det_db - comp_thresh;
        over > 0 ? (
          target_gr = over - over / comp_ratio;
        ) : (
          target_gr = 0;
        );

        // Envelope follower (smooth the gain reduction)
        target_gr > comp_env ? (
          comp_env = comp_att * comp_env + (1 - comp_att) * target_gr;
        ) : (
          comp_env = comp_rel * comp_env + (1 - comp_rel) * target_gr;
        );

        // Apply gain reduction
        gr = 10 ^ (-comp_env / 20);
        comp_gr_db = comp_env;  // store for metering

        // Parallel compression mix
        comp_mix < 1 ? (
          wet_l = wet_l * (1 - comp_mix) + wet_l * gr * comp_mix;
          wet_r = wet_r * (1 - comp_mix) + wet_r * gr * comp_mix;
        ) : (
          wet_l *= gr;
          wet_r *= gr;
        );
      );

      // Limiter
      limiter_on ? (
        abs(wet_l) > limiter_thresh ? wet_l = sign(wet_l) * limiter_thresh;
        abs(wet_r) > limiter_thresh ? wet_r = sign(wet_r) * limiter_thresh;
      );

      // Dry/wet mix (dry from the just-processed input buffer)
      output_buf_l[i] = proc_l[i] * (1 - dry_wet) + wet_l * dry_wet;
      output_buf_r[i] = proc_r[i] * (1 - dry_wet) + wet_r * dry_wet;

      i += 1;
    );
  );

@gfx 500 260
  // Background
  gfx_r = 0.08; gfx_g = 0.08; gfx_b = 0.12;
  gfx_rect(0, 0, gfx_w, gfx_h);

  // Title
  gfx_r = 0.7; gfx_g = 0.7; gfx_b = 0.8;
  gfx_x = 10; gfx_y = 8;
  gfx_drawstr("MATCHERING REALTIME MASTER");

  // Subtitle
  gfx_r = 0.4; gfx_g = 0.4; gfx_b = 0.5;
  gfx_x = 10; gfx_y = 24;
  gfx_drawstr("FIR Convolution - 4096 taps");

  // Status
  gfx_x = 10; gfx_y = 44;
  output_ready ? (
    gfx_r = 0.2; gfx_g = 0.8; gfx_b = 0.3;
    gfx_drawstr("Active");
  ) : (
    gfx_r = 0.8; gfx_g = 0.3; gfx_b = 0.2;
    gfx_drawstr("Buffering...");
  );

  // Post-tweak indicator
  gfx_r = 0.5; gfx_g = 0.5; gfx_b = 0.6;
  gfx_x = 10; gfx_y = 70;
  gfx_drawstr("Post EQ: ");
  abs(low_gain) > 0.05 || abs(mid_gain) > 0.05 || abs(high_gain) > 0.05 ? (
    gfx_r = 0.9; gfx_g = 0.6; gfx_b = 0.2;
    gfx_drawstr("ON");
  ) : (
    gfx_r = 0.3; gfx_g = 0.3; gfx_b = 0.4;
    gfx_drawstr("Flat");
  );

  // Gain meter
  gfx_r = 0.3; gfx_g = 0.3; gfx_b = 0.4;
  gfx_x = 10; gfx_y = 90;
  gfx_drawstr("Input: ");
  gfx_r = 0.6; gfx_g = 0.8; gfx_b = 0.9;
  gfx_drawnumber(slider1, 1);
  gfx_drawstr(" dB");

  // 42069 GR meter
  gfx_x = 10; gfx_y = 110;
  comp_on ? (
    gfx_r = 0.5; gfx_g = 0.5; gfx_b = 0.6;
    gfx_drawstr("42069 GR: ");
    gfx_r = 1.0; gfx_g = 0.4; gfx_b = 0.2;
    gfx_drawstr("-");
    gfx_drawnumber(comp_gr_db, 1);
    gfx_drawstr(" dB");

    // Visual GR bar
    gfx_r = 1.0; gfx_g = 0.3; gfx_b = 0.1;
    gr_width = min(comp_gr_db * 8, gfx_w - 20);
    gr_width > 0 ? gfx_rect(10, 128, gr_width, 6);
  ) : (
    gfx_r = 0.3; gfx_g = 0.3; gfx_b = 0.4;
    gfx_drawstr("42069: Off");
  );
  // ============================================================
  // INSTANCE MANAGER PANEL
  // ============================================================
  bc_panel_h = bc_panel_expanded ? 90 : 30;
  bc_panel_y = gfx_h - bc_panel_h;

  gfx_r = 0.04; gfx_g = 0.04; gfx_b = 0.06;
  gfx_rect(0, bc_panel_y, gfx_w, bc_panel_h);
  gfx_r = 0.15; gfx_g = 0.15; gfx_b = 0.20;
  gfx_rect(0, bc_panel_y, gfx_w, 1);

  gfx_setfont(1, "Arial", 11);
  gfx_r = 0.95; gfx_g = 0.45; gfx_b = 0.15;
  gfx_x = 8; gfx_y = bc_panel_y + 8;
  bc_my_slot >= 0 ? (
    gfx_drawstr("I");
    gfx_drawnumber(bc_my_slot + 1, 0);
    gfx_drawstr("/");
    gfx_drawnumber(bc_instance_count, 0);
  ) : (
    gfx_drawstr("--");
  );

  bc_following > 0 ? (
    gfx_r = 0.2; gfx_g = 0.8; gfx_b = 0.3;
    gfx_drawstr("  Following: I");
    bc_fs = 0;
    loop(BC_MAX_INST,
      fsb = BC_MY_REGION + bc_fs * BC_SLOT_SIZE;
      gmem[fsb + 1] == bc_following ? (
        gfx_drawnumber(bc_fs + 1, 0);
        bc_fs = BC_MAX_INST;
      );
      bc_fs += 1;
    );
  ) : (
    gfx_r = 0.3; gfx_g = 0.3; gfx_b = 0.4;
    gfx_drawstr("  Following: --");
  );

  exp_x = gfx_w - 200;
  exp_y = bc_panel_y + 4;
  exp_w = 65;
  exp_h = 20;
  gfx_r = 0.12; gfx_g = 0.12; gfx_b = 0.16;
  gfx_rect(exp_x, exp_y, exp_w, exp_h);
  gfx_r = 0.5; gfx_g = 0.5; gfx_b = 0.6;
  gfx_x = exp_x + 5; gfx_y = exp_y + 4;
  bc_panel_expanded ? gfx_drawstr("COLLAPSE") : gfx_drawstr("EXPAND");
  (mouse_cap & 1) && !(last_cap & 1) &&
    mouse_x >= exp_x && mouse_x < exp_x + exp_w &&
    mouse_y >= exp_y && mouse_y < exp_y + exp_h ? (
    bc_panel_expanded = !bc_panel_expanded;
    bc_steal_mode = 0;
  );

  stl_x = gfx_w - 125;
  stl_y = bc_panel_y + 4;
  stl_w = 50;
  stl_h = 20;
  bc_steal_mode ? (
    gfx_r = 0.6; gfx_g = 0.2; gfx_b = 0.1;
  ) : (
    gfx_r = 0.2; gfx_g = 0.1; gfx_b = 0.1;
  );
  gfx_rect(stl_x, stl_y, stl_w, stl_h);
  gfx_r = 0.9; gfx_g = 0.5; gfx_b = 0.2;
  gfx_x = stl_x + 6; gfx_y = stl_y + 4;
  gfx_drawstr("STEAL");
  (mouse_cap & 1) && !(last_cap & 1) &&
    mouse_x >= stl_x && mouse_x < stl_x + stl_w &&
    mouse_y >= stl_y && mouse_y < stl_y + stl_h ? (
    bc_steal_mode = !bc_steal_mode;
    !bc_panel_expanded ? bc_panel_expanded = 1;
  );

  bc_following > 0 ? (
    unf_x = gfx_w - 65;
    unf_y = bc_panel_y + 4;
    unf_w = 55;
    unf_h = 20;
    gfx_r = 0.1; gfx_g = 0.2; gfx_b = 0.1;
    gfx_rect(unf_x, unf_y, unf_w, unf_h);
    gfx_r = 0.5; gfx_g = 0.9; gfx_b = 0.5;
    gfx_x = unf_x + 4; gfx_y = unf_y + 4;
    gfx_drawstr("UNFLW");
    (mouse_cap & 1) && !(last_cap & 1) &&
      mouse_x >= unf_x && mouse_x < unf_x + unf_w &&
      mouse_y >= unf_y && mouse_y < unf_y + unf_h ? (
      bc_following = 0;
      bc_follow_slot = -1;
    );
  );

  bc_panel_expanded ? (
    row_y = bc_panel_y + 30;
    row_h = 14;
    bc_s = 0;
    loop(BC_MAX_INST,
      isb = BC_MY_REGION + bc_s * BC_SLOT_SIZE;
      isid = gmem[isb + 1];
      isid > 0 ? (
        mouse_y >= row_y && mouse_y < row_y + row_h &&
          mouse_x >= 8 && mouse_x < gfx_w - 8 &&
          bc_s != bc_my_slot ? (
          gfx_r = 0.10; gfx_g = 0.10; gfx_b = 0.14;
          gfx_rect(4, row_y, gfx_w - 8, row_h);
        );
        gfx_setfont(1, "Arial", 10);
        bc_s == bc_my_slot ? (
          gfx_r = 0.95; gfx_g = 0.45; gfx_b = 0.15;
        ) : (
          gfx_r = 0.7; gfx_g = 0.7; gfx_b = 0.8;
        );
        gfx_x = 12; gfx_y = row_y + 1;
        gfx_drawstr("I");
        gfx_drawnumber(bc_s + 1, 0);
        gfx_drawstr("  ");
        bc_s == bc_my_slot ? (
          gfx_drawstr("[YOU]");
        ) : (
          iwho = gmem[isb + 3];
          iwho > 0 ? (
            gfx_drawstr("[>I");
            iw = 0;
            loop(BC_MAX_INST,
              iwsb = BC_MY_REGION + iw * BC_SLOT_SIZE;
              gmem[iwsb + 1] == iwho ? (
                gfx_drawnumber(iw + 1, 0);
                iw = BC_MAX_INST;
              );
              iw += 1;
            );
            gfx_drawstr("]");
          ) : (
            gfx_drawstr("[LEADER]");
          );
          gfx_r = 0.35; gfx_g = 0.45; gfx_b = 0.35;
          bc_steal_mode ? (
            gfx_drawstr("  click: steal");
          ) : (
            gfx_drawstr("  click: follow");
          );
          (mouse_cap & 1) && !(last_cap & 1) &&
            mouse_y >= row_y && mouse_y < row_y + row_h &&
            mouse_x >= 8 && mouse_x < gfx_w - 8 ? (
            bc_steal_mode ? (
              bc_steal_target = isid;
              bc_steal_pending = 1;
              bc_steal_mode = 0;
            ) : (
              bc_can_follow = 1;
              bc_cursor = isid;
              bc_hops = 0;
              while(bc_cursor > 0 && bc_hops < BC_MAX_INST) (
                bc_cursor == bc_my_id ? (
                  bc_can_follow = 0;
                  bc_cursor = 0;
                ) : (
                  bc_next = 0;
                  bc_cs = 0;
                  loop(BC_MAX_INST,
                    csb = BC_MY_REGION + bc_cs * BC_SLOT_SIZE;
                    gmem[csb + 1] == bc_cursor ? (
                      bc_next = gmem[csb + 3];
                      bc_cs = BC_MAX_INST;
                    );
                    bc_cs += 1;
                  );
                  bc_cursor = bc_next;
                );
                bc_hops += 1;
              );
              bc_can_follow ? (
                bc_following = isid;
              );
            );
          );
        );
        row_y += row_h;
      );
      bc_s += 1;
    );
  );

  last_cap = mouse_cap;

  // --- NOTICE BUTTON ---
  notice_btn_x = gfx_w - 60;
  notice_btn_y = bc_panel_y - 18;
  gfx_r = 0.6; gfx_g = 0.5; gfx_b = 0.3;
  gfx_rect(notice_btn_x, notice_btn_y, 55, 15);
  gfx_r = 0; gfx_g = 0; gfx_b = 0;
  gfx_x = notice_btn_x + 4; gfx_y = notice_btn_y + 2;
  gfx_drawstr("NOTICE");
  (mouse_cap & 1) && mouse_x >= notice_btn_x && mouse_x <= notice_btn_x + 55 && mouse_y >= notice_btn_y && mouse_y <= notice_btn_y + 15 && !notice_clicked ? (
    notice_show = !notice_show;
    notice_clicked = 1;
  );
  !(mouse_cap & 1) ? notice_clicked = 0;
  notice_show ? (
    gfx_r = 0.05; gfx_g = 0.05; gfx_b = 0.05; gfx_a = 0.95;
    gfx_rect(0, 0, gfx_w, gfx_h);
    gfx_a = 1;
    gfx_r = 0.9; gfx_g = 0.8; gfx_b = 0.5;
    gfx_x = 15; gfx_y = 10;
    gfx_drawstr("NOTICE: THEY ARE TRYING TO STEAL YOUR COMPUTER");
    gfx_r = 0.7; gfx_g = 0.7; gfx_b = 0.7;
    gfx_x = 15; gfx_y = 30;
    gfx_drawstr("The algorithms in our favorite software are decades old.");
    gfx_x = 15; gfx_y = 45;
    gfx_drawstr("A mathematical model is a truth about the world,");
    gfx_x = 15; gfx_y = 60;
    gfx_drawstr("not a copyrightable product. You do not have to stay");
    gfx_x = 15; gfx_y = 75;
    gfx_drawstr("a slave to subscription software. Install Linux.");
    gfx_x = 15; gfx_y = 90;
    gfx_drawstr("Build your own tools. Believe in yourself.");
    gfx_r = 0.5; gfx_g = 0.7; gfx_b = 1.0;
    gfx_x = 15; gfx_y = 115;
    gfx_drawstr("github.com/LMSBAND  |  instagram.com/LMSSKABAND");
    gfx_r = 0.4; gfx_g = 0.4; gfx_b = 0.4;
    gfx_x = 15; gfx_y = 140;
    gfx_r = 0.6; gfx_g = 0.5; gfx_b = 0.3;
    gfx_rect(notice_btn_x, notice_btn_y, 55, 15);
    gfx_r = 0; gfx_g = 0; gfx_b = 0;
    gfx_x = notice_btn_x + 4; gfx_y = notice_btn_y + 2;
    gfx_drawstr("NOTICE");
  );

// ============================================================
// @SERIALIZE — Persist follow state
// ============================================================
@serialize
file_var(0, bc_following);
file_var(0, bc_my_id);
